/* XPM */
static char *cf76a8e2702b4c0819df1c2d708d8e64[] = {
/* columns rows colors chars-per-pixel */
"740 604 26 1 ",
"  c gray1",
". c #070707",
"X c #0B0B0B",
"o c gray5",
"O c #111111",
"+ c #161616",
"@ c gray10",
"# c #1E1E1E",
"$ c gray13",
"% c gray14",
"& c #282828",
"* c #2D2D2D",
"= c gray20",
"- c #373737",
"; c gray23",
": c #3C3C3C",
"> c gray26",
", c gray28",
"< c #494949",
"1 c #4C4C4C",
"2 c #515151",
"3 c gray33",
"4 c #5B5B5B",
"5 c #5F5F5F",
"6 c #727272",
"7 c #797979",
/* pixels */
"*%$%&%%%%$%&&%$$$$$$$######@@@@#######$$$$$$$$#########@@@@@@@@@@@+++@@@@@@@@@@@@########$$$%%%%%%$####$$%&*=---:<1,:;*#$$O#@o%=*&$$%$$%$$$$%&%#%%%%%%%%$$$$$$$$%#@@@#$$#@@###@+@#$%$#@@+@@@@@#@++@@+##@+O+##@$&&$@+@#@@##@++@@++++++++++++++++++++++++++@++++++@@@@@@@@@@@@@@@@###@##$$O++@@++++%*%%&*=#O+O&;,,,>>>>>:::>:::::;;:>>>>:;--------===--;;;;;;;>,>=%$@++OOooO+@&;-*%%#$$@@@+@+@++@@@@@@@####@@@@+++++@@@@@@@@@@@@@###############@@#####@##$$$####$***&$$$%%%&&&&%&*&=-&=:<,;;*#@++#%&&&&&%%%&&**====--;---=**&%%$$***&%##@@@+++@@@#$$%&$@##@+@#$*;245421<,>:;-=*%%***&%$#@@@@@@###@@@@@@@@@@@@@@@@@@@#@@###@@#$$########$$$$#####@$#@@$%$%%#@#$#@@@O#*&@@*-=-:;=&$####:<<:>:>12<,<<<<,,>>>=&$#$%$$##@@@+++++@@@###@@@+$%$&&&&##@@@+oo+%*$@@@##$%&=%%%%",
"#%&%$%$$%%$$%%%$$$$$$#######@@@##################@@@@@@@@@@@@@@@@@@@@@@++@@+@@@@@@#@@########$$$$%$$##$$####$$##%&*<<,,&o@+@%$+#@+++@@###@@#$#######$##########$##@######@@@@@@@@@#$#@++O+++++@+++@@+####@++@#$$$#@++@@@@@@++@@@+@++++++++++++++++++@++++@@++++@@@@@@@@@@@@@@@@@@@@@@@##@@+++++++%*=*%###ooX%*======***&+++++OOOO+#$$$##@@@@@@@@++++++++@#@@$&**%$#@++OOOO@%%%$@@@+@#@++@+OO++@@@@@@@@###@@@@@+++++@++@@@@@@@@@@@@++@@@++@@@++@@@@@@@@@@@@@@@@@@###@++++O++@@@@@@+%$O+%-<<,=##@+#$&%%$$#$$$$$$$$$$$$$####@@@@@@@$%%%$#####@@@##@#$$%%$@#$@+@$*:<1-$$$##$%%$#@+++@##@@@@@@@#@#####@#@@@#######@@@@@@@@@####@#$#@#######$$$$########@#%%$$$$######%#++@$$#%=;::*@+++++#&&#$+#&@X  .#$+@@O+O+#@OO+@+++@@######@+++++@@@oO+*;=#@+++++O@#%%##@@#%&&*=$$$$",
"%%%$$$$$%%%$%$$$$$$$$#######@@@########@@@@@@@@########@@####@@@@@@@@@@@@@@@@@@######@@@@@@@@@@@########@@@@@@++++o$%@%&#@++##@+++@@@###$##$$$$#@@@@#############@@##@@#@@++++@@@#$%$#@+++@@@@@@+@###@@#$$#+@$$###@++O+++@@++@@@@@@@@@@+++++++++++++++@@@@@@@++++++++@+@@++@@@@@++++++@@@@@+++++@#%**$@##O+OO+++++++@@@@+OOOOOOOOOOOOOO+++++++++++++++++##+O@#$&%$#@@++OOO+##@+oooO++@++++++@@+@@+@@@@@@@@@@@@@++++++++@@@@@@@##O++++++++++++@@@++@@@@++++++++++@@@@@@@+++++++@@=&$&&###*;-&$##@O+@@++OOOOOOOOO+@@@@@@@@@@@#####@#######$$#########$%#@#%$##&--&%+O@$@+@########@@@@@@@@@@@@@@@@@@@##########@@@@@@@@@@@@############$$$$$$######@#$%&$##$$#@@#$+$%#+#$##&-::&@+++++#####@@@@@@@@++++++@@@@@@@@@@@@@@@@@@@@@++++++@@@@+&;*@+O+@@@#$@#$@@@+@%&%$#$$$$",
";%@$&%%%%%%%$#$$$$$$########@@@@@@@@@@@##@@@@@@@@######@@@@@@@@@@@@@@@@@@@@######@@@@@@@@@@@@@@@##$$$$#####$##$#########$+OO.O##@@@@@$#+@##@@@@@@#################@@@@@@#@+@@++@@#$%$#@+++@@+@@@@@@@@++##@@@##@#$#@@@++@@@++@@@@@@@@@@@@@@+++++++++OO++@@@@@@++O++++++++++++@@@++++O++@@@####@@@##@#$#@$#+#$O++@+++@@@@@@+++++++++++++++++++++++++++++++@#++@#$$$$#@@+OOOOoO##OO++#@+@@@@@#@@#+@++++@@@@@@@@@@@@+++++++@@@@@@@@@++@@@@@@@@@@@@@@+++@@@@++++@@@@+++@@@@@++++++++@&=%&$@+@@%%=$$##O@#@++++@@@@@@@#@@##############@#######$###@@######$#@#$###&=&@##@@@@@@@@@@@@@######@@@@@@@@@@@@@@@@########@@@@@@@@@@@@##@@@########$$$$#####@@@#$$%%#@$$#@@@$########$$*-*%$@@@@######@@@@@@@@@@@@@@@@@@@@@@#####@@++++@@@###@@@@O@+$%$@+++@#####%%#@@@@@#$$##$$$",
"-&$$&&%%&%$$$$$$$$$$########@@@@@@@@##@@#####@@@@###@####@@@@@##@@@@@@@@@@@@@@@@@@@@@@@@#@######@@#@##@@####@@####################@##$$@++#@@@@@###################@#@@@##@@@++@@@#$#@+OOO++O+++@+++++@@@O+##++@##@@#@@@@+O+@+++++@@@@@@@@@@@@@@@@@+++++++++++++++++++++++++++++++++++@@$$$$##@@@#@@#@@@#@@@+++++@@@@@@@@@@@@@@@@@@@@@++++++++++++@@@@@@@@@@@##@###@+OOOOOOO@@OO@##@@@+##@#++##@++++++@@@@@@@@@@@@@@++@@@@@@@@@@#@++@@@@@@++++@@+++@@@@@+++@@@@@@@@@@@++@@+++++++@@@@@++$%&*$$$#@#$#####@@@@@@@@@######@@@##################@@######$#@#$$#@@@@@@#@@@@@###@@@@@@@+++@++@@+@@@@@##@@#####@@@@@@#@@@@@@@@+@##@@@###@############@@@#$##%&$@#$$#@@#########%##$#@@@@@@@@#$#@@@@@@@@@@@@@@@@@@@@@@@@@@@@@###@######@@@@@@++@##@++++O+@%%$#@##$@@#$#@####",
"$&&%%%%$%%$#$$$$$$$$#########@@@@@####@@@@@#####@@@@@@@@###@@@@@@@@@@@@@@@@##@@@@@@@@@@@@@@@@@@@@@@@@@@@######$$#@++++@#$#@@$$#@@@####$%@@#$$#####@@@@@@@@@@@@@@######@@##@@@@@#@#$%$#@+++@+++@++@@@@@@+++@@@+++++@@+@@@++++++++++@@@@@@@++++++++++++++++++OO++++++++++++++++++++++++@@#&&%#@++++@++@###@@+++++++++++++++++++++++++++@@@@@@@@@@@@+@++++++@#@+##@@##@+OOO++oO+++oO@++@####@@@@@#@+++++++++@@@@@@@@@@@@@@@@@@@@@@@@@@+OO+@@@+OOO+++++++@@+++++@@++@@@@@@@@##@@@@+++@@@++++#$&*$$$#+@#@@################$#$$$$$$$$$##########$####$###$%#@##$$+OO+++++@@+@@@@@@@@@@@++@@@@##@@##@@@@@@@#@@@@@@@@@#@@@@+@@@+@##@+@##@@@@########@@@@@#$#@$&%#@#$$@@@##########@@$#@@@@@@@$$#@@@@@@@@@@@@@@@@@@@@@@@@@@@@@@#########@@@@@@++#$#@++OOO+++@#@@+#%%$$$$#####",
"%%%%%%%%$#$$$$$$$$$###########@#####@@@@@@@@@@@@@@@@@@@@@@@@@@@@@@@@@@@@@@@@@@@@@@@##@@@@@@@@@@@@@@@@@#@@###$$$$$#@@@@#$@@@@@@@+++@@+++@##########@@@@@###############@###@@@@@###$%$#@+++@+++@++@@@+@@++@+++@$#+O+++++@@@##++@@@@@@@@@++++++++++OOO++++++++OOOO+++++++++++++++++++++@@#$$#@+++++@+O+@#$#@+++++++++++++OOOOOO+++++++++@@@@@@++OO+++++++++++++@@@@###@+OOOOooO@@oO@@@++#+O@+@@O+@@@@@++++++++++@@@@@@@@@@@@@+++++++@@+++++@@+++++@@++++@@++++++++++++@@+@@@+++++++@@+++++#$%%%$$###$#@###$$$$$$$$$$$$$$$$$$$##############$$$$$$$$$$%%$@#@##@++@@O++@@@@@@@@@@@@@#@##########@@+@@@@@@@@+@+@@@@@@@@@+@@@@@@#@+@#@@@@@@@####@@@@@@####@#%%$#$$#@@@###########$%$#%@@@@@$%$#######@@@@@@@@@@@@@@@@@@@@@@@@@@@@@@@@@@@@@@+@%%#@++OOOOo+#+o+@#%$@@@####$$",
"=%$%%%%&%$$%$##$$$###################@@######@@@@#########@@@@@@@###@@@@@@@@@@@@@@###@@@@@@@@@@##@@@@@###$$#$$##@@@@@@@@@@@@@@@@@@##@@++#$##@@$$####@@####$$#######@@@@###@##@@@@#$$$@++O+++++++OO+@+@@+++++++@#@+O+@@+@###@+@@@@++@@@++++++++++++++++OOOO++++OOOOO++++O+++++++++++++@@@+++@+++++@@++@+#@@++++++++++++++++OO++++++++++++++++++++++++++++++O+@@+@@#$#@+++oO+++@+@++O+OO@OO+++@+@@@@@@+++++++++++@@@@@@@@@@@@+++++@@@@@#@+++####@@@@@+++@@@@@@+++++++@@@@@@@+++++++@@+++++@#$%$$$##$$$##########################$$$$$$$$$##$$$$$$$$$$%&$@@#@@$@O+%@@@@@@@@@@@@@@@@#####@@@@@@@@@@@@@@@@+++++@@@@@@@@@@@@@@@@##@@#@@@@@@@@@@@@@@@@@##@##@#%%#$$@@############$%$###@+@@@$%$#######@@@@@@@@@@@@@@@@@@@@@@@@@@@@@@@@@@@@@+@#&%#@++OO+OO+$@O+++@@#$$@##$$$",
"*&%$$$$%&%$$$$#$###########@@@#@@@@####################@#@@@@#####@@@@@@@@@@@@@@@##@@@@@@@@@@@@@######################@@@@@@##########@##+O@#@####@@@@@###########@######@@##@@@##$%$#@@++@@+@@@+O+@@@@@@++@@OO+@@++++++@++O+@++++++++++++++++++@@@@+++OOoOO++++++OOO+++++++++++++++++@++++++++++@@+@+@#@@++++++++++++++++++++++++++++++++++++++++++++++++++@++@@#@#@@@++OOO+++OO+OO@@@#@+@#+++++@@@++++++++++++@@@@@@@@@+@@@@@++@@@@@@@@@@@##@@@@@+++@@@@@@@@@@+++@##@@@++O++@+@++@@+++O#%%$$##$%%$#####################$$$$$$$%%$$$$$##$$$$$$$$%$%&&#@@@@#$$$$###@@@@@@@@@@@@@@@#@@@@+++++++++@@@+++++@@@@@@@+@@@@@@@#@@@#@@@@@@@@@@####@@@@@@##@##@#%%$$#@@##$$##$@+#$#%&$#@O+++@#$%$$@@@@@#@@@@@@@@@@@@@@@@@####@@@@@@@@@@@@@@@@+@$#$#@@+OOO#@@@@@@@@@@@@@@@#$$$",
"$%%$$$$$%%$$$$$$############@@#@@@@##########$$$$####@#@###############@@@@@@######@@@@@@@@@@@@@@##@#####@@#####$$####@@@##@###@@@@##@@$#@@@##@@@#@@@@@#########@@#$$####@#@@@####%%%#@@+@@@@@@@@@+++@@@@@@@@+OOO@@+OO+++++++@@@@++++++@@@@@@@@@++++++++++OO+++++OOO++++++++++++++++++++++++++++++++++@#@@+++++++++++++++++++++++++++++++++++++++++++++++++++++@@#@#@@@++OOOOOoooOOoO++@@+@#@+++@@@++++++++++++++++++++@@@@@@@@@+@@@@@@@@@@+++@@@+++++++@@@@++@@@++@##@@@@+++@@@@@++@++@+$%%$$$#$$$$##############$$$$$$$####@@#$$$$$$$$#$$$$$$%%%$$&&$@@++@$%%$#######@@@@@@@@@@@@@@##@@@@@@@@@@@@@++@@@@@@@@++@@@@@@@##+@#@##@@@@@@@####@@@@@@@###@@#%$$$#@@##$%#@$#+#$#$&%@++@++@#$%%$@@@@@#@@@@@@@@@@@@@@@@@@@@@@@@@@@@@@##@@@+@@++#$#@@+OOOO+@#@@##@@@@@@@@##$$",
"&$#$%$%%$$%%$$$$###################@@###################@@@@@@@@@##@@@@@@@@@@@#########@@@@@@###@##@@##$$###$#####@#$%#########@@@@@#@+@#&&#@##@##@#######$$$$###@#$$#######@@####$%$#@+++@@+@@@#$#@@@@+@@@++@+Oo@$#@@@++@@@+++@@@@@@@@@@@@@+++++O++++++++++++++++OO++++++++++++OOOOOOO++++++++++++O++@#@@++++++++++++++++++++++++++++++++++++++++++++++++@+++++#$@#@@+O+OOO+++O@OOoo+@@@++@#@O@@++++++++++++@@@++++++++++@+++@@@@++@@@@++++++++++@@@+++++++++++@@@@@@@@@@+++@@@@@@@@@@@@$&&%$$##$$$#################$$$#####@@@####$$$$$$$$$$$$$%$$&&$###@####@@@@@@@@@@@@@@@@@@@@@@######@@@@++@@@@@@@@@@@@@@@@@@@@@@##+@###@@@@@@@@@@@@@@@@@@@@##@@$$$$$$#@@@%$$#@####$$%&#+@#@+@#%&&$@@@@@#@@@@@@@@@@@@@@@@@@@@@@@@@@@@@@@@@@@+++OO#$#@+++OOooO+++++@@@@@@@@@@@#",
"=%#$&%$$%%%%$$###########################################@@@@@@@@@@@@@@@@@@@###########@@@@@@@@@@###############@@@#%&$$#######@@@@@@@++@%%#@####################@###@@#######@@##$%$#@@+@@@@@@@@@@@@@#@@#$#@@@@++#%$@@@@@@@+++@@@@@@@@@@@@@+++++@@@@++OO+++++@@++OO++++++++++++++OOOO+++++++++++++O++@##@++++++++++++++++++++++++++++++++++++++++++++++++++++++$$@#@@+o+OO++@@+@+@#@@@@@+++++OO++++++++++++@@@@@@++++++++@@++@@@@++++@@@++++@++++@@@@++++++++++@@+++++++@++++++++@@@@@@@%&&%$##@##########################$$$$#####$$$$$$$$$$##$$#$&%$####@@@@@@@@@@@@@@@@@@@@@@@@@@###@#@@+@++++@@#####@@@@@@@@@@@@@@##@@@#@@@@@@@@@@@@@@@@@@@@@#@+#$##$%$#@@@$%$@#$##@$$$%$#@#@@@#%%&$#@@@##@@@@@@@@@@@@@@@@@@@@@@@@@@@@@@@@@@@@+O+####@+++O+++OO++++@@@@@@@@@@@@",
"*&$%&&$$%%$$$$##################$$##############@@@######@####@@@@@@@@@@@@@############@@@@@@@@@@@@######$$#####@@@#%&%$#$#####@+@##@##@@@@###@@@#@##@#@@@@@@@@@#@@#@@@@@####@@@@#$%$#@@+@@@@@@##@@@@@@#@@##@###@OO##@@@@+@@@@@@@@@@@@@@@@@@@@@@@@@@@+++++@@@@+++++++++++++++++++++++++++++++++++@+++@###@++++++++++++++++++++++++++++++++++++++++++++++++++++++#$@#@@+O++OOOOOooO+@@++@++#$##@++++++++++++@@@@@@@+++++++++++++++++++OO+@@@+O++@++@@@@@++@@@@@@@@@@@++@@@@@@@+++++@@@@@@@$&&$$#@@@########################$$$$$$$$$$$$$$#########$#$&%$$+@#@+++@@@@@@@@@@@@@@@@@@@@@@@@@@@@@@@@+++@@#####@@@@@@@@@@@@@@@@@@@@@@@@@@@@@@@@@@@@@@@#@@@@#$##%%$#@@#$%$##$$##$%$$$$@@+@@$%%%$#@#@##@@@@@@@@@@@@@@@@@@@@@@@@@@@@@@@@@@@#@+@$$$#@@++O+++OO++++@@@@@@@@@@##",
"%%$%%%%$$$$$#################################$$###@@@@@@@@@@@@@@@@@@@@@@@@@######@@@@@@@########@@@######$$###@#####%%$$#$####@@@@###$#@##@@@@#########@@@@@@@@@@@###@@@@@###@@@@#$%$#@+++@@@@@#####@@+@@##@###@@+++++@@@++@@+++@@@@@@@@@@@@@@@@+++++@@@@@++++++++++++++++++++++@@++@@@++++++++++@@++@###@+++++++++++++++++++@@@@@++@@@@+++++++++++++++++++++++@@$@$@@++++O++++OOOooOO+#$#@@@@@++++++++++++++++++++++++++++@@@@@+++++++++@@@@@+++++@@@@@@@@@@@@@@@@@++@@@@@@++++++@@@@@@@$&%$$#@@@#$############################$$$$#$$$####$###$##$&%$#@@#@++++@@@@@@@@@@@@@@@@@@@@@@@@@@@@@@@@@@@@###@@@@@@@@@@@@@@@@@@@@@@@@@@@@@@@@@@@@@@@@@#@@@#$##$%%#@@@$$#$%#$%#%$%%$$$@++@#$%%$%###@##@@@@@@@@@@@@@@@@#########@###@@@@+@@#$##$$#@@++OOoO+++++@@@@@@@@@@@@@",
"&%$%%%%%$#$$#################################$$#######@@@@@@@@@@@@@@@@@@@@####@#@@@@@@@@@@@@@@@@@################$#$%%$$$$#####@@####$#@#$$#@@#$#########@@@@@##@########@@#$###@#$%$#@+++@@@@@####@@@@@@#@@@@#@+@@+O+@@@++++OO++@++@@@@++@@@@+++++++@@@@+++++@++++++++++++++@@@@@@@@@@@+++++++++@@@@@###@++++++++@@@@@@@@@@@@@@@@@@@@@@+++++++++++++++++++++++@+##$@++@++++@@@@ooXXXooO#$@OOO++@@@@@@+++++++++++++++++++@@@@@@@@+++@@@@+++@#@++++++++@@@++@@@@++@@+++@@@@@@@+++++++@@@@@$&&%$$$+@#$$#######################@@@@###$#$$$$###$$#@$##$&%$$$##@@++++@@@@@@@@@@@@@@@@@@@@@@@@@@@@@@@#@@@@@@@@@@@@@@@@@@@@@@++@@++@+@@@@@@@@@@@@@@@@@@@@@###$$$##@@#$#$$%%$$$$%%%$$##@@@#$%%%%###@##@@@@@@@@@@@@@@@@@#######@@######@@@@##@@$$#@@++OOO+@@@@@@@@@@@@@@@@@@",
"=*%$$$%%&%$###@##################@####$$################@@@@@@@@@@@@@############@@@@@@@@@@@@@@@@###@##########+@##$%%$$$$####@@@@##+O@#@+@##########################$###@@$%$@@@@$$$#@@++@@@@@@##@@+@@@@@+@++@@@@@++@+@@@++++++@@++@@@@@++++++++++++++++@@++++++++++++++++++@@@@@@@@@@+@@++++++@@#@@@###@+++++++++++@@@@@@@@@@@@@@@@@@@+++++@@++++++++++++++++@+##$@+@@@++++++O$%%&%$@++@#@@@#@@@@@@+++++++++++++++++++++@@@@@@+++@++++++++OO+@@@+++@+@++++++++++@+++@@@@@@++++++++@@@@@$&&%%%%+@#$$#################$$$$$########$#$$$$$##$$#@$##$%%$$$#@@@@@@+@@@@@@@@@@@@@@@@@@@@@@@@@@@@@@###@@@++++@@@@@@@@@@@@@@++#@@@@@@##########@@###@@@@@###%%#@@@@#%$@$*%$$$$*%#$$#@$@@#$%&&$###@#$@@@@@@@@@@@@@@@@@@@@@@###@@########@+O+####@++OO++OOOO+++++@@@@+@@@@@",
"%%%$$$$$$%$###$#############@@@@@########@@@@@@#####@@#####@@@@@@@@@@@@##############@@##@@##@@#@##################$%%$$$$#####@@@@@@###@@@@########@####@########@@#####@$@@@@@@@$$$#@@@@@++++@@++@@@@@@@###@@##@++@OoO+@+++@@+@@@+##@@++@++++++++Ooo+++@+++OO+++++@+++++OO+@@@@@@@@@@@@@@@@@@@@@@@@@#$#@+++++++++++@@@@@@@@@@@@@@@@@@+++@@@@@++++++++++++++++@#$##@@@+@+@+++OO@@@@+@@@+@@+++@@@@@++++++++@@+++++++++++++@@@@@@@+@++++++++O+++@@@++@@+++++++++++@@@+@@@+@@@@+++++++@@+@#%&&%$%$#@##@################$$$$$$$$$$####$$$$$$$$$$$$$$$$%%%$$$#++@@@@##@@@@@##@@@@@@@@@@@#@@@@@@@@@@@@@@@@#@@+@++++@@@@@@@#@@@##@@@@@###########@####@@@@@##@@@@@@@#@%%*=%$$$#%&$%$@++@O+#%*&$##@@@@@@@@@@@@@@@#####@@@@@######@#######@##+@%#@@@+OO+OOO+@@@+O+@#@@@@@###",
"&%%$$$$$#&%###############@#@@@@####@@@@@@@@@@@@#########@@@@@@@@@@######################@@@@@@#######@@@@@@@@@@@@@$%$##$$$#####@@@@####@@#@########@@@#@@###@@@@@@@####@@$##+#+@@#$$#@@@@+++++++++++@@@@@@@@@++@@@@@+OO++++@#@O++@+O+@O++@@@@++++@@@@#@+++++++++++++++++OOO++@@@@@@@@@@@@@@@@++@@@@@@#%#@++++@@@@@@@@@@++++@@@@@@+@+@@+++@@@@+++++++++@++@++@@@%%$$#@+++++++++@@@+OO+++++++OO++++++++@@@@@@@@@@@+++++++@@@@@@@@@@++++++++++++++++++@@@@@@@@@@@++++@@@@@+@@@@@++++O+@@++#%&%$$%%$#$$##$########$$$$$$$$$$$$$$$$$#$$$$$$$$$$$$$$$$%$%%$$$##@+@@@@+@@+@@@#@+@@@@@++@@@@@@@@@@@@@@@@@@@@####@+++@@#@@@@###@@####@@@@@@######@@@@@@@#@@@@@#@@@@@@@##$$&&%$%%%&&&&%#@@++#$$$$$#@@@###########@##################@######@#@+#*$@#$@oO+OO+@@@###@++@#######",
"*&&%$$$$$%%$##$##############@#####@@@@@@######@@#@@#####@@@@@@#########################@@@@@@@@@################@@$%$$$$$$###################@@####@@##@@####@#########@@=-$$@#@@#%%#@@@@@+@@@+++OO++@@@@@++@@++@#@@@@@++++@#@++@@+O@#+++@##@+++@+@@@@++++++O++O+++O+++OOO++O+++++++++++++++++++++@@@#%$@++++@###@@@@@@@@@@@@@@@@++@+@@@@+@@+++++OO++++++++@+@@$$#$$@+@+OooO++@@+O++++OO+@@++@+++++++++@@@@@@+++++++++++@@@@@@@@+++++++++@@@+++++@@@@@@#@@@@@@@++@@@@@@@@@@++++++++@@++#&*&%%%%%%$%%$#$#$$$$$$$$$$$$$$$$$$$$$$$$$$$$$$$$$$$$$$$$$$%&%$$$#@@@@@@++@@@@#@@@@@#@@@@@#####@@@@@@@@@@###@@###@@@@@@#@@@@@@@@@######@@@@@@@@@@@@@@@@##@@@@@#@@@@@@######$$$%%%%&&%%#@#++@&=&$$$##############@#@@###@@@@#@###@##@##@@@@+@++#&$#$$@OOo+OO+@O+@@@@++@#$####",
"=*&%%$$%$%%%$$&#################@@#####@##########@#######@@@@@########################@@########################@#%&%$$$$$#################@@@@@###@@##@@#######$$$##@@#$=>&$@@@@#%%#@@@@@@@@#@@#@@@+++@@@+++++++@@@@#+++++@@@#+#@+++++++@@@@+@@@+@##+OO+++O+++++@+++@@+++@+++@+++++++++++++++++++@@@#%$@++++@@@@+++++@@@@++++++@+@@++++++++++@+++O++@@+++@@@@@##@$$@+#+++OOOO++OO+++O+@##@@###++++++@@@@@@@@@@@@@@@@@@@@@@@@@@@@++@@+++++++++++@@@@@@@@@@@@@@@@@@@@+@@@@@@+++@+++++@@@#%&%$$$#@###$####$$$$$%$$$$######$$$$$$$$$$$$$$$$$$$$$$$$$$%&%$$$#@+@@@@@@##@+@#@@@@@@@@@@@###@@@@@@@@@@@@#@@@##########@@@@@@##@@+@@#@@@@@@######@@@@@@@@@@@###@@@@@@@##@@@#$%%%%%$$$$##OO+%-&#$$#@@@++@@@@@@@@@@++@@###@##@@#@@##@@#@@@+++@+@$#$$##+X.OOo#$++O+@##@@@#####",
"=*&%%%%%%%%$#&*@################@@@#####@@@@################@@@@#######@@###########@#@@@########################@#%%$$$$$$###############@###@@@@@#####@#############@@@#O%*$%@@@#$$#@@@@@@@#######@++@#@@++@@@@@+@###@@@+++++@@$##@O+@+@@@@@++@++#&%+O+++O+@@@++@++++++++@@++@+++++++++++++++++@+@@@#%$@@@++@@@+@@@#@@@++++++++++@#@@@@++@@@+@@@@+++@@@@@@@@@@@$@$#@+@@+++++++++OOoOO++@@+@@##@@@@@@@@@@@@@+++++++++++++++++@@@+++++++++++++++@@@@@@+++@@@@@@@@@@@@@@@@+@+++@@@@#@+@#@@$%$$$$#@@#@@#$###$$%%%$$$$######$$$$$$$$$$$$$$$$$$$$$$$$$$%*&$$%$@@@@@@@##@+++@#@@@++@@@@@@@@@@@@@@@@@@@@@@@@@+@@###@@+@@@@@@@@+++@@@@@@@@@@@@@@@@@@@@##@@@@@@@@@@@@###%#@@#$$$##$@*=@$#++@#$#$%%##@@++++++++++++++@@#$#@##@#$##$#@##@@@@@@@+@#$$##$+X.ooO&*@@O+++@##@+####",
"**&%%%%%$%%$#%*@###########@@@@@@@#############$$$$##@@#############@##@@####$$#######@@@@@@@@@@@@####$$$$$$$$$$$##$$##$$$$######@########@@####@@@#####@#######@@@@@@@@@OX.$$#$@#$$$#@@@@@@@@@@+++@@++@@##@@@@@#####@@@@@+++++++@#&#O$&@@@++@+@+OO@%%@+@++OO+++@++++++++@@@@@@++++++++++++@@@@@@@@@#@#%$@@@+++@@@@@@@@@@@@@@++++@@@#$##@@@@@+OO+@@@+++@@@+++@@@@&####@++++++OOO++OooOOOOO++@@@@@#@@+++++++++++++++++++++@@++@@@@@@@@++@@@++@@@@@@++@@+++++++++++@@@@@##@+++++@@@@#@+@#@@$%$#$$@####$####$$$$$$$$$$$$$$$#$$$$$$$$$$$$$$$$$$$$$$$$$$&*&$$$$####@+@@##++@+@#@@@@+#@@@@@@@@@@@@@@@@@+@@@@+O+@#@@++++@@@@@@@@@@@@@@@@@@@@@@@@@@@@@##@@@@#######@@@##$#@@###$$$##$%$@@@@@#$$%%&$###@@@++++++++++@@@#$$#$$#$%##$$#$$@@##$#@@#$%$@#$@ooOo+%%+++++++@@@@@@##",
"&&&%%%%%%%$%##%##############@@####@@##########@@@@@@@@@@@###$$$####@@@@@@@@################@@@@@@#################%%#$%$$$#####@@@@#####@@@########@@@@#############@@@@@+o+@@###$$#@@#@@@@@@@+++@#@@+O+@#@@++@@####@@@@@@@@@@+oO+$@O%%++@@@@+@@@+O+@+@@@@OoOO+++O+++O++@+++@@+OOOOO+++++++@@@@@@@##@@%$@@@+++@@+++++@@@@@@@@@@@@@@@@@@@@@@@@+++@@@@++@@@@++@@@#&$$#$@+@@@@@@@@@++++++OO+@@@+++++@@@@@@@@@@@+++++++++++++++@@@@@@@+++++++++++++++++@@@@++++++++OO++@###@++++@@@@@@++@@@@$&$#$$##$#$$###$$$$$$$$$$$$$$$$$$$$$$$$$$$$$$$$$$$$$$$$$$$&*&%$$$$###@+#@#$@@$@+@@@##@@@@@@@@@@@@@@@@@@@@++@@@@##@@@@@@@@@##@@####@@@@#@@@@@@@@@@@@@@@@@@@@######@@@@@@###############@@@+@#%&$%%#@#@@@@@@@@@@@++@#@+@#$@$$##$##$$@#$@@@###@#%%%$@@###+O+@O+O+++@@@++@#@@@@",
"&&%%%%%%%%$%$+@##$#OO@#@@@#####################@@@@@######@##$$$$#####@@@@###################################@@@#$$%%$%&$$$#####@@##@####@@@#######@@@@#@######$$$$###@###@@@&%@#$$$#@@#@@@@@@@@++@@++++@@##@+@##@@@#@++@@@@@@@@+#O@$@$#++@@@@++##@+O++++++++++@+OO+++OO+++++@++OOOOO++++++++@@@@@@##@@%$#@@+++@@@@@@@@@@@@@@@@@+@@++++++@@@@@#@@@@@@@@@@@@@@@@@#&#%$$##+OooO+##@@@@+++++@@+OO++@@@@@@@@@@@@@++++@@@@@@@@@@@@@@@@@@++++++@+++++++@@@@+@@@@++@@++OOOO++@@++@@@@@@@@@@@@@+@$%%$$$#####@#$###############$$#$$$$$$#$$$$$$$$$$$$$$$$$$$&=*%$%$##@@@++@@@@##@+oO@@##@++@@@@@@@@@@@@@+++@+++@##@@@@@@#@@@+@@##@@#@@@#$##@@@@@@@@@@@@@@@@@@@@@#@@@@@@@@###$$$##&$#@##@OO+O@@+@@%%#@#@@@@@@@@@@@++@@@OO@#@##@#$@@$#+##@@@@@@@$$%$#@++$&#O++.O@@O@@@@##@@@@@@",
"**$$&**%@@#$$#@@%%#OXX+#@@############################$#######$$#############################@@@@######$$$$$$####$$%&&&%$#@##########$$@#################@+@##$$;=%@+@@#@#%$#$$@##$%$@@@@@@++++@@@@@@@@@@++##+O@@@@+@@++++++@@@+++++++++++@@@@+++@@+OO++OOO++++@@++++++++++++++++++O++++++++@@@@++@@@@#$#@@@+++@@@@@@@@@@@@@++++@@##@@@@+@@++@@@@+++@@@++@@@@@@@#&$#%##@O++@@++++++@@++++OOO+###++++@@@@@@@@@@@@@@@@@@@@@@@@@@@@@@@@@@@@@@@@@@@@@@@@+++@@@+@@@@@++O++++@@@@@@@@++@++++++@$%$$#@@@#$$#$$###################$$$###$$$$$$$$$$$$$###$$#%*&%$$$#@@@@+O@+O+@@@+oo+@@@@@@@@@@@@@@@@+++++@##@@@#@@#$#@@+@#@++@#@@@##@@@###@@@@@#@@@+@@@@@+++@@@@@@@@@@@@@$%$#@##*%@@#+oOOO+#$$$$%#@##@#%@@@@@@@@@@@@@@@@#@@#@@@@$##++##+@#@@++OO@@+o@+O+OoXXO+##@@+@@+@@@@@@",
"*%#$%&*=%$####$%$%%$+OO+########$$######$$##############$$%%%%$$#################@###@@##############$$$$$$$$$$###$$%%%$$#####@@@+@@+#%@################$######$*&%$#$#@@#$$@##+#@@$$#++OOOOOOO++OOO++@@@OoO@@++@#@++@@+++O+@@@++++++++++++++++OOO+++O@+++++++++++++OOOOOOO+++@++OOO++++++++++++++++@@###@@@@+@@@@@###@@@++@@@##@@@@@##@@@@@@++O#@@@###@@@###@@##$@@$##@+++++++OOOOOOO++++++@@@@@@@@@@@@@@++++++++++++++++++++++++++@@@+++@@@@@@@+++++++++@@@@@@@@@@@++@++@++++++@+O+++@@$$%$#@@@#%$#$%$$$$$$$$$$$$$$$$$$#$$$$$$$$$$$$$$$$$$$$$$#%%*-=&%$$$$#@++++@@++@@+++++@@@@@@@@#####@@@@+++@@####@@@@@@@@@@@@#@+O+#########@@@@@@@@@++@@@@@@@#######@@++OOO@##@OO+$#+@$@oOOoo@%%$#&#++#$$####@@@@@@@@@@@######@+++@#%@+$$##$######$@@+@+@@OoooO+###@++@+@+@@##",
"**#+oO#%&#$$+#&$#&*$@#$$$$###@@@$$############$$$$$$$$$$$%%%%%%$$######################################$$$$$####@@#$%$$$$%%$@@@+@O@#O@%%$$$$$$$$$$$$$$$%%%%%%$##$%%$##$####$%$#$$%%$$#@+OOO++@@@@++O++@@+OXXO##@@##@@###@@@@@@@+++++++++++++++++OOO@@@@++@++@@+++@@+++++OO++++@@++++++++++++++++@@@+@##@@@@@+++@@@@@@#@@@@@@@@@@@@@@@@@@#@@@@++@########@@####@@#%#$#$@@@+OOO+@@@++OOO+++@@@+OOO@@@@++++OOOO++++@@@@@@@++++++@@@@@@@@@@++++@@@@@++++++++++@++++++@@@@@@@@+++O++++@@@@@@@@#%%%$##@@@#$$%$$$$$$$$$$$$$$$$$$$$$$###$$###$$$$$$$$$$$#%%#%*&%$$$###@@@@#@@++@@@##@@###@@@@@@@@@@@@@@@++OO+++O+++++@##@O@$#+O+#$#+++++++++@@@#########@@@@@###@@++OOOooooO++OXXooO@+oo+#+@%@@###########################$$#@+OOO$$@#$$###$$$$$#O@$$@#@OOOooO+@+OOoOOOOO++@",
"&&#++Oo.oooooooo@Xo@OoOO++++++++@@#####@+++@@#####$$%%%%%$$##############@@##@#####$$$$$#################$$#####@@$&%$$$$##@++OOOo+#@@#############$$$$$$$%&%$##O@##$%%####$%#@@@%%#+#@OooOO+@@@@@@+++++OOOoO#$$###$$$$$##$$#@@##@@@@@@@@@@@+++++++#$#@++@@@###@+@@+++@+++++++++++++++++++++++@@@@++@#$#++++OOOO#######$$$$#@+OO+@@@@@@#$#@+++@@@@@@@++++++++++O@%++O++@OOOOooO++++++++++@@++O+++++++++++++O+++++@@@@@@@+++@@@@@@@@@@++++++++++@++++@@@@+@@++++++OO+++@@+++++@@@@++++++++#%%$#@@@###$$$%%$$$$$$$$$$$$$$$$$$$$$$$$$$$$$$$$$$$$$$$##@O$-*$$$###@@@o@@O++O@#@#$##$####################@+OoO+@@@@@##+OO+@+OOO++oX.XoOoooOO+++++++OOOOOoooOOOOOOOOO+++OOO+@+OooX.o@OX+++$&@#%########@@@@##$$$$$$$$$$@#$%%$#@%##%#@##@####$$$@#$@$@+OoooX.  ..    .     .",
"&*%@OOOoooooooooX..XXXXXXXXoooooXXoooooXXXXXoooOOO+++++++OOooooOO+++++++++++++++++@@@@@@@@#############$$$$$$$$$@#$&%$###@@@@@+OooO+@+OXXXXXXXXXXXXoooooooo++oXXooooO++OOOOoXXX +@@+@$#+...XXXXXoOOooOOooO+OO+##@@@###$#@@#$#@@$#########@@@@@@@#@++@@@+@@@+@@##@++@@@@@@@@++++++++++++++++++++++@##@@+@%#OoO++O+@@@######@+OOoooOOOOOoO++OOOO+@oO++OooOOOoooOoo+$++++##O++OX...X.XXooooOOOOOOOO++++@@@@+++++++++@@@@@@@@@@@@#####@@+@@@@@@@@@@@@@@@@@@@@@++@@++OoXoO+@@@++++@@++++++++O+@$%$#@@@##$#$$$$$$$%%&&$$$$$########$$$$$$$$$$$$$$$####@#@@%=*%$$$$#@+OooOOooO+++@@@@#@@@@@++++++++++++@@@@+OOOOOOOOoooooXXoOoX.Xoo. XoooXXXXooooXXXXXXXX...XXoooOOO++++++OooOOOoX.#:*Oo.O$&#&*%%%$$###$$%%%%%$$###@@++@@@@@@@@$$@#@O@##Oo@$#@@#*%X+@OXooo.      . .X..XXXX",
"$##@++OO+++++++++++OOooXooooooooXXX...XooOOooXXXooooooXXXoooOOOOOOOOOOOOOOOOOOOOOOOOOOOOOOO++++++++++++@@@@@@@@@+@#$#@@++++++++++@@+OOoXXoOOOOoXXXXXXXXXX.XOOoXXooooooOO+ooXXX. o.XoOooooXXXXXXX@@@+OoX...XXXXXXXXoooO+OooO++OO+OOOOOOOOOOOOOOOOOOooooooOOOooooOOOOOOOO++++OOooooooooOOOOOOOOOOOOXooOO@#%%%#O..X..XXooooXX.....XX.........XXXXXXXXoooXXXooXooooXO#@$%$%##@OoooXXXX.....XXXXoOOOoXXooooooooooOOOO+++@++++++++@@@@@@+++++@@@@+++++@@@@+++++++++@++OoXoO+@@@+++O++OOO+++++++#$&%$##OooO+#$##%&&%%&=%%&**&%$%%&&%%$%%&&&&&&&$=%@$$@@+#%&%#%%$$$#@+OOoXooXXOOoooXoooooooooXXXXXXXXXXXXXXXXXooX..XXXXXoOOOOOooooOOOooooXoooOO++OOOOooooXXXXooOOOOOOOOOOOooXXXoOoO+$=&$o@%@@+%==-*#@$$####@@@++ooOOoX. ........ .... ....  .XoO+##o+++OOOX.       XoX...XXX",
"@+@@@@OOOOOOOOO+++++++++++++OOOOOOOooooOO++OOoooooooXXXooOO+++++OOOOOOOOO+++++++OOOOoooooooooOOOoooXXXoooooooooooOO+@@+++OOooo+++++o.XXXoO++++OoooooooooXXoOOooXXXoOOOO@@@++OX. oXXoX..oooXXXXXX@@@@+o...XXOOo...ooooXXXXXXoXXXXXXXXXXXXXXXXXXXXXXXXOOXXoXoXXXXXXX...   ....    ooooooOOOOO+++++OoooOO++O@#@OX....XX.XXXXXXXXXXXXXXX..XX.XXXXXXX..XXXXXXXXooooooOOO@#$%#%#+oooXXXoXX...X...XXOO+  ................XXXXX.......XXXX..XXXXXXXooooooOOOOOOOOOOOOOOOooXooooOOoOOOO+OO+OoO++@##$&%#++Ooo..o+@#########$%&*&%%%&&&&%$$%%%%%$$$#@OoooOOO+@#@@%%$$$##@++XooXXooooo.XoX.XooooOOOOoooooooooXXXooOOOOOOO++++O+@+OOOOO++@@+++OOOO++@@++++++OOOOOOO++++OOOOooOOOO++OO#@##@oO*##@.XoO+++++OOoo......  .Xo@ .    ..XXXXX...Xo.     X+$&+O@@$##$+OX       .+@oXooooo",
"$&&$#$#@@@@++OOOOOOOOOOOOO++++@+++@##@@+OOOOOOOOOOooOO+++++++++++++++++++++++@@++++++++OO++OOO+OOOooooooOOOOOOOoOOOO@##@@+++++OOOXXOoooooO+@@+OooooooooooXoOOoXo+oXoOOO@+++++OX.XXX.XoXXXXXXXoooOoOOOoX.Xoo+@+oXo+@++OOOOOOOOO+OOOOOOOOOOOOO+++++OO+##O++OOOO+++OOoX..  ...X.XX.OOOOOO++++@@@@@@##@@@++O++++OOOO++++OOO+++OOOOoooOOoXXooOOOoXoO+XX.XoOoooO+++++++O@@@#$#+@@+oXoOoX..XooXXXX...XoX............XXXXoooooXXXX..XXXXXXXXXXXX..XXXXXXXXXXXooXXoooXXXoooXX.  .XXooO+++@@+OO+@##@#&%#OOOOO++o.XXXXXXXX....XXXXoX...XXooXX........XooX. X.ooX@%&$%%%$@++ooOOooOOOO+++OOOOO+++++OOOooooooooooOOO++@@+++@@+O+@#@+++@@+++@@@@@@@#####@@@++++OOOO+++++++OOOOOO+@##@@+@@@%%$=*ooXXX. .........  ..XXXXXooX.    ..XXooXX. Xo.ooXXXo@%*O+@+$$$#&$+oXoXXXXX#$+OOO++@",
"-==*&**&%$$$$$$#@#@++OOOO#@OoO+#$$&%%%*%$$$$#######@@@@###@@@@#######$#@@@@@+++@@$$#$&&##+@#@$$%$$#@@@++++++++OOO++++##$$###$$@++O+++OOOOOOO+@@++OOOoooooooooooo+@+oo++++@#+@++@@##$@#+OOO+@+@#O+@++@@+@@@#@OooX++OO+@++@@+@@@@@@@@@#######$##@++++++++@@@+++@@@+OoooOo.XoXXXX.XooOO+##+@@@@@@@###@@+@@@@@@@@@@@@++++@@@@@@@@@@@@+OOOO++++++++++++++++++++++@@@@@@#########@@++++++OoooOOOooXXXXoX.  XX.ooXoOOOOO+OOooooooooooooooooooooooooooooOOO++++@++O+OO+O+OXXOOoooOO+@@@++++@@##$####%%$#@@++#@oooOOoOoXoo++OX..oOOooXXXXXXXXXooooO+OoXXX.XOOO#$%%&&$###@@+OooO+@++++++++++++++++++O+@+OOOOOOO+@@@#$$$$#@@@@@@@@@#$$$###$$$$$##$$%%%%%$$$##@Ooo+@+++++++++@@@#$###$##%%%$&#oXXXXXoOOOOOOOoXXXoooooO+oooOooOoooooooooOOOOOOOooO+#%&%$##$%&%==&#+oXO+@$&%$###$$",
"===---=*&&**&&&&%%$$$##@@@+++++++$@$%&&*&&&&&&&&&&&%%%%%%%$$$$$$%$$$%&%%%$#$##$$$$%%%%%%$$$$#%&&&&%$$$#####$####@@#%%%$$###$&&%##@##@+O+++++@###@@@@+++OO++++@@@@@+@###+@@#$##$$%%&*=&$$@%##$@#%##+@##@#$##@OoOo@#++#%$#%#@#$%$##$%%$$%&&&&**&%$$$$$$$$$#@@###$&**%%#&%#+OooOooooO#$%=*#$$$$$$$$$$$###$$$$$$$######################@@@@@######################$$$$$$$$$$$$$##@@@@@+OooO++++OooXoooX..XXXXoOoO+OOO+@+OOO+++++++++++++++++++++++++++@@@@@@@++#@++O#O..oOoOO++@@@@@@@@@@@@@#%%%%%%$#@O+@+O@@@+++++@#$$#+O++++++++++++OOOOOOOO+++OOOOO@@@$%&%&&$#$##@@@@@@@@@@@@@@@@+#@+#@O@@++@@@@@@@@@@#$%$%&**&%$$$$$$$$$%%&&**=-=****======***&&&&*&%##@########$#@@@$&&&%%$%&&&%@@#+oOOOO+@@@@++O++++++++++OOOOO+++++++++++++@@@@++@@%*=--=%$$%%%**&$#+#$&-----=*&%",
"==-;;:;--==**=****&&&&&$@+O+++@@#%@@$==*=&&=--=======**==**&&&&&&&&&%%%&&%%%&&&&&*=*&%$%%$#$$%%%&&&&&&&&&&%%%%%%%$%&**&&%%$$$$$$$$$$$#@@@@@@@@@@#@@$$##$@@@@######@@$%$#@#$$$$##%%&&&&==&$%%%%#&&%&&%$%%$@++OOOO@$$$%&&%*&%%**&%#$&**&&&&%%&**&&&&*==*&&*&*-=&*;;;--&**&@+OO++OOO+$*--=*&&&&&&&%%%%%%%&**&&&&%%%$$$$$%%%%%%%%%%%&%&&%%%$$$%%%%%%%%%%%%%%%%%%%%%%&&%%%%%%#########@@+@@@@@##@+OoooooXXXXoooO+++@++++@@@@@@@@@@##################@@@@####$$#@$$$#++@OXoooo++@#############$&&&%%%%$$###@@#@@@@@@#@#$##@@@++++++++++++++++++ooO+@##@@###%&&%=-*$@@@@@@@@@#@@@@@@@@@@@@@@@+++OOOO+#####$%&&&&*&&%%$$%%%%%%%%====-------=***==-=*&%%&&****&%$%%%%%%%%%%%%%%&&*=;-*&&&&%$##@+++@@######@####$$#@@########$$$$$$$$$$$$$$$$$$$%&*-:>>:-*%&*-;=*&%&*====---;;",
"--;--;;-;;-===&%*=*&*=-&#@+@#$$&%%;**;---**=---========---===*====***&&%&&*&&%%%%**&%&&&%$@$&*****&*******&&&&&&&=**=---**=*&&*==**&&&%%$$%$#@#$#@@$&$$*#######$$%%$###%####$##+#%#%&&&=*#&&%==-=--=%%%$+Oo++OoO+$=-=----;--;;;---;;--;;;-==-;;;;;;;;;;;;;;:;-==**--*#@$@@++++Oo+@#*;;-=========*===**=-====****&&&&&&***********&&&&*********=*&&*=====***&******&&%%%$%&*==*&%%&&%$$$%%%%%$#@@+OOOoXoO++.+@@$$##$%%%$######$$$$%%%%%%%%%%%%%%%%$$$#######$$&*$O@#+XXOo@@#$%%%$$$$$$$$$$$%%%$%*%==%##$$#@#$$$$#+@#$$$#@@@@@@@@@++++++++++++@#%&&&&&%%&&&&%$#####@@@@@#############@@@@@@OoO@@@$&&**&&&&&&&&&&&&**==--;;-=**===**==--;;;:>:;$#&;=*%#@$*=========*=-==&%&*;:;=*=*==&$%%$#$%&%$####$$%$$%&%%%%&&&&====***====-----------=&&-::><<>--=;>:;-;---====--;:",
"-===*=-===;;---=-;-====*&%$$$$%=%@***&&=;::;;;;;;::::::::::;;;;;;----=-=*====***&%%%%&&%%*$&==;;---==***=******&&&*==*==-;;-=**==*&%&&&&%&&&%$$%%&##$$#&%$$$$$$$$#%&$@%*&#+###$$#$@#&*$==%@*=#$&=--*&&&$@+OO+Ooo@*;>>>>>,,,,,,,,;:;=&*->>:;;;;::>>>>>>>>::;=-:-&=*==:=&%$$@++@+O@$$*:>::::::::::::::;;;;;;;;----***===--===--------========**=====-;;::;--====---------===-;;-=*=-=*&%%&*&%%%%%$@+++Ooo+O+O+@@#$%*=--==*&&&*****===========**&&&&&&%%%$$$$$#@#%%@@$#oXO+##$%%%%%$$$$$$$$###$$$$%&*&#@#%$$#####%$$$$$$$$$@@@@@+++@@@@@@@@@@#$%&*&&&**%%*=&%##$$$$#################$$@@$$@#+oO#@@%**==**==--------;-;>;=->>>:::::;;::>>:::;==;-&&-&&%#@#&=>>>>>>>>>;-::>,>,>--;;;::;;-&$%%%&==*&$#&&*******==**==*---------===******&&**&%*=$@%&*:>;-%$%*-***&*=----==",
"=&%%&&&%%%==&*-==--*&&%&&$#####%=&#%&&%*&;:-=-;;>,,,,,,,<<<<,,,,,>>>>:>>::;;;:;;;*&**%%%%*&=;-:;;::>:::;;;;;:::;-&&=--=******=----===********&&&;:=%&&&***&&&%%$$#$%%%&&&%$#$$$&*&&%$@##*&@#%#@+%$#%*&%*&&#++OOO#*-;:;;;::>::;:::::;--;:::::;;--;>>;;>>;;;;--::;-=%#-,;$###+++@+@%=:>,<11111111111111<<<<1111111>>>>>>>>>>>>::::>,,,,>>:::::::::>>>,,,,,<,,,,,>,,,>::>,<:321>;>==**====---====*&@@@+OOOOO+@@@#%&=;::;----------;;-=**=-;;--==***====*&&&**&&$O+&&$#$+o+##$$%%%$$%%%%%%%%%$%%$#+O%#@##$$####$##$$#+O#%%$%%%%%%%%%%%%$$$$$$$%%%%$#@#$$%&***&&**&$$@@@@@@@@#OO+@+#%###@@@+@@#@@#$*;*&*=;:;----------------->:::::;;;;-*%#@@+oo+*****&$++@%%;::>:;=====-;::-;-=;:-*=--=*%%&&&%%%&***&%%&&%%%%&&%$%%$$%%%%%%%$$##@@@@@#@@+O++@@O+#+o#=;#oOoooOO+@########",
"*&%%%$$##$%%$$$$$$$$$%$###@@@@+@$&#$#@@@@$%%$$%&&&***==--;;::::::>,,,,,<<<<,,,<<>;--*%%&$&&=-=;==---;::::;:::;:::;--;>>>>:::>>,,>>>,>>::>:;;;;;-:,:==---===*****&**&*-%#&=*&&&%$&$@#@O#@%==Oo&=&#@+@$$%*-;*#@@++@$%%%$####$$###$%%&*==*&&&&&***&**********=====;;>;$+#%%##$#@+++#=,,:;;:::::::::::;:>>:;::>>>,,,>::;--=====-;;::;;;;;;;;;----======**==-;>>,,,>>,<1221<<76321<2,>::,<,,,,,>>>:-=@@@+++Oo@$###%*&&***==--;-=*&*=-;;;;;;;;:::::::;--====**==***#@=&#+@+O+#&&**===***==---;;;;-=*&%$@#%&%%$%&&&*&%%&%%&=;-=-------;;;-=*&%%&=--============;=*=--=====**&&&==**&&%%***%#++@@@$##&--%&*&$@@#+++++++@@@@@@@@@@@###$%%$#@@#@@++@@@*&%$$%$@+@#@@$&&%$$$#%&#$%@###$%$#++@%$@$***&$@@@$%*#@@@@@@@@#$#@@@@@@+++@@@@#########@@@@###@@@@@@@+%O@@@OOOOO@@@@+O++@",
"%%%&%%%%%##%%$$$$###$%$##%%@+@@@@+@##+@@+++#@OO#+++@@@@@###$$$$$$&&&=--;;:>,>>,,<,:=%@+@#$$$#@%$&%$$$%%%%%%%$$$%*--*%%=:-;;;;-=**==-======**==========**========-==:;=&&&&&&&&=%#$%%&*$$&*=*%&&*%%%#+$*&=:-$##@+O@$$++++@@@@@@@@@@#####$@+O@####@@@@@@@+++@+++OO@%-:$OO@++%&#OOO@$$#OO+@oooOO++++OO+##@OOOO++@@@-#OoOoo+++##oO@@++OOOOOO+OOOOoooOOOOoOO+@#$$%%%%+#%=;:>>>,>:-=;>>>>>:;;:>:::>>:;@#@+++OXo=<==;**&#@@$%&*=======***=--=****&&%%%$$#@OOO++++@+@@@%$#++@++$;;:>,,,,>>>::;;;;;=**===&%*=&&***=*&*&&&&%$$##@@@@@@@@@@@#%*==***&%%&&&%%%%%&&&&&%$$#@@#$$$%&&&&&***==---=--&@+#+O@#@$#+$#+++++++++++++++++++++++@#####$$#@@@@##+@#+@@@@#$$@OO++#######$$$$%#+##@@#@@$$@+#%&$$%%$#@####$#@@@@@###@#$$###@@@@@@@@@##########@#@@@@@@+++++++O+++++O+@+++@@##@+",
"$$$%%%%%%##$$$%&%%####$%###@+@@###@@@@@@@@@@@@@@@@##@@@@@@@@@@@@@@+++@@@@@@#$$$#&&&&%$@+#&#+$##&%$$$$$$$$$$$$$$$%%%%%%%%%%$$$$$$$$$$#####@###$$$########$$$$$$#$##$*&+#$#@#@@#@$$%&%%%&&$$%&&$$%##$%%$$$$$%%$#@+@@@@@@@@@@@@@@@@@@@@@@@@@@@@@@@@@@@@@@@@+@@@+++++oX*,-@###$&$O+@@@@@@###@@@@@@@@@@@@@@@@@@@@@@@@@@@@@+@@@@+++@@@@@@@@@@@@@@@@@@@@@@@@@++++@@@###@@@@++++Xo+OOo+@@@@@+OO+@@++#$&&#@+@@@@@ 35>::>;:;=&%%&&&%%%%%$$+++++++++++@@@@+@@@@@@@@++@@######@@@oO$=;;==;;=--*&$#@+OOO++@@@%%$#@++++@@@@@@@++@@@@@@@@@@@@@@@+++@$&*%+oO@@+#@@@@@@@@**%@O+@@@@@@@@@@@@@@@@++@##$$@OO+O++@#@@@@+++++++++@@@@@######@@##########@@@@@@@##@@@@####@OooO$$$$$$$$$$$$$$############@@###################$#@@####@@@@@@#@@@@@@@@@@@@##@@@@++++++++++++++++X+++@#@@@@@@",
"$%$%$$$#$$#$$$$%%$#@@@#%$@@+O++@##@@@@@@@####@#@############@@###@@#@++@@@@+@@@@@#$%$$@@#%%##%%#$%%&%%$$%%$%%%%%%%%%%%%%%%$$$$$$$%$#$$$$$$$$$$$$$$$#####$$$$$$$$@#$@@$#@%%$%$###$##$%$$$$$#@$%@$$##$%$#$$$$%$@+@@@@@@@@@@@@@@@@@@@@@@@@@@@@@@@@@@@@@@@@@+@@@@+++@@+$**%%#++$$++#@@@@@@@@@+@++++++++++++++++++++++++++++@@@+++@@@@@@@@@@@@@@@@@########@@@@@@@@@@@@@@++@@@@@@@@@+++++@@+++++O+@%&$$##@@@+=;$%*$$@#####@@@@@@@@++++++++++@@@+@###+@@@@@@@@@@@##@@@@#@++OO@%$#@##@O+++++++@@@@@@@@@####@@+++@@@@@@@@++@@@@@@@@@@@@@@@@@@@@@+++++@@@@@@@@@@@&&%#@+@@@@@@@@@@@@@@@@+@@###%$@OOO++@@@@@@++++++@@@@@@@@@#################@@@@@@@###@@#@@@#@+O+@###########################@#@############$$$##$###@@##@@@@@@@@@@@@@####@@@@@@@+++++++++++++++++OoO++++++@@@",
"%%$$$%%$$$$$%$@$%%$###%&$@@++@@@##@@@@@@###################@@@@@##@@@+@@@##@@@@###$%%$#@@@@##$$$$$$%%$$%%%%$%%$$$%%%%%%%%$$$$$$$$$$$$$%%%$$$$$##########$$$$$$$$$#@O+%$#$%$$$#%$$##$%$$$#@$@@%@#$$##$##$$$$###@++@@@@@@@@@@@@@@@@@@@@@@@@@@@@@@@@@@@@@@@++@@@@@+@@@@$**$$#@##OO$@@@@@@#@@@@@@@@@@@@@@@@@@@@@@@@@@@@@@@@@@@@@@@@@@@++++++++@@@@@@@@@@@@@@@####@@@@@@+++++++++++++@#@@@@@####@@#%&&&&%#@+O%#+O+@++O+++++++++++++++@@@@@@@@@@+@+@#+@@@@@@@@####@@++O##@@@+O#@@@@+++@@@@@@@@@@@@@@@@@@@@@@@@@@@@@@@@@@@@@@@@@@@@@@@@#+$@@$+#################$$$$#@+@@@@@@@@@@@@@@@+@@###%%@+OO++@@@@@@@@+@@@@@@@@@@@@@@@@@@@@@######@@@@@@@@@###@@@@+@#@++@############################################$###@###@@#$#####@@@@@@@#####@@@@++++++++++++++++++++@++@++++@@@@",
"%%$$$$$$$$$#$##$$%$$%%&%#+++@@####@@@@@@###########################@@@@@+@@######$%%%$@@@@@##$$$$$$$$$%%%%$$$$$$$$%%%%%%%$$$$$$$$$$$$$%%%$$$$$##########$$$$$$$$%$@#$#%%#$%##$#%@$$###$$#@&%#$$####%%$$&#%$@@##@@@@@@@@@@@@@@@@@@@@@@@@@@@@@@@@@@@@@@@@@++@@@@@++++@#**$$$$$$@O++@@@@@@#@#######@@@@@@@@@@@@@@@@@@@@@@@@@@@@@@@@@@#@@+++++@@++++@@@@@@@@@@@@@@@@@@@@@@@@@+++@@@@@#@++++++@@@@#%&%&*&%#++@@@@@@@@@@@@@@@@@@@@@@@@@@@@@@++++@%@O@@@@@@@@@@@@###@@+O##@@@+o+@@@@@@@@@@@@@@@@@@@@@@@@@@@@@@@@@@@@@@@@@@@@@@@@@@@@@@@@+&#o##@@@@@@#############$%$@@@@@@@@@@@@@@@@@@@+###$$@@OOO++@@@@@@@@@@@###@@@@@@@@@@@@@@@######@@@@@@@@@@@@+++@@#$@+O+@#############################################@@@@##@@#######@@@@@@@#####@@@@@@+++++++++++++++++++#@O+@@@@@@@",
"&$$%%%%%$#$%$#$$#%$%*%%&$@+@@@@###@@@@@@#########################@####@######$$#@#$%%$###$$$$$$$$$$$%%%%$$$$$$$$$$$$$$$$%%%$$$$$$$$$$$$$$$$$$$$#########$$$$$$$$$$###$$#$$$%#$$$$%%$#$$$$@%&$#$##@@$%$#$&$$$@@@+@@@@@@@@@@@@@@@@@@@@@@@@@@@@@@@@@@@@@@@@+@@@@@@+++@@@%&&$%$@$%#@+++@@@@@########@@@@@@@@@@@@@@@@@@@@@@@@@@@@@@@@@@@@@@@@@@+@+@@@@@@@@@@@@@@+@@@@@@@@@@@@@@@@@@@@@++@##@++@@@@#%*#$&*&$#@@@@@@@@@@@@@@@@@@@@@@+++++++++++@+#&&@+#@@@@@@@@@@#####@@@@@@+++@@@@@+++@@@@@@@@@@@@@@@@@@####@@@@@@@@@@@@@@@@@@@@@@@@@@@@#$$#@+@@@@@@###########@#$#@@#@@@@@@@@@@@@@@@@@###%$#@+O++@@@@##@@@@##@@#@@@@@@@@@@@@@@@@@@@@@@@@@@@@@+@@++OO+#$$@+O++#######################################$$$########$$####@@@@####@@@@@@#####@@@@@@@+++++++++++++++@+O++@@@@@@",
"%%&&%%$$%$$##@#$#$%%&&**%%#@@#####@@@@@@@#####@###$$##@@@#######@@@+@@@@#@@@+@##@#$%&%$##########$$$$$$$#$$$$##$$$$$$$$$$$$$$$$$$$$$$$$$$$$$$$$$$#######$$$$$$$$$$$#####$##$%%&#$@@###@###@#$###$#####$$&**$@@+O@@@@@@@@@@@@@@@@@@@@@@@@@@@@@@@@@@@@@@@@+@@@@@@@@@+@##%&%%$@@%%#++++@@@@@@@@@@@@@@@@@@@@@@@@@@@@@@@@@@@@@@@@@@@@+++++@@@@@@@@@@@@++++++++@+++++++++@@###@++++++++OOO+@+OO++++@#$$%&&%$@+@@@@@@@@@@@@@@@@@@@@@+++++++++++#@O@%#+@@@@@@@@@++@##$$$$@@@++++@@@@@+++@@@@@@@@@@@@@@########@@@@@@@@@@@@@@@@@@@@@@@@@@@@@@@#@@@@@@@@@@@@#####@@@###@@##@@@@@@@@@@@@@@@####&&$@++++@@#####@####@@##@@@@@@@@@@@@@@@@@@@@@@@@@@@@@@@+OOOO@$$@++@@#######################################$$####@##@@###@@#####@@@@@@@@@@@@####@@@@@@++++++++++++++#++@++@@@@@@",
"$%&&%$@@#@Oo+@#$$%%%$%&%$$#@+@####@@@@@@@@@@@@@######@+++@@#######@++@@@@@@@@@@##$%&&%##################$$$$$$$$$$$$$$$$$$$$$$$$$$$$$$$$$$$$$$$$$#######$$$$$$$$$$$$#@@$@@##%%$#%$#$$#####@@$$@###%%##%*#;=#$#O+@@@@@@@@@@@@@@@@@@@@@@@@@@@@@@@@@@@@@@@@@@@@@@++@++@$$$$$##$#$#+++++@@@@@@+++++++++++++++++++++++++++@@@@@@@@@@@@@@@@@@+@@@@@+++@++++++++@+++++++O++++++########@@++++++++@@@@$%%%$$#@@+++++++++@@@@@@@@++@@@++++++@@@@@##Oo@#@@@@@@@@@@++@#$$$$%@@@+++++@@@@@@@@@++@@@@@@@@@@@@@@##@@@@@@@@@@@@@@@@@@@@@@@@@@@@@@#@@#@@@@@@@@@@@@@@@@@@@###@@@@@@@@@@@@@@@@@@@@@#@#%&$@+++@@######@##@@@@##############@@@@@@@@@@@@@@@@@@#@+O+++$$@+@@@#############################################@##@@@#@#######@@@#######@@##@@@@@@@@++++++++++++++@+@##@@@@@@@",
"%&%%$#@@@OoO+@#$$%%$##%%%$##@@@###@@@@@@@@@@@@@###$$#@++@@@########$$##@@##@@@++@#$$$$@@@###########$##$$$$$$$$$$$$$$$$$$$$$$$$$$$$$$####$$$#$$$$$$$$$$$$$$$$$$$$$$$##$####$@+#%$%%$##$#@@%##$@###$###$$#%=*##$@@@@@@@@@@@@@@@@@@@@@@@@@@@@@@@@@@@@@@@@@@@@@@@+@@@+@#$$$$##$#+@#+++++@@@@@@@@+@@@@@@@@@@@@@@@@@@@@@@@@@@@@@@@@@@@@@@@@@@@@@@@@@+@@@@@@@@@@@++++++++++++@@@@@@@@@@@@@@+++@##@@#%*%$@+@###++++++@@@@@@@@@@++++@++++@@@@@@@@@@ooO@#@@@@@@@@@@@#$$$$$#@@@@@O+++++@@@@@+++@@@@@@+@@@@@@@@@@@@@@@@##################################@@@@@@@@@@@###@@@@@@@@#@@@@##@@@@@+###$$#@+++@@#######@###@@################@@@@@@##@@@##@@###@+++@$$@+@@@##$$$$$$$##################$##$##############@@@@@@@@###@@@#########@@@@@@@@@@@+@@++++++++++++++o+++##@@@+@@",
"&%$$###$$@+@@@######$%&&&%$########@@@@@@@@@@@@####$$@@@@@@############@@#######@#$$$#@@@##########$$$#$$$$$$$$$$$$$$$$$$$$$$$$$$$$$$$###$$$$$$$$$$$$$$$$$$$$$$$$$$$##$$###$############################%*=*%###@@@@@@@@@@@@@@@@@@@#######@@@@@@@@@@@@@@@@@@@@@@@@@@#$%$$$%@%O@#@+++@@+@++++@+@@@@@@++@@++@@@+++@@@@@@@@@@@@@@@@@@@@@@@@+@@@@@@@@@@@@@@@@+++@@@++++++++++++++++++@@@@@@+@@###%*&%$##@#$#+++@+@@@@@@@@@@@+@@@@++++@@@+++++@@@@@+@@@@@@@@@@@@##$%$$###@@@+++++++@@@@@@@@@@@@@@@+++@@@@@@@@@@@@@@@@######################@#######@@@@@@@@@@@###@@@@@@@####@###@@@@#@###$$@@++O+@#######@##@@@@##@@##@#####@@@@@@@@####@@##@@#$$$$$##$$#@@@@##$$$$$$######################$$###$#########@@@@@@@####@@#############@#@@@@@@@@@@@@+++++++++++@@@+++@#+@@@",
"$$###%$@$$@@$$#@$$##$$&%%$$#@#@@@@###@@@@@@@@@#####$%%$##@##############@@#####@##$%%#@@@######$$$$###$$##$$$$$$$$$$$$$$$$$$$$$$$$$$$$$$$$$$$$$$$$$$$$$$$$$$$$$$$$$$$$$$################################%&&$$%$+@@@@@@@@@@@@@@@@@@@#######@@@@@@@@@@@@@@@@@@@@@@@@@@#$%$$#$@@$$+@+++@@@@+++++++@@@@@+++@+@@@@+++@@@@@@@@@@@@@@@@@@@@@@@@@@@@@@@@@@@@@@@@@@++@@@@++@++++++++++++++@@@@++@@@@@@$%$@$$$#####@+@@@@@@@@@@@@@@+@@@@++@@@@++++@@@@@@@@@@@@@@@@@@+@@#%%###@@@++++++++@@@@@@@@@@@@@@@@@@@@@@@@@@@@@@@@@@@@@@@@@@@@@@@@@##################@@@@@@@@@@@@@@@@@#$##@@###@@@@#@###$$@@+OO+@###@@@###@@@@+++@@@@@@@@@@@@@#@@@@###@@@###@@#%%$$$$$##@@@@##$$$$$$##################$###$$###$$$$########@@#########@@#############@@@@@@@@@@@@++++++++++OO+@@@+++@@@@",
"$$%%%$#@$%%$$$$$%$$%$$$$####@##@@@###@##@@@@####@@##%&%#########@@######@@@#@@@@#$%%%##@@@####$$$$$##$%%$$$$####$$$$$$$$$$$$$$$$$$$$$$$$$$$$$$$$$$$$$$$$$$$$$$$$$$$$$$$$################################$&&$#$#+@@@@@@@@@@@@@@@@@@@@@@@@@@@@@@@@@@@@@@@@@@@@@@@@@@@@#$%$#@@#+@@O@+++@@@@+++@+++@@@@@++@@++@@@@++@@@@@@@@@@@@@@@@@@@@@@@@@@@@@@@@@@@@@@@@@@@@@@@@@@@@@@@+@@@@@@@+++++++++++@@@$%%@#%$$#++#@+@##+@@@@@@@@+++@@@@@+@@@@@@++@@@@@@@@@@@@@@@@@#@+@#$$###@@@++++++++@@@@@@@@@@@@@@@@@@@@@@@@@@@@@@@@@@@@@@@@@@@@@@@@@@@###@@###########@@@@@@@@@@@@@@@@#$$#@@@##@@@@@@##@#$$@+++++@@##@@@@#@@@###@@@#@@@@@@@@@@@@@@@@##@@@@@#$#+@%&%$$$$$##@@@#$$$$$$$##################$$######@##$$#@@############@@@@@@@@@@@@@@@@@@@@@@@@@@@@@@@@+++@+++@@+O+@@@@@+@@@@",
"$$$%%$$#%&&$@#$$$$$%$$%%#+@#+@$######@###@@@####@@@@$%$#########@##@####@@###@@@#$$$$$###@@@##$$$$$$$$$$$$############$$$$$$$$$$$$$$$$$$$$$$$$$$$$$$$$$$$$$$$$$$$$$$$$$$################################$%&&$#@@@@@@@@@@@@@@@@@@@@@@+@@@@@@@@@@@@@@@@@@@@@@@@@@@@@@@#$%$#$##@o@#@+++@@@@@++@+++@++@@@+@@++@@@@@@@@@@@@@@@@@@@@@@@@@@@@@@@@@@@@@@@@@@@@@@@@@@@@@@@@@@@@@@@@@@@@@@@@@@@+++++@@@$%&#+###@++#@+O@#+@@@@@@@@++++@@@++@@@@@@@@@@@@@@@@@@@@@@@@@$$+@##$$###@@@+++@@+@@@@@@@@@@@@@@@@@@@@@@@@@@@@@@@@@@@@@################@@@@@@@@@@@@@@@@@@@@@@@@@@@@@@@####@@@@@@@@@####@#$$@++++++@##@#@@@@@######@#@@@@@@@@@@@@@@@@#@@@@@####@#$&&%$$$$##@@@#$$$$$$$######################@###@@###@@##############@####@@@@@@@@@@@@@@@@@@@@@@@@@@@++@+O+@@++++++@#@@+++",
"$#@#$&%#%%$#$%$#%&%%$$**$@$$#@#$$$$##@@##@@@#####@#$$$#$########@@####@@###@######$$$$#@#@@@##$$$$$$$$#@####$$$$$$$$$$$$$$$$$$$$$$$$$$$$$$$$$$$$$$$$$$$$$$$$$$$$$$$$$$$$#################################$%%%$@@@@@@@@@@@@@@@@@@@@@@+++++@@@@@@@@@@@@@@@@@@@@@@@@@@@#$%$%$%#*&%#@+++@+@@@++@@++@++++@@@@+@@@@@@@@@@@@@@@@@@@@@@@@@@@@@@@@@@@@@@@@@@@@@@@@@@@@@@@@@+++@@@@@++++@@@@@@@@@@@@@@@$%%$@++@@#$$@+O+##@@@@@@@@@@@@@@@@@@@@@@@@@@@@@@@@@@@@@@@@@@$###$%%$####@@+++@@@@@@@@@@@@@@@@@@@@@@@@@@@@@@@@@@@@@@#################@@@@@@@++@@@@@#@@@@#@@@@@@@@@@@@@@@@@@@@@#######$##%$@+++++++#$#######@@+@@@@@@@@@@@@@@@@@@@@@@@@@@###@@###%*&$$$$##@@@##$$$$$$################$$####@######@@@###########################@@@@@@@@@@@@@@@@+@@+++++++@+@++@@+@#@@+++",
"&%$$$&$#$$##$%%$%%$##%=*%%%$#$##$$$###@@##########$%%$$%########@@####@@###@#####$%$$#@+@###########$$$$$$$$$$$#$$###$$$$$$$$$$$$$$$$$$$$$$$$$$$$$$$$$$$$$$$$$$$$$$$$$$$################################+$&$#$$##@@@@@@@@@@@@@@@@@@@++++@@@@@@@@@@@@@@@@@@@@@@@@@@@@#$%$*$$#--#@@+++++@@@++@+++@++@@@@@@@@@@@@@@@@@@@@@@@@@@@@@@@@@@@@@@@@@@@@@@@@@@@@@@@@@@@@@@@@++@@@@@@@++++++@@++@@@@@#@@$%$#$@+@#$$#++#####@@@@@@@@@@@@+@@@@@@@@@@@@@@@@@@@@@@@@@@@@##$#$&&$####@@+++@@@@@@@@@@@@@@@@@@@@@@@@@@@@@@@@@@@@@@@@####@@#########@@@@@@@+@@@@@@#@@@@@@@@@@@@@@@@#@@@@@@@#######$$$#$%%#@@+++++#$$##$###@@#@@@@@@@@@@@@@@@@@@@@@@##@@@####$#@#%&&$$$##@@@#########################$$####@@@#$#@@####################################@@@@@@@@+@@++++++@+++++@#@@@@@@@@",
"&%$&&%$$#@@@+@##@#$##&***&$#@#@@$$$$$#######@@@####$%%%%########@####@@@##@@@####%%$#@@@@@@#$$########$$$$$$$#$$$$$$$$##$$$$$$$$$$$$$$$$$$$$$$$$$$$$$$$$$$$$$$$$$$$$$$$$################################$**%#$$$##@@@@@@@@@@@@@@@@@@@@@@@@@@@@@@@@@@@@@@@@@@@@@@@@@@#$%$=%$#%$@%#@++++@@@+@@@++@@@@@++++@@@@@@++@@@@@@@@@@@@@@@@@@@@@@@@@@@@@@@@@@@@@@@@@@@@@@@@@@@@@@@@@@@@@@@+@@@++@+++@@@@$%$##@###$#++@#$@@@@@@@@@@@@@++++@@@@+@++@@@@@@@@@@@@@@@@@@@##$##$%###@@@@+++++++@@@@@@@@@@@@@@@@@@@@@@@@@@@@@@@@@@@@@@@@@@@@@@@@@@@@@@@@@@@@@@@@@@@@@@@@@@@@@@@@@@@@@@@@@##$##@@#$$%$$%%#@@@+++@###@@@@@#@###@#@@@@@@@@@@@@@@@@@@@##@@@######@@#%*$$$##@@@##########################$$####@#$$@@@#$##################################@@@@@@@@@@@@@@@++++O+++@#@+++@@@@",
"$%&&&%$##@@OoOOOO+@$&=*&=&###@@$$$#$$$$#####@@###@@@$&&%#########################$$$#####++@#$$$$$$###$$$#$$$$$$$$$$$$$$$$$$$$$$$$$$$$$$$$$$$$$$$$$$$$$$$$$$$$$$$$$$$$$#################################:;*&%%%$##@@@@@@@@@@@@@@@@@@@@@@@@@@@@@@@@@@@@@@@@@@@@@@@@@@#$%$%%#$##%%#@+++@@@@@@@@++@@@@@++++@@@@@@@+@@@@@@@@@@@@@@@@@@@@@@@@@@@@@@@@@@@@@@@@@@@@@@@@@@@@@@@@@@@@@@@@@##@@@@+++@@@$%$%#@###$#@@@+@@@@@@@@@@@@@@@+++@@@@++@@@@@@@@@@@@@@@@@@@@+#$##@+#$###@@@++++++@@@@@@@@@@@@@@@@@@@@@@@@@@@@@@@@@@@@@####@###@#@##@@@@##########@@@@@@@@@@@@@@@@@@####@@@#$$#######$%%%&%#@@@+++@@@@@@@@###@@@@@@+@@@@@@@@@@@@@@@@@#@#$$#@@@@@###$$$$$##@@@#########################@#######$$#@#@@#####################################@@@@@@@@+@@@@@@@+++++++++++++++",
"%%%$$%$@@++OoXXoO++@$&****$#$##$$###$$$###########@############@#################$%$#####+@###$$$$$$$$##$$$#$$###########$$$$$$$$$$$$$$$$$$$$$$$$$$$$$$$$$$$$$$$$$$$$$$$################################%--%%&$*@@@@@@@@@@@@@@@##@@@######@@@@@@@@@@@@@@@@@@@@@@@@@@#$%$$$&%###%#@+++@@@@@@@@++@@@@@@@@@++@@@@++@@@@@@@@@@@@@@@@@@@@@@@@@@@@@@@@@@@@@@@@@@@@@@@@@@@@@@@@@@@@@@@@@@@@@@@@@@#@@$%%&&%$###$#@+O+##@@@@@@@@@@@@@++@@@+++@@@@@@@@@@@@@#@@@##@@####@#$$$####@++@@@@@@@@@@@@@@@@@@@@@@@@@@@@@@@@@@@@@@@@@##@##########@@@@##########@@@@@@@@@@@@@@@#@@#$#@@@#$$$###$$#@$%%%&%#@@@+++@@@#$$#####@@##############@@@@####@##$$##@@@@@#$$$$$$$##@##$$######################@#$$#@###@@@#######@######@######################@@@@@@@@@@@@@++@@@@++++++OO++@@@@@",
"&#+@#%#+OXXooooOo+++++$%%&%######$#######################@######@################$%%$#@##@#$$#$%$$$$$$######$$$#########$$$$$$$$$$$$$$$$$$$$$$$$$$$$$$$$$$$$$$$$$$$$$$$$###############################$$%==%&%@@@@@@@@@@@@@@@@#@@########@@@@@@@@@@@@@@@@@@@@@@@@@@#$%$&$$##%$@#@+++@@@@@@@@++@@@@+@@@@++@@@@++@@@@@@@@@@@@@@@@@@@@@@@@@@@@@@@@@@@@@@@@@@@@@@@@@@@@@@@@@@@@@@@@@@@@@++@@+@@@#%%$&*##$###+++@#@@@@@@@@@@@@@@@@@@@@@@@@@@@@@@@@@@@$#@@##@@#$#@@$&$#####@@+@@@@@@@@@@@@@@@@@@@@@@@@@@@@@@@@@@@@@@@@@@@@@@@@@@@@@@@@@####@#######@@@@@@@@@#@@@@@@@#$#@@#$$$###$%$#@#$%%&%#@@++++@@@#$###@@@################@@@@#####$#@@#$##@++@#$$$$$$#####$#$$#######################$###$#@@#$#####@@@@###@@@#####################@@##@@@@@@@@@+++@@+@@++++OO+@@@@##",
"$@++@#+OOOOXXooooOOO+O@%$##$$###$$$##@@####################@@@##@################$%%$######$$#$$$$$$$$$$#######$$$$$$$$$$$$$$$$$$$$$$$$$$$$$$$$$$$$$$$$$$$$$$$$$$$$$$$$$#$############################@@#&=*$#%#@@@+++++@@@@@@@@@@@#####@@@@@@@@@@@@@@@@@@@@@@@@@@@@#%%$$$#$&$###@++++@@@@@@@++@@+++++@@++@@@@@+@@@@@@@@@@@@@@@@@@@@@@@@@@@@@@@@@@@@@@@@@@@@@@@@@@@@@@@@@++@+@@@@@@@@@+@++@@@$%%%%%@@$$@@+++@@+@@@@@@@@@@@@@@@@@@@@@@@@@@@@@@@@@@@####@@@@####$$$####@@+++@@@@@@@@@@@@@@@@@@@@@@@@@@@@@@@@@@@@@@@@######@########@#@@@@@@@@@@@##@@@@@@@@@@@@@@@######$##@#$$$$$###$$%%#@@@++@@@@##@#######@@@@@@@#############@@###@@#$$#@@@@##$$$$######$$$######################@@##$$$#@####$####@@@@##@@#####################@####@@@@@@@@@@++++O+@+++++@@@@@@@@",
"++++++++@@+oOOooOOoO++#%%$$$#####$$$########################@@###################$%$###$###$$$$######$%%$$$$###$$$###$$$$$$$$$$$$$$$$$$$$$$$$$$$$$$$$$$$$$$$$$$$$$$$$$$$###$#####################@##$#@@$*&%$$$#++++++++@@@@@@@@@@@@@@@@@@@@@@@@@@@@@@@@@@@@@@@@@@@@#%%$$##%#$&@#@++++@@@@@@@++@++++++@@+@@@@@@@@@@@@@@@@@@@@@@@@@@@@@@@@@@@@@@@@@@@@@@@@@@@@@@@@@@@@@@@@@+@+++++@@@@@+@@@###$&%&$###@##@+O+@###@@@@@@@@@@@@@@@@@@@@@@@@@@@@@@@@@@@@##@+OO+#$$#######@@+++@@@@@@@@@@@@@@@@@@@@@@@@@@@@@@@@@@@@@@@@#################@@@@@@@@@@@###@@@@@@@@@@@@@@@##$$$#@@@#$$$###@##$%%#@@@@@@@@@######$###@@@@@@#######@######@@@#######@@#$#@#$$$###@@##$$$######################@@@#$$#@#####$######################################@@@@@@@@@@@+++++@++++@##+++++@",
"oo+@OO@$$##++OOOooOOO@$%%%%#+##@#$$$######@@##################@#################$%%$$###$$$$$$#########$$$$$$$$$$$$$$$$$$$$$$$$$$$$$$$$$$$$$$$$$$$$$$$$$$$$$$$$$$$$$$$$$##########################$$$####&**%$%@++++++@@@@++@@@@@@@@@@@@@@@@@@@@@@@@@@@@@@@@@@@@@@@@#%%$#$&*#@%##@++++@@@@@@@++@++++++@@@@@@@@@@@@@@@@@@@@@@@@@@@@@@@@@@@@@@@@@@@@@@@@@@@@@@@@@@@@@@@@@@@@@@+@@++@@++@@++@#@@$%$%#@%%@@##++@##$@@@@@@@@@@@@@@@@@@@@@@@@@@@@@@@####@+@##@oO@#####$$###@@++@@@@@@@@@@@@@@@@@@@@@@@@@@@@@@@@@@@@@@@@@##########################@@@####@@@@@@@@@@@@@##$$$#@@########@#@#%%###@@@@@######@@#@@########@####@@##@###@@####$######$#@#$####@@@##$$#########################@#$#@@@@@###@@############@@############@@##@#####@@@@@@@@@@@@@@@++@+++@#@++++@@",
"+OOOoO@###$#@+@+OOOoO+#&&$##$%#@##########@@#####################################$%%$$$$$######$$$#$$######$$%$$$$$$$$$$$$$$$$$$$$$$$$$$$$$$$$$$$$$$$$$$$$$$$$$$$$$$$$$$$########################$$$####+%==$$$++@@@@@@@@@++@@@@@@@@@@@@@@@@@@@@@@@@@@@@@@@@@@@@@@@@#%%$**#@$@@%#@++++@@@@@@@@+@@+++++@@@@@@@@@@@@@@@@@@@@@@@@@@@@@@@@@@@@@@@@@@@@@@@@@@@@@@@@@@@@@@@@@@@@@@++@++++++++OO+@++#%$$##%$#@@@@+@#@@##@@@@@@@@@@@@@@@@@@@@@@@@@@@@@@@###@+@#%@@@@#$$$$$####@@@@@@@@@#@@@@@@@@@@@@@@@@@@@@@@@@@@@@@@@@@@@@@@@@@@@@@@@@##################@@@@#@@@@@@@@###$$#####@@@###@@#@#%&$###@#@@########@@##############@@##@@########$$###$$#########@@@##$$$###########################@###@@##@@@####################################@@@@@@@@@@@@@@@+@@#@++++@@@@@@",
"@@Ooo+@#$######@@@OO+OO#*%##$$@##################################################$%%$$$$#@@@###$$##$$$$$$$$$$$########$$$$$$$$$$$$$$$$$$$$$$$$$$$$$$$$$$$$$$$$$$$#$$$$$$############################@@@@@%&%%%@+@@@@@@@@@@@+@@@@@@@@@@@@@@@@@@@@@@@@@@@@@@@@@@@@@@@@#%%%$&%##$###@++++@@@@@#@@+@@@@+@@@@@@++++@@@@@@@@@@@@@@@@@@@@@@@@@@@@@@@@@@@@@@@@@@@@@@@@@@@@@@@@@@@@@+++++O++OOOOOO+@@@$%%$%%$###@@@++@@@#@@@@@@@@@@@@@@@@@@@@@@@@@@@@@@@@@###@@$*$#@@$%%$$$####@@@@@@@@@@@@@@@@@@@@@@@@@@@@@@@@@@@@@@@@@@@@@@@@@@@@@@#@@@####################@@@@@@@@@@@####@##$$#@@@@##@####%&%$$##########$$$#####@####@@@###@@#@@@#######$$$$#$$$$$$#@#####@@##$$$$$$##########################$$####@######################################@@@@@@@@@@@###@@@##@+++@@@@@@@",
"##@##@#%&%###@@@+@#@++++$%%##$@#$##@#@@@@######$################################$&*&$$$$#@@#$###$$$$#$$$$######$$$###$$$$$$%%$$$$$$$$$$$$$$$$$$$$$$$$$$$$$$$$$$$$$$$$$$$#########################@@@@+Oo+$*%$$+@@@@@@@@@@@@@@@@@@@@@@@@@@@@@@####@@@@@@@@@@@@@@@##@@#%%%@#$$&%@$#@++++@@@@@#@@+@@@@@@@@@++++++@@@@+++@@@@@@@@@@@@@@@@@@@+++@@@@@@@@@@@@@@@@@@@@@@@@@@@@@+++++++++++++++@++@@@$%%#&*$#$$$#@@++##+@@@@@@@@@@@@@@@@@@@@@@@@@@@@@@@@@####$&*##@#####$####@@+++@@@+@@@@@@@@@@@@@@@@@@@@@@@@@@@@@@@@@@####################################@@@@@@@@@@@##@@@@#$$##@@@@#####$&&%%$$#########@#@@##@##@@@@@@####@@##@@########$$$$$##$$$#@#####@##$$$$$$$$#################$$%$###$$$%$###$##$##@@@@##$$#########$$$$$$$#########@@@@@@@@@@####@@@@@@@@##++OOo",
"+@%&%$$#%*&$#%$@$$#@Oo+##$%$#@#$$$$$$$$$$$$$$$$#####$$%$$$############$$$$$$$$$$%%*=&$$+@@@@##$$$$$$%%%%&&&%%%%&$$$$$##@#$$%&%$$%%%%$$$$$$$$$$$#########$$$$$$$$$##$%%%%$$$$$$$$$$$$###@@$$#######$#@##OO#&&%#OX@++@@+@@###@+@#@@@@@@@+@@##$$$##@@@@@@@@@@@@@@@@@###$$%&&%$$%&%##@@@+++@@@@@@@@@@@@@@@@@@@@@@@@@@@@+++@@@@@@@@@@@++++@@@@@@@@@@@@@@@@@@@@@@@@@@@@@+@$$@#$$$$$$$$$$####@##@@###&&%$#$%%$@#@@@########@@@@@@@@@@@@@@++++@@@@@@############@@@@#$$%$$##@+OOooO+++++$###@@##########@@@@@@@@@####################$#######$$$$##$$$$$##############@@#$##$$#####@@#######$%%$$#@+@#$$$$$$$#@++@@#$$$##@+@#$#+OO+@@##@@@@+++@#$%$$#$$$@%%$%$#@@$$++@@O+@@###$$$#####$$$$$$$$$$$#######@@@@@###@@@##$$$$$$$$$$$$$$$$$$$##@@@##@+++++OOo+##@@+++++OoOOOX.XXX",
"OO+$&*%+#%**%$$$$$#######%&&$#@#$$$$$$$$$$$$$$$$$$#@@#$%&&&&&&&&&%%$$$##$$$$$$$$#$%&&&%#@++OOOOO+++++@@#$$$$$$$$$$%%%%%%%$$&*&%%%%$$$%%%%&&&%%$$%@+$&%%%%%%%%%%%&&%%$$$%%%%%%%%%$$%%$$#@+#%$$%$$@#%#O+$$@#%$##@O+@#$####@@$$#@@##@@@#@@@@#$%&%$$$$$#############@#$$$%&&&%$##$$#@++@@+@@@@@@@@@@@@@@@@@@@@@####@@+@@@@@@@@@@@@@@@@@@@@@#@@@@@@@@@@@@@@@@@++++++++@+@#@+@#############@@++++@@##@*&&%$$$$@+@+@@@@@@##@@@@@@@@@@@@@@+++@###################$$$$$$$$$$$##@@..XOOOO+$#@@+@@@@#######@@@@@@@@@###############$###$$$$$$$#$$%&%$$$$$$$################$%#@$%$$%$##@@###$$#%**$#@@@@@##$%$$#++OO+@###@@+oooo@#@OoO+@@++OOOOO++@@#@+O+++@%%##+oX....XXXXXXXooooOooOO++@@#####@@@@++++++O+++++@######$$%%%$$$$$######@@@+++++++OOoXXX.  . .X.....X... .   ..X",
"$@O+$$$%==;>;&&=%$##%%$@####@OoX..XXooOOoooooooo++++++++############@@@@########$$$%&%#@#@+OooooooXX.XXXoooooooXXoO+++@@@+@$&&$$#############$$$%%$$##@@#########$##@++++++++++++@++@@+OoO@#@@@OOoOoXo@@OO@#$%%@O+@@++@@+++++@@@@@+@######$$%$$$$$$#####$$$$$$$##$$$$$%%%$#@@$%$#++@@@@@@#######@###########@@@@@@@####@@@@@@@@#######@@@#@@++@#@@@@@@@@@@++++++@##@+@#@##########$$$@+OoooXO++#%%&%$$%&$#+oo+#$##########@@@@@@@@+++@@@######@@@@@@@@@@@@@##$$$%%%%%$##X..XXXXo@@@@##$$$$$$$$$$$$$$$$$$$$$$$$$$$######$$$$$%%%%%%$$$%%%%%$#@@##########@#$$@@@$%%@@#$#$%$#@@@##$$$#%--&%$$$#@++#@++OOOOOOOOOooooooXXoO+OooooooOOooooOOOOOoOOooo$$$$@OoX................XXooo.  .XXXXXXXOO+++++++@@+OOO+OOO++@@@++OOOOooooooooooooOOoX....          .XXXoOOOoXXXooOO",
"O+OooX+O@$&=-=&%*%$$%&$#$$##@@+++++++++++OOooXXXXXXXXXXXXXXXXXXXXooOOOOOOOOOOOOO@@@%=&##$#@+++++++++OOOOooooooOooooooXXXXXXoOOOO#+oXXXXooooooooOOOOOOOooooooooooooooOooXXXXXXXXX.X..XX.XXXXoXooooXXXXXoOoO#&&&$@X. .....XX...XXXX.X..XoooooXXXoooOOoooOOO+@@++O+@##@@@#$%**%$$%&$+oOooXXoOO+++O++++++@@@+OO+++@@@+@@@++++++++++++@######@@+++++++++++++++++OOOOO+O+####++++++++@@@@@++OOO+Ooo+#%$$$$$###*@oXX.O$@@@@@@@@++++OOOOoooXXXXXXooooXXX..XXXXX.XXXXXO+@#$$$#@OoOoXX.  .oOO+++++++@@@+@@################@+++OOooOOOOOO++@@+++OooooOooXXoOOOOOOOOXXXXXXXXoOXXXXXXooXX.XoooOoo@&*$####@OoooX...XXXXX...XXXoOOoX..XooX..XoOoXXXXXooOoO+@##$$##$OoX.oX.XoOo.XXXXXXXXXoOOOOoXooooooooooooooooO++OOOO+OoooooooOOoOOOOooOOOOOOO#@@@+oXXoX. .XX. .XoXXXoOOooXXooooO+",
"O@@$$#$O#++$$##%&*=--=*&%%&&&****&&%%$$$@@@@@@@@+++OOoooooooooooooooOO++++++++++O+@$**%$%$@+@@@@@###@@+@@@+++@@@@+OOooXXoOOOO@%*#+OooOOOOOOOOO+++++++++++++++++++++@##@@@@@@@@@@@+++OoOOOoooOOOOOOOOoO@@+@%**&%#OoXXXXX..XoooX...XXX.....XX..XooooooOOO++@++++OooOOOO@$&%&&%%&$#+XXXX....XXXXXX..XXXXXXXXXoooX.XooooXooooooXXXXXXXXXXXoooooOOOOoooOOOOOOOOOOOOOOoXoOoXXXX.............XXOXXoO@$$@@#######&@.XX..XXXXXXXXXXXXX...................  ..XXoooooXoO+@#@@++OOOOOooX.   ..XXXX..XooX.........XXXXXXXXXXXoooOO++@###@#$%%%&%%#@@@@@@@++O$+&#Xoooooooooooooooooo+++OoXXooooXX+$%$#@OX............XXXXXXooooXXXXXXXXXXoOOO+++++++OOOOO+@##+O@@OoOOXXXXXXXX..o+O. oooooooooooooooooooooooooOOOOO++++++++++++++++++O++++++@@@@++++OoooOooXXo .OOOOooOOOOO+++OO+@",
"%%&=*$%*$$$$$$$%%%%%%&&&&&*****&&&&&&&&&%%%%%%%%$$$$$$$$##############$$########@$$#&--*=&$##$#####@++++@@@+++@@@++OOooOO++Oo+$%%#@@@#$$%%$$##@@@@##$$%%%%%%%%%%%%%%%&&**********$$%#@#@++++$$#@+OOOo@$$$%*--=&$###@+++OOOO++OoooO+OOooooooXXooOOOO+@@@#$$####@+$#@+OO@#$%%&**%@+ooooXXXXXXXooXXoooooooooO+@+OoOOooXXooooOOOOOOOOOooO+OoooO+@@@@@+++++++++++++++O@+OOOXoXXXXXXXXXoOOOOOOoooO@@@@@@##@@$%$#@+OoXXXXXXXXXXXooooooooooooooooooooOOOOOoXXooOOOoXXo+@#@++++@@++++OoXXXoOO+++OO+++oXXXXXX.XXXXXXoooooo++++OO++$$$$#$%%&%%%$$$##@@@@@+O#@@++OOOOOO++@@@@++++O+@@@@+++++++O+@$&&&$@oooOoXXXXXX.XXXXX....X....XXX...XXoXooOOooOoXXooXXXXXXo@+OO@OoooooooooXXXX...XXXXXXXX.o+@+OOOOOOOO++++++@@##################@#####$$$$$##@##@OoO+Ooooo+@@##@+O+@@#$#@@#$$",
"%**#$&&***********&&&&&&&&&&&&&&&&*****&&$$%*=*&&&&&&&&&&&&&&&&&&&&&***&&&&&&&&&%%%&*;>>>-&%%%%$$%$$$$$$$$$$$$$$$$#@+++++@$##$%%%%%%$$$$&*==*&%%&***********=======*&**=--==******&&&$$$$$$$%&*&$@@@+@@%=;;;=&%%$%%$$%%%%#@@###@@@++@@@@@++++OOO##$##$%%%%%%$##$$%%$$$%&%-::=*&&%##@+OO+OOOOO+++++OOOOOOooOOOoO+OO+++@@@@@@@@@@@##$%%%%$$##$%&*=$$$$$$$$$$$$####+@@@##+o........o+@##@+++@@+@#@$%$$#@@@@@@@@@@+++++++++++@@@@@@#@@+++OOOOoooOO++@@@@@@@@@@+OO+@$$$##@@++@##@+++OOOO+++@+@@@@OooXXXXooOO+++@@@@@@@@@@@@@@@@@@@##$#######@++++@@++###@@+++@#######@#$$$$$#############%%&=*&$#@++OOOOOOOOoooooOooooOOoooooooooXXoooooOOOOOOooooOO+OO@@+++oOOOOOOOOOOOOOOoOO++OXo+#@#$$@@#$########$$$$$$$$$$$$%$$%&%%%&&%%%&&&&&&****&&%$#@+O+++OO@##$###$%%$$%%&&**=-",
"&#&**;;>>,<<,>:;;;::;-=*******************=&&>,&&&&&&&&&&&&&&&&&&********=======;*=;;-:>>;*%&&&%%%%%%&&&&&&&&%%%%$$#@@@@++@#$&&$%&&%%$$$$%&==-;;;--==***============**&&;=*%$$$$$&%#%$@#$%&==---=&&&&%$$%%%&*&%%%&%%&*&&&&%%$$#$$$##$$##$$$%%$$$%%%%&&&**&&&&&%%%&===**=&=;;--*&&%%%$##$$#@@@##$$##@@@@++OOOOoO++O+@#$$$$$$$$$$$#%&***==-=&&*-:>&&&&&&&&&&%%%%%%$#$$@+++oooooooo+@##$######$####$#####@O########@#######$$$$$$$$$$$$$$###@@@@@@##########$$#@@#$$$$$$###$%$@@@#@$$########$#+Ooo++++++@@@@######$$$$$$$$%%$$%&&&%%%%%&%%%%$$##$%%%%$$###$$$$$$$###$$$%%%$%%%%%%%%%%%&%&-*%%%%$$$#@@@@@@@+++@@@@++++OoO++++OO++OOOOO+++@##@++OO+##+O##$@@@@@@@@@##$####@@+++@@###@@##$$%%%%%%%%%%&===*&*********===**==*******===---;;-*&%$@++@+O#$%&*&&*=--=**=;;;;:",
"%##$$%=:;;;;;;;;;;;;;;;;=;>>;---;;;;::>>,:>::<<-;---=***********&*-;;;--:-**=;;->>:::::;;--=*&&&&&&&&&*==========**&%@+#%##$$%**&&&&&&****==;:>>:::::::::::::::::>>:-*%$**$==$**%*%#$%##%*=:::::;::-*&**%#+@%--=--===*&%&****&&**&&&&%%$$%&****&&%$%&&%&**&&***&&*===============*******=%%&%#@$$$$$%$@O+O++++@@+@####$$##$%&&*==*&&*===--;-;:,1:-===***********=&%#$$%$+OOOOO+OO@$$#%&$+#$&***%$%%$@@#%$$##@@@@#$%&&&&&&&&&&&&&&&&&&%$$$$$$$$###$%%%%$#%&****&%%&%%%%%$$$$$$$$$%&***&%%%&&%$#+++@@###$$$$$$$$$$$%%%%&*&&&&&&&&**=*&&&&*=*&%$$$$%&*&%%%*#@@@#%*=;;-**=*%#%&&&%%&&&&&*****&&****&&%$$$$$$$$$%%%%$#######$$###$$$##@@#$%&%%$##$$%%*-*%&&%%%&%%$$%%%%%%%$%&&&&&$$$#@##$%**====***&&=---;;::;;;;;;;;----;;;;;;;;;::::::>:;-=*&$@@+++#$%*====--;-======**",
"@#@+@%&%++++++++$#@++#%*%%%%$$$#$$%%&&&*&&******;;;;;-------------==----=;:;-=-:********----===========-------;;;;---%+@%@@$$%=-*****&&%%%%%%&&&&***************&&&**===@#%*======*%@@@+@%$$$$$&-;;-=**=*&$#$*===-;-==*=-=**=====***&*====----;---;;;;;;;;;;;;::;-----;;;;;;;;;;====***=========*&&&&&%%@+O+@@@@@#$%$###@@%**&*=;=&%%&=-;::,<1232,:>>:-==--;;;::->-&@%#$@OOOXooX+%==-;::%O#=--;==&%%&&$#&&&&&%$$*-::>>::::::::::::;;--==****************=--=&%&**&&*&&&&&&&&&&&&$&=-=**====*&$@+++@#$$%%%&&&&&&&&&&&***==-----------=*********&&&==*&&&%%$@@#%=;-:>;-;;-;*&**=====---;;;;;---==********&&&%%&*===**==&%$%&&%%&****&&&*=*****======-=&%&&&&&&&*===&&&&*&&&*=*%%&%$%&&=--;;;;-----=-;>>>::::>>,,<<,,,,<<<<,,,,,,,,,,,>:::;-*%#@++O+@###%*=--=**=*%$#@@",
"@@@@#$$#############@@@@#@@@$%$#+++++++++++++++++++@@###$+@#+#&%@@@@@@@@+#%%$###@+++@@@@@##$$%%%%&&%%%%%$$$$$$%%%%&&&&@.##%&$#%&%$#@@###@+OOOOoooooooooooooooooXXXoO+@##@+++++++$#$$OO++O@@+@@#%&*&*;-*%%$$#####+#$$$%%%%$####$%%$$##$%%%&&%%&***=====--==----;;;;;;;;;;;---;;;---;;-*%$=;:;--;>::;;--==%#++++@@+#&---====---=*&*****=;>>>>,<111<,>>::::>>:::;;-&:,;*%$%$#@+OOoo#*%%*&&*=*+O#$#%#+@@#-;&#$$$$%%&=;;;-==*=================*******---------;::--;:::;;;;;-;;:>,<11>:;;>,>;:::;=&#@@+@#%&&&&&&&&&&****=-==-;;;;;;;;;;;::;;-=**=---=*====*%$##++# 32+>4,;<4432,-;;;----;;::::>>>>>>>--;;---==*&%%%&*=-;::;=**=-=**=--===***=-;--===-**--&%%%%%&*===**=*&&***&%%&&&%#@@#$&->,>:=**=;>>,<11<,,,,<<111211<<<,,,,,,>>>::,:;;;:>:;-*%@+++@####$%&**&%$###@@@@",
"+@####$$$$$$$$$$$$$$####$##############################@@#$$@@#$#########@@@@@@@@########@@@@@@@@@@@@@@@+++@@@@++@#$#%-<@#$$$$#$$###############################@@@@@@@@@@@@@@@@@@#$@O@@OO@#@$%%&*&%%%$$$$$#@@@++@@#$$#@@##@@+@######@@@@@++@@@@+++@@@@@@@@@@##@#$%%%$$%%%$##$%%%&***&%$$%*===***--:>>>:=%@+++OO+#%****==*&%%&%$#$%*=-*&$@+OO+#$O@+O$%&=$%#%*#O#@o$**#$@#@+O++++@$%$@#$$*-=$+@##&&=&@$-*####$$%&&&#+OO+++++++++OOOOOO+++++++++@@@@@@@@@@#@#%**%#%&&&*===--;;:::::::>>>>>>>>:>=$++@@$&*==-=--;;::::::>>>><<<<<<<<<<,<<1<<,,,,,,,,>::>;*%&$$@o+X*=@=:=*:<<<>-=--------;;;;;-=**=--==---=======*&&&=-;:>>>:;;::---;;;;::;;;:::;;---------=*&&%%%%%%%%%%%&&&*---*$#%@+@%->>>,>;&*:11<,>>>>,<,,>:;-==**&&&%%$$$######$#@@$&*==*&%#@@@@#$&*&$#$$$#+OO+@###",
"O++++@$$#######################################@##################$$$$#######@#######$$$$###$$##########@##$$$$$####%=<>+#@+$%$##$########$###@@################################@@##@OO+Oo+@@#%%$$%$$%$##$#@@##@######@##$#@@@@+@####@@@@@@@@@@@@@@@####@@@@@@@@@@@@+@@@@@@@@@@@@@@+@#%&##$%%$#@@#@#$*;>-%@+OOOOO+++OOO+++OoO++OO+++OOooO+++OOOO+@+++OOOOOOO+++@@++$%&$$$$@@##@@+@$$@@%*=*&&%$###%==&$###$$$$$####@@@@@@@@@@@@@@@@@@@@@@@@@@@@@@@@@@@@+++++++++O++@@@++@++++++++@+%=#+#$@#$*;-%#@+@%-><<<<,,,,,,><<>><<,,,,,,,,,;;;;;--;;:>>>::::;-=--=*$#@+oo$:#Oo+##$&%*&@@@@@++@@@###@@+OO+@@$$$$$$$####$$$$#%&&**&&&&&&&&&&&*****&&%%&&**&%%%&&*---===******&&&*&&&&-=&*-%@$##$%%$#@$=:>>,;&$#+O+#%*$$$##@@@++@@@@+@@@@@@@@#####@#%&%$#@@+++O+#%&&%$#@+@@@@@@##@",
"@OoO+@#%$$$$$$$$#$$$$########$$$$$$$$$$$$$$$$$$#$$$$$$$$$$$$$$#######################$$$$####@@@###################$%*:*+#@@#$$###@@#######@@@@@@@@@@@@@@@@@@@@@@@@@@@@@@@@@@@@#$$$##+OO+O+##$$$$$%$$%%$%$@++@@#@@@@@@###@@@@@@@@@@@@@@@@@@@#@@@+@@@@@@@@@@#@@@@@@@@@@@@@@@@@@@@##$$%%%%*%#@#$$##@@++@%**$+OOO+++++@@@@@@@@@++OO++@@@@@@++@@#$#@@@@@@@@@@@@@@@##+$#@$%%%%#####@+@##$$#$&&&%$$##@@@###########@@@@@##@@@++++++++++@@@@@@@@@##@@@++++++++@@@@@@@@@@@@@@@@#########@@@@@@@@+@@$**#@@@$*-;-=*&&&%%$$$&&$$&&$++++++++OOOOOoOO+++++@@+++OO#*-=##++++##@@$$##%*1=#@@@@@@@@@############%$###$$$#@####@@#####@@####@#$$######$#@@@###$$###@#%$#$$$$%&&$##%&&%$%&###$%@o@++++++++OO$;>=#+@@@@@@@###############@@####@@#@#@@@@@#$$$@++@+O+@##$$%$#@++@##@+++@",
"$@O+@##%$$$$$$$$############################################################################$$$$##@@@@@###########$$$$&=#@@#$$$##############$$#################################$$####+oOO+@$$#@#$$#$$%%$#####@@@@@@++@@++@#@@####@@@#@@@@@@@@@@@@@@@@++@@@@@@+++@@@@++@+@@@@@@@@@@@@@@@@@#######@+@@@@+%#+OOO++@+++@@+OOOO+@@++++++@@@@@@@@@#@@@@@@######@@@@@@@++$$&&&@#++##++@$$#####@@@@@#############@@@####@@@+++@@@@@@@@@@@@@@@@@+@@@@@+@++@@@@@@+@@@@@++@@++@#############@@######@#&&$$$##$$#@@@@@@@@@@+##++##+++++++++++@@@@###@@+@@##+++@@@$&%@#@oO#+##$$$$$$-$@######################@@+@##$%%$$$$###############$##$$$$#######@@@@@@@@$$$$$%%$$###$###$%$$#$%%%%@+@@@@@@@@@@+@%%@+@@@@@@@@@@@@@@@@@@####@@@@@@@@@@@@@+@####$$$#@@@@@#####@@@@@@@@@@++++",
"#$$@@#$$$$$$$$############################################$$$$##################$$$$######$$$$$$###########$$$$##$$$&$O$%@+#$%%$$$$$###@@@###############################@##########$$@OO+OO@#@@@@@#$$$#@@##++@@#@+@@++@+@@@@#@+++@@@@@@@@@@@@@@++++++++@@@@@@@@@@@@++++++++@@@@@@@@@@@@@@@@@@@@@@@@##$$%#@+OoO+@##@@#@@+++@##@+++++++++@@@+@@@@@@@@@@@@@@@@@@@@@@$@$$&%#%#@%#o+@#####$$$$$$###########@@@@@@@@@@@@@@@@@@@@@@@@@@@@@@@@@++++@@@@@@@@@@@@@@@@@@@@@@##@@@@@@@@@@@@@@@@@##@@#@#%%$$$$#@++#########@@##@@@#@@##@#####@@@@@@@@@@##@@@++@##@@#&#+@+OO##%&$##$$#%%####################@@@#$$##$$%%$$$$$$$$$###@@@####$$$$$$$####@###@@@@@#@@####$$$###$$%%$$$$#$%%%%$@++++++++++++++++++@@++++@@@@@@@@####################@@@@#@###@++@$###@++@@@@@@@@@@@@@",
"@@@@@#$$$$$$$#############################################$$$$#################$$$$$$####$$$$$$$####$$$####$$$$####$%$@##@@@#$$#$$$$$###@@###############################@@#######$#$*=%@###@+@+@@@@@@@@@@#@@@@@@@+@@+@@@@@@@@@@@@@@+@@@@@@@@@@@++++++++@@@@@++@@@@+++++++++++++@@@@@@@@@@@@@+@++@@@@@@#%#++OoO+@+@@@@@@@@@@@@@+@@++@@@@@@@@@@@@@@@@@@@@@@@@@@@@@@#@$**%#$%%%%#O######$$$$##$########@@@@@@#@@@@@@@@@@@@@@@@@@@+@@@@@@@@++@@@+@@@@@@@@@@@@@@@@@@@@###@@#####@@##########@#@#%%$$@@@+@@@@@@@@#@@@@@@@@@@@@@@@@@@@@@@@@@@@@@#@@@@@@@@#####%%$@++@$######$$$$##$$################@@#######$$$$$$$$$$$$$$###################$$####@@@+@@@@####$$$$$$$$$$##$$####%%@OOOOo+#$@+@##+O+@@@@@++++++@@@@@@@@##@###@@@@@#######@@#$$$#@@+@@#####@@@@@@@@@@@@@@@",
"#@@@@@#########################################################$$$###############$$$$$$$$$$$$$########$#$$#$$######$&%##@@@+@###$$$$$###@@#$@@########################$##@@#####$$%&$$&&%@@$%@+@@@@@@@@@@@@@@@@@@@@@@@@@@@@@@@@@@@@@@@@@@@@@@@@@@@@+++++++++@@+++@+@@@@+@@@@+@@@@@@@@@@@@@@@@@@+@@@@@@@#%#@++OO+++@@@@@@@@@@@@@@@@@+@@@@@@@@@@@@@@@@@@@@@@@@@@@@#@@@%&$%$%%#@#########$$$$#############@@@@@@@@@@@@@@@@@@@@@@@@@@@@@@@@@@@@@@@@@@@@@@@@@@@@@@@@@@#################@@@#@@@#@#&&$%++@@@@@@@@@@@@@@@@@@@@@@@@@@@@@@@@@@#@@@@@@@@@@@##@@###$%%$@@@@##$$$$$$$$$#$$$#########################$$$$$$$$$$$$##########@########################$$$$$$$$$$$#####$$###$&%@++@#@++@@@+@@+O+@@+++@@@@@++@@@@@@@@@@@@@@@@@@@@@@@#####$%$#####$$#####@@@@@@@@@@@@@@",
"$$##########$$$################################################$$$###@@###########$$$$$$$$$$$$########$$$$$$$$##$##$&&$#@#@+@$###$$$$####@#$@#$###############################@@#$%&$#$#$$##@#@#@@@@@@@@@@@@@@@@@@@@@@@@@@@@@@@@@@@@@@@@@@@@@@@@@@@@++++++++@@@@++@@@@@@@@@@+@@@@@@@@@@@@@@@@@@@@@@@@@##%#@++OO+++@@@@@@@@@@@@@@@@@@@@@@@@@@@@@@@@@@@@@@@@@@@@@@@@@@$&$$&&%#@@#########$$#############@@@@@@@@@@@@@@@@@@@@@@@@@@@@@@@@@@@@@@@@@@@@@@@@@@@@@@@@@@@@###@@@####@@@#@@@@@@@@@#@#&&%%$#@@@@@@@@@@@@@@@@@@@@@@@@@@@@@@@@#@@@@@@@@@@@@@#@@+@@##%$#@@++@@#$$$$$$$$$$$$##########################$$$$$$$$$$###############################$$$$$$$$$############$$#$#$%%@+@#$#@+++++@@+OO++++++@@@@@@@##@@@@@@@@@@@@@@@@@@@@@@###$$####@@######@@@@@@@@@@@@@@@",
"$#############################################################################$$$$$$$$$$$$$$$$########$$$$$$$$$$$$#$&%$#@#@+#$###$$$$#@##@#$##$########################@###$#@@@#$###$$++$%@+@@#@@@@@@@@@@@@@@@@@@@@@@@@@@@@@@@@@@@@@@@@@@@@@@@@@@@++++++++@@@@@@+@+@@@@@@@@++@@@@@@@@@@@@@@@@@@@@@@@@##%#+++OO+++@@@@@@@@@@@@@@@@@@@@@@@@@@@@@@@@@@@@@@@@@@@@@+++@@#&&$#$$$%%$#######################@@@@@@@@@@@@@@@@@@@@@@@@@@@@@@@@@@@@@@@@@@@@@@@@@@@@@@@@@@@@@@@@@@#####@@@@@@@@@@@@#@#&&%%-&#@#$#@@@@@@@@@@@@@@@@@@@@@@@@@@@@@@@@@@@@@@@@@@@@+@@#$%$#@@@@@@@#$$$$%%$$###$###########################$$$$$$$###############$$############@@@@##########$$$$$###$#$$#$$$%%@++@#@@@+OO+@@+O++@@@+++++@@@@@@@@@@@@@@@@###@@@@@@@@@####$####@@@@@@##@@@@@@@@@@#####",
"@@+++@##############################################################$$$$$####$$$$$$$$$$$$$$$$$$#######$$$$$$$$$$$$##%%$###@+#$####$$#######$#@####################$$$#####$$####$$#+@$%#O@$$$@+@@@@@@@@@@@@@@@@@@@@@@@@@@@@@@@@@@@@@@@@@@@@@@@@@@@++++++++@@@@@@@@@@@@@++@@@+@@@@@@@@@@@@@@@@@@@+@@@@@##&+O++OO+++@@@@@@@@@@@@@@@@@@@@@@@@@@@@@@@@@@@@@@@@@@@@@@++@@#&&$#$%&&&%##################@###@@@@@@@@@@@@@@@@@@@@@@@@@@@@@@@@@@@@@@@@@@@@@@@@@@@@@@@@@@@@@@@@@@#########@@@@@@@@@#@#&*&&;&#@@###@@@@@@@@@@@@@@@@@@@@@@@@@@@@@@@@@@@@@@@@@#@@###$%%#@@@@####$$$%%%$#@@#############################################$$$$$$$$$###########@@@@@@@@@####$$$$$$########$$$%%#@+@@@@@@+O+@@##@@@@#@@+++@@@@@@@@@@@@@@@@@##@@@@@@@@@###$%$$$$########@@@@@@@@@######",
"##@@@@######$$$###############################$$$$$$$$$$$$$$$$$$$$$$$$$$$$$$#####$$$$$$$$$$$$$$######$$$$$$$$$$$$$#$&&$$$##@$$###$$$#######$#@#$###################$$$##@####@##$$%##$%$+@@#$@@@@@@@@@@@@@@@@@@@@@@@@@@@@@@@@@@@@@@@@@@@@@@@@@@@@@+++++++@@@@@@@@@@@@@@@@@@@@@@@@@@@@@@@@@@@@@@@+@@@@@##;1+#@OO+++@@@@@@@@@@@@@@@@@@@@@@@@@@@@@@@@@@@@@@@@@@@@@@@@@@$&$$%&&%$$$#################@@##@@@@@@@@@@@@@@@@@@@@@@@@@@@@@@@@@@@@@@@@@@@@@@@@@@@@@@@@@@@@@@@@@@@#########@@@@@@@@@@@#&*&&%$#@@@##@@@@#@@@@@@@@@@@@@@@@@@@@@@@@@@@@@@@@@@@@@@@###$%$#@@@@@##$$$$%%%$####$$##########################################$$$%%%$$$$######################$$$$$$##@######$$$&%##+@@#@@@#@OO@%%#+@@@@#@@@@@++@@@@@@@@@@@@@@@@@@@@@@@@@@@$%$###@@@#@###@@@@@@@@@##@###",
"%%$#########$$$###############################$$$$$$$$$$$$$$$$$$$$$$$$$$$$$$#####$$$$$$$$$$$$$$######$$$$$$$$$$$$$#$&&%%%$##$$#$##$%####$$##$#########################$###$$#####$%$#$$@@@@+@##@@@@@@@@@@@@@@@@@@@@@@@@@@@@@@@@@@@@@@@@@@@@@@@@@@@@@@+++@@@@+@@@@@@@@@@@@@@@@@@@@@@@@@@@@@@@@@@++@@@@@##>2@#@+O+++@@@@@@@@@@@@@@@@@@@@@@@@@@@@@@@@@@@@@@@@@@@@@@#@@@%&$%#$$##$$$################@@@@@@@@@@@@@@@@@@@@@@@@@@@@@@@@@@@@@@@@@@@@@@@@@@@@@@@@@@@@@@@@@@@@@@@@@#######@@@@@@@@@@@#&*&&$##@++@@@@@@@@@@@@@@@@@@@@@@@@@@@@@#@@@@@@@@@@@@@@@@###$%%#@@@@@#####$$$$#################################################$$%%&%%$$$#################$$$##########@######$$$&&$#+++@@@@##++@##@++++@@##@@+@@######@@@@@@@####@@@@@@@@@@$%$###@@@@@@@###@@@@@@@@@@#@#",
"$##@@#########################################$$$$$$$$$$$$$$$$$$$##########$$$$$$$$$$$$$$$$$$$$$####$$$$$$$$$$$$$##$&*%&%$##$$#$##$%$###$$##$$#########################$##$%$#####$$@@@@@++####@@@@@@@@@@@@@@@@@@@@@@@@@@@@@@@@@@@@@@@@@@@@@@@@@@@@@@@@@@@@@+++++@@@@@+@@++@+++@@@@@@@@@@@@@@@@++@@@@@##;,#+@+O+++@@@@@@@@@@@@@@@@@@@@@@@@@@@@@@@@@@@@@@@@@@@@@@@@#@$**%@###$$$@################@@@@@@@@@@@@@@@@@@@@@@@@@@@@@@@@@@@@@@@@@@@@@@@@@@@@@@@@@@@@@@@@@@##@@@@@@@#@@@@@@@@@@@@@@@@&*&&&$#++@@@@@@@@@@@@@@@@@@@@@@@@@@@@@@@@@@##@@@@#####@@@##$%%$##@@@######$$#@@@#######################################@@#####$$%%&&%$$$######@@@@#########################$#$$$&&##@@++@@@@###@@@@@@@@@@@@@@@@#######@@@###@@@###@@@@@@@@#$%%$$$###@@@@####@@@#@@@@@@@#",
"#@@@@#########################################$$$$$$$$$$$$$$$$$$$$########$$$$$$$$$$$$$$$$$$$$$$####$$$$$$$$$$$$$##$&&&&%##@##@###$%$###$$##$$###################$$#######$$$###$$$%###@#+@##@@@@@@@@@@@@@@@@@@@@@@@@@@@@@@@@@@@@@@@@@@@@@@@@@@@@@@@@+@@@++@@@@+++@@@+++++@++@@@@@@@@@@@@@@@@@@+@@@@@@#$;:*$@+@@@+@@@@@@@@@@@@@@@@@@@@@@@@@@@@@@@@@@@@@@@@@@@@@@@@#@$&$%$$@@@@##############@@###@@@@@@@@@@@@@@@@@@@@@@@@@@@@@@@@@@@@@@@@@@@@@@@@@@@@@@@@@@@@@@@@@###########@@@@@@@@@@@@@@@%*&&%$#@+@@@@@@@@@@@@@@@@@@@@@@@@@@@@@@#@@@@@@@@@@@@@@@+@@@#$%$#@+++$##@@#$$$#@@@#########@@@@######@@####@@##@@@@@@###@@@#####$$%&&%$$$###@@@####@@@@####@@##############$$#$$$&&$#@@@@+++@###@@#$####@++++@@@@@@@@@@@@@##@@@@@##@@@@+@@@@$$$$$#@@@@@@@@@@@#@@@@@######",
"##@@##$$$$#################################$##$$$$$$$$$$$$$$$$$$$$$$$$$$$$$$$$$$$$$$$$$$$$$$$$$$$###$$$$$$$$$$$$$$$%&%**$#@@$$###$$%$####$$####$################$$$$##$$##$$$$$%%%%%%%$###@@@@@@@@@@@@@@@@@@@@@@@@@@@@@@@@@@@@@@@@@@@@@@@@@@@@@@@@@@++@+@+@@@@@@@@@@@@@@@@@@@@@@@@@@@@@@@@@@@@@+@@@@@@#$=-&$@+@@++@@@@@@@@@@@@@@@@@@@@@@@@@@@@@@@@@@@@@@@@@@@@@@#$$#$&$%&%#@@@##############@@#@@@@@@@@@@@@@@@@@@@@@@@@@@@@@@@@@@@@@@@@@@@@@@@@@@@@@@@@@@@@@@@@@@@######$$###@@@@@@@@@@@@@@@%*&&$$##@@@#@@@@@@@@@@@@@@@@@@@@@@@@@@@@@@@@@@@@@@@@@@@@#@@#$%$@@++####@@#$%%$############@@@@######@@@###@@##@#@@###@#########$$%%%%$$$##@@@@####@@@@################@@@@#$#$$%**$#@@@@@++@##@+@#$$@@@@@+@@@#@@@@@@@@@@@###@@@@##@@@@@@@@#$$$$$#@@+++@@@@#@##@@@######@",
"$##@###$$#####################################$$$$$$$$$$$$$$$$$$$$$$$%%%$$$$$$$$$$$$$$$$$$$$$$$$$$##$$$$$$$$$$$$$$$%&%&*$##@$%##$$$%%####$$##$$$######################$$###$$#$$$$$$$$$%#@@##@@@@@@@@@@@@@@@@@@@@@@@@@@@@@@@@@@@@@@@@@@@@@@@@@@@@@@@@@@+@@@@@@@@@@@@@@@@@@@@@@@@@@@@@@@@@@@@@@@@@@@@@@#$&&$#@@@@@+@@@@@@@@@@@@@@@@@@@@@@@@@@@@@@@@@@@@@@@@@@@@@@@@#@$&%%&%%$##@@@@@##@######@@@@@@@@@@@@@@@@@@@@@@@@@@@@@@@@@@@@@@@@@@@@@@@@@@@@@@@@@@@@@@@@@@@@@@######$$###@+@@@@@@#@@@@@@&*&%%$#@@@@@@@@@@@@@@@@@@@@@@@@@@@@@@@@@@@@@@@@@@@@@@@####@#%%$#@+@##$$$##$$%$######@@#############@@@#####@####################$$%%%$$$###@@#########################@@@@$$##$%**$#@++@@@+@@@@++@##@@@@+@@@@@@@@@@###@@####@@@####@#@@@###$%%$$$#@@@@@@@############@@@",
"$###########################################$$$$$$$$$$$$$$$$$$$$$#$$$%%$$$$$$$$$$$$$$$$$$$$$$$$$$$$$$$$$$$$$$$$$$$$&&$%&##$@#$####$&%#@#$$#@#$$#######################$$$$%$$$%%$##$%##%#+@$$++#@@@@@@@@@@@@@@@@@@@@@@@@@@@@@@@@@@@@@@@@@@@@@@@@@@@+@@++@@@@@@@@@@@@@@@+@@@@@@@@@@@@@@@@@@@@@@@@+@@@@@$%%%##@@@@++@@@@@@@@@@@@@@@@@@@@@@@@@@@@@@@@@@@@@@@@@@@@@@@##@$%$$&&%%$@++@@@@#@@#####@@@@@@@@@@@@@@@@@@@@@@@@@@@@@@@@@@@@@@@@@@@@@@@@@@@@@@@@@@@@@@@@@@@@@@##########@@+@@@@###@@@#@@&*&&&%#@@@@@@@@@@@@@@@@@@@@@@@@@@@@@@@@@@@@@@@@@@@@@@@@@#@@#$%$#+++@##$$$#$$$$##@@@@@@#############@@@##########################$$$%$$$###@###############################$$###$**$###@@##@++@@++@@###@@@@@@++@@@@@@@@@@####@@@@###@@@@@@@@$%%$$##@@@@@@@###############",
"$$####$$$###################################$$$$$$$$$$$$$$$$$$$$$$$$$$$$$$$$$$$$$$$$$$$$$$$$$$$$$$$$$$$$$$$$$$$$$#$&&$$&$$$##$###$$%%#@#$$$##$$$######################$$$%%%$$%&%$#%*&$#@@@@+@@#@@@@@@@@@@@@@@@@@@@@@@@@@@@@@@@@@@@@@@@@@@@@@@@@@@++@+++@@@@@@@@@@@@@@@@@@@@@@++@@@@@@@@@@@@@@@@@@@@@@$%&%$#@@@+++@@@@@@@@@@@@@@@@@@@@@@@@@@@@@@@@@@@@@@@@@@@@@@##$#$&%%-*&$#####@@@########@@@@@@@@@@@@@@@@@@@@@@@@@@@@@@@@@@@@@@@@@@@@@@@@@@@@@@@@@@@@@@@@@@@@@#############@#########@#@@%*&&*%#+@@@@@@@@@@@@@@@@@@@@@@@@@@@@@@@@@@@@@@@@@@#####@##@#%%%$#@@@@#####$$$$##@@@@@@############@@#############################$$$$$$#################@@@@##############$$#$$$**$####@@@@@@@@@@@@@@@@@@@@++++@@@@@@@@@@@#@@@@@@@@####@@@@$%%$##@@@@@@@#######@#@@#####",
"##@@@#######################################$$$$$$$$$$$$$$$$$$$$%%$$####$$$$$$$$$$$$$$$$$$$$$$$$$$$$$$$$$$$$$$$$##$&&%$&&%%$$%$$$$$$$$##$$$###$$$###############$$$$####$$$$$$%&$%#$%%$@@@@@@$##@@@@@@@@@@@@@@@@@@@@@@@@@@@@@@@@@@@@@@@@@@@@@@@@@@@+@++@@@@@@@@@@@@@@@@@@@@@@@@@@@@@@@@@@@@@@@@@@@@@@#$%%$##@##@++@@@@@@@@@@@@@@@@@@@@@@@@@@@@@@@@@@@@@@@@@@@@@@@##@$&%&==&%$$$%@@@@@######@@@@@@@@@@@@@@@@@@@@@@@@@@@@@@@@@@@@@@@@@@@@@@@@@@@@@@@@@@@@@@@@@@@@@@@#######$$$$#############@@%*&&*%#@@@@@@@@@@@@@@@@@@@@@@@@@@@@@@@@#@@@@@@@@@@#####@####%%$$#@@@##$$$$$%$$#@@###@@#####@@#####@@###############@##@@###########$$$$##########################@@##########$$%**%$@@@@@@@@#@@@@+++OO+@@@@@@@@@@@#######@@#####@@#######@@$%%$$##@@@@@@###############@",
"##@@@@#####################################$$$$$$$$$$$$$$$$$$$$$$$$$$$$$$$$$$$$$$$$$$$$$$$$$$$$$$$$$$$$$$$$$$$$$$#$%*%%**%&%$%%$$%%$$$##$$$$##$$################$$$###$%$$$%$$%*#$$#@####@@$$$#@@@@@@@@@@@@@@@@@@@@@@@@@@@@@@@@@@@@@@@@@@@@@@@@@@@@@@@@@@@@@@@@@@@@@@@@@@@@@@@@@@@@@@@@@@@@@@@@@@@@@@#$%%$#@@##@++@@@@@@@@@@@@@@@@@@@@@@@@@@@@@@@@@@@@@@@@@@@@@@###@$%#$&&&&&%$#@@@@@@#@###@@@@@@@@@@@@@@@@@@@@@@@@@@@@@@@@@@@@@@@@@@@@@@@@@@@@@@@@@@@@@@@@@@@@@@@@#@####$$$$$##$###$$####@@%&&&%$#@@@@@@@@@@@@@@@@@@@@@@@@@@@@@@@@@@#@@@@@@@@#@@@@@#@@#$$$##@++##$$$$$$##@@@@#@@####@@@@@@####@@#####@@@@####@##@@@@###########$$##########################@#@##########$$%*&%$@+++@@@#@@@@@++++++++++@@@@@@@#######@@@####@@##########%$$$$#@@@@@@################",
"%%$#######################################$$$$$$$$$$$$$$$$$$$$$$$$$$%%%%%$$$$$$$$$$$$$$$$$$$$$$$$##$$$$$$$$$$$$$$$$%*&%*=%%%$%%##$$$$$##$%$$##$##$$$$##$$$#$$$##$$##@#$%%$$$$$%&$$$$$#@##@@##@#@@@@@@@@@@@@@@@@@@@@@@@@@@@@@@@@@@@@@@@@@@@@@@@@@@@@@@@@@@@@@@@@@@@@@@@@@@@@@@@@@@@@@@@@@@@@@@@@@@@@@@#$%*%$#@+Oo++@@@@@@@@@@@@@@@@@@@@@@@@@@@@@@@@@@@@@@@@@@@@@@####%&%%$$$$$$$#@@@@@@@@@@@@@@@@@@@@@@@@@@@@@@@@@@@@++@@@@@@@@@@@@@@@@@@@@@@@@@@@@@@@@@@@@@+@@@@@@@@@@@###$$$###$$#$$$$###@#%&&&$$$##@@@@@@@@@@@@@@@@@@@@@@@@@@@@@@@@@@@@#@@@@#@@@#@@@@#%$###@@@@@##$$###@@@###@@###@@@@@@@@###@@@####@@#########@#@@####@@###@##$#######################################$$%&&$$@@++@##@@@@@@@@###@++++++@@@@@++@@##@@@@####@@@#@@####@#%$$#$#@@++@@################",
"$$$##$$#$$$#$$#########$$$####$####$$#$$$$$$$$$$$$$$$$$$$$$$$$$$$$$%%%$$%%%$$$%$$$$$$$$$$$$$$$$$$##$$$$%%$$$%%$$$$%&****%%%%$$$##$$$$$##$$$$$$$$$$$$##$$$$$$$$$$$$###$%%%$$$$$%%%$$%%%$$#######@@@@@@@@@@#@@@@@#@@@@@@@@@@@@@@@@@@@@@@@@@@@@@@@@@@@@@@@@@@@@@@@@@@@@@@@@@@@+@@@@@@@@@@@@@@@@@@@@++@@@@$%$@$$@##@@@##@@@@@@@@@@@@@@@@@@@@@@@@@@@@@@@@@@@@@@@@@@@@##$#%*&%$##$##@@@@@@@@@@@@@@@@@@@@@@@@@@@@@@@@@@@@@@@@@@@@@@@@@@@@@@@@@@@@@@@@@@@@@@#@@@@++@@@#@@@@+@@@@#########$$$$$$$$$##%&=**$##@@@@@@@@@@@@@@@@@@@@@@@@@@@@@@@@@@@@#######@@@######$$$##@@@@@##$####@@@####@###@@@#@@####@@@@##@@@#######@##########@####@#######################################$$$#$%&&$@@@++@@##@@@@@@+++@@@@+++@@@@@@@@@@@@###@@###@@##@#######%$##$%$+@@######%###########",
"$$#######$$%%$$$###$###%%$#$#@@####$$#$$#$%$$$$$$$$$$$$$$$$$$$%%%%$$%$$$$%%%$$$%$$$$$$$$$$$$$$$$##$$$$##$%&%#@@$$$%%*==*&%$$%%$##$$$###$$$##$$################$$#$$$#$$$%%$$$%%&$$%%%==$@##@@#@@@@@@@@####@@@@@##@@@@@@@@@@@@@@@@@@@@@@@@@@@@@@@@@@@@@@@@@@@@@@@@@@@@@@@@@@@@@@@@@@@@@@@@@@@@@@@++@@@@$%#@#$@@@+O+@@@++@@++++@@@@@@@@@@@@++++@@@@@@@@@@@#@@@#@@@@###%*&%$$##$##@@@@@@@@@@@@@@@@@@@#####@@@@@@@@@@@@@@@@@@@@@@@@+@@@@@@@@@@@@@@@@@@@@@@@@##@@###@@@@@##$$$$################@@%&%%#$@O@@@@@@@@@@@@@@@@@@@@@@@@@@@@@@@@@#@@#######@@@######$$$$#@#####$$$#####@########@@@#@@###@@@@@#@@@##@@@#$#@++@@#######$######@@@@@@@@@@@@@#######################$$$$$$%&&%##@+++@##@@@@@@@#@@###@@@@@@@@@##@@###$$@@###@@########$$&%##$%%###$$####$#######@@@#",
"$#$%%#####$%$###$$$%%$#$$$$$#######$$$$$$%%$$$$$$%$$$$$%$%$$$$%$$$##$$$###$$###$$$$$$$$$$$$$$$$$##$##$#@@#$@OO+$#$$%&***&%$$%%%%%%$$$$%%$$$$$$$$$#############$$$$$%$##$$%%$$%&&$%%$$&*%###$#@@@@@@@@@@@@@@@@@@##@@@@@@@@@@@@@@@@@@@@@@@@@@@@@@@@@@@@@@@@@@@@@@@@@@@@@@@@+++@@@@@@@@++@@@@++@@@@@@@@@@$%%%$$####ooOO+++@@@@@@@@@@@@@##@@@@@@@@@@@@@@@@@@@@@@@@@@@###%*&&%%$$$%$@@@@@@@@@+++@@###########@@@@@@@@@@@@@@@@@@@@++++++@@@@+@@@@@@@@@@+@@@@@@@##@##@@@####$$$$$$###############@@%&$#&%$#@@#########@@@@@@@@@@@@@@@@@@@@#@@@@########@#######$%$#@######$$$###########@##@@##@@####@@@@###$$#@@#$$$#@++@@#@@@@@@@#$$$@@@@@@@@@@@@@@#######################$$$$$$%&*&$##@++@@@@@@#####@@@@@@@@@##@@@@######$$$##$$$####@@@###$%%$##$$@@@@##$##+#$$#$######",
"#$$#$%%#$%$##$$$$$$$$$$#$%%$$%%$$##$$###@$%$%%$%%%$$$$$%$%%%%%%%$%%%%%%&%%%%$%$$$%%%%%$$$$$$$$$$#@##$%$#@@@@##@@#$%%*==*&$%%%%$%%$$$$%%$$##$$$$##########$$$$$$$##$%%$#$$$$#$%%%$%%%%$%&%#@##@#####@@@@@@@@@@+O+@@@@@@@@@@@@@@@@@@@@@@@@@@@@@@@@@@@@@@@@@@@@@@@@@@@@@@@@@@++@@@@@@+@++@@@@@++@@@@++@@@$%%%####$$oooO+@######@@@@@@@@@@@@@@@@@@@@@@@@@@@@@@@@@@@@@@@#%*&&%%%%%%$#++++@@@@@@@@@@@@##########@@@@@@++@@+++++@@@@@@@@@@@@@@@@@@@@@@@@@##@@#@@@@@@##@@@#############@@@@@@@@@@@@@%&&$$###@@#%##########@@@@@@@@@@@@@@@@@@@@@@########@@######%%$@@##@@##$$$##########@@######@@####@@@@#####@@@#####@@@@@@########$$#####################################$$$%%%$%&*&&$$#@@@@@@@###@@@@+@@+@@@@@@@#@@####@@@#############@@@##%&%$##@++O+@###@##$#########",
"%%$$##@OOO+OO+++@@@#$$$$%%%$$$$$#$$$$#@++#%$%%$%%%&&&%%$##$$$%&&&&&*&%&&*&%%&*&%%%%%%%$$$$$$$$$$@#$%%$#$$###$$@@&%$$$%&&&%%%%%%%%$$$$%$$$$$$$$$$$$###$$$$%%%%%%%$$$%%%%&%%$%&&%$##&*&$%%$#@@$$###########@++@@+@@@@@@@@@@@@@@@@@@@@@##########@###@###@@@@@@@@@@@@@@@@@@@@@@@@@@@@@@@@@@@@@@@@@@@++@@@$&==%%$#$#OOoO+@@@@@@@++@@@@@@++@@@@###@@@@@@@@@@@@@@@@@@@@@@#%&&&%$%%%$##+++++@@@@@@@@@@@@@@@@@@@@#@++@@++@@@@@@@@@@@@@@@@@@@@@@#######@@@@@@#@#@++@@@@@@@####@@@@@######@@@@@@@@@@@@%&=&@$#+@@#$##########@@@@@@@@@@@@@@@@@@@@@@@@#####@@######$%&$#######$$$$##########@@#############@@@#@@@@@###########@@#$$$$$###$$#####################################$$$$$$%&**&%$$#@@@@@##@++@@@@@@@@@++@+@######@@++@#@++@#@@##$###$$$&&%$@#@@+OO@#$#@$@+@###$#@@@",
"=%##+oXoXXXoooO+OoOO@$#@+@#@+@@@@+@@#@++O+#@@#@##$$%$$#@@@@##$%%%$$%$##$$$$$%%%$%%%%$$$$$$$$$$$$@#$$%%%%%$#@@@@##@@####$%%#@+@#$$$$$%%$$$%&%$$%%%$$$$$%%&%%%%%%%$##$%%&&&%%%&&%$##%*&$####@#%%#++@@@@@@@#@@@#@@@OOO++@@@@@@@@@@@@@######################@@@@@@@@@@@@@@@@@@@@@@@@@@@@@@@@@@@@@@@@@@@@@@$&%%%%$@+oOOooOO+@@@@+++@@@@@@@@@@@@@@@@@@@@@@@@@@@#@@@@@@@###%&&%$$$$#@+++@@@@@@@@@@@@@@@@#####@#@@OoO+@@@@@@@@@@@@@@@@@##################@++#@@@+++@++++@@@@@@@@@@@@@@@@@@@@@@@@@@@@%&&*%%$@@@@###########@@@@@@@@@@@@@@@@@@@@@@@@####@@#######$&*%$$#@###$$%$##########@@################@@######@###@@####@@@@#@@####$$######################################$$$$%&*&%$$#@@@@#@@+OoO#%$#@@@@@@@##@#@@@$$#####$#@@##@##%%$#####$$#@+@##+ooO@#$$@###@@@@@#@@",
"&%#OOOoXoooXXXoooooXXOOX.oOooooooXXo++OOoOOooooO+O++O++++@@@@@@@@@@@@@@@@#$$#@#$$$$$$############@+O+@#$&%#+@#@+++@##$%&&&$#+OOO+@@@@+++@###@+@@@@++++++@@@@++OOooooOOOOOOO+@@+OO+@$&&#$#+oO@@@+++OOOOOO+++@#@+@+oXOOo+$@@@@@@@@@@#####################@@@@@@@@@+@@@@@@@@@@@@@@@@@@@@@@@@@@@@@@#@@+@@@$*%###@$%%OOoooo+#$$####@@#######@##########@@@@@@@@@@@@@@###$%&&%%$$$#@+O+++++@@@@@@##$$$#########@+OO+@@@@@@######@@@@@@@@@@###############@#@+OO+@#@++++@########################@@%&%=%#@#@@##########################@@@@@@@@@####@@@#######$*=%$&$#$$#$%%$##@###########@#@@##########@##$$#@+@@####@@@@#@@##########################################@@@@#####$%&*&$###@+@###@@+O+#%&&%$$$#######@@@@@@@@@@@++@@@@@###@++OO+#######@+oXXo+@#@##@++OO@@@+",
"$%$@@@OXXOOoXXX.XXXX......XooX..XXXo++OOOO+OOOOOOO++O++++@@++++++@@##@@##########$$##@@@@@@@@@@@@@++++@#%%$$%$#@#####$%&%$$$#@@+OOOOOooooOOOOoXXXXXXXXXXoooooXXX...XX...XXXXXXXXoO@#%**&%$+oO+OOOooooooooooO+++++OOOOOO+++++++++++@@@@@@@@@@@@@@@@@@####@++++++++++@@@@@@@###@@@#####@###########@@@@@$*$@%&$%#@@@+OooO@###################$$$%$$$#######@#@@@@@##$$&&&%%%%$$$@+oooooOOOOOOOOOOOOOOOOOO++#@+OOOooOO+++@@@@@@@@@@@@@@@@@@@@@@@##@@##@@@@@@@+@##++@@####@@##################@@%&&==*%$$%$$########################@@@@@@@@@@###@@@#######$=;%$&&$$$#$%%$##@###########@@@@@#######$##$$$$$######$$#@@#########$$$##################################@@@@@@@@@#%&&%##@@++@####$#@+@#%%$##@++OoOOO++OoooXooooXoOOooooXXXXoO++#%&**&$@+OoXXXoOOooooooooooo",
"$####+++OO++OOOOOOOOoOoX.XOOOoOOOO++##++++@@+@@@@@##@###@@#########$$#@###@@@##@@##$$@+#@@@@@++++@+##@@@#%$%%#@@@@#$%$$$$$#@@#@@@@@@++++++++@+OoXooooooooooooooOOOOOoooooOOOooooOO@$$%*=&&%#@@+OoooX.XoooooooOO+++OXXoOXXXoOOOoooOOoXooOOO++++OOO+++OOOOOooooooooOO+++@@@@@@@@@@+++@@@@@@@@@@@@@@@++@OO&&&=*$##@@@@+OooooOO++++++++++++++++++@@@@++++OO++++OOOOooXoO@=:&*&%$%%#+X..XoooX+++++++++OooXXXooO@@#Oo@@+O+++@+++@++++OOOOOOOOOOOOOO++++O+Oo+$%$#OO@@+OO++++@@@@#$$##$###########@@$*&===%@++@@++++++++++++++++++OOOOOOOOO+++++++++++++++++@##$$$%%%&$#XoO++O++@@@@@@@########$##@++@#$$$%%%$######@@#$$$$$##$$#####$$#$$$$$####$$$$%%$$$%%#####$$$$######@####$$$$$&=*#OOOOooooo+++OoooOoXooXXX..X.XX.XXX.XXoXXoooooXXoOOOOO++#$%%%%$%$@++OoOO..XXoooOOOoo",
"%%$$$$##$#@#@++@@@#@@@@@+@@@@@@@+@#$%&$$$$$$#####$$%$%%%%%%%$%%$###$$$$##$##@@@####$$####@##@@++@+O+@@@@%*%$#@@###$%%$$%&&%$#@@@@###@@@@@@@@@@+OoOOOOOOOOooooOOOOOoooOOOoOOOooooOO+@%%%&$++@@@++++OOOOOOOO+++@+++++OO+OOO+@@@@+++OOOOOoooOOOoooooooooooooooXXXXXooooOOoooooXXXXXXXXoX.XoOOOoooOOOOOOOOOO#%$#%$@$@+++++OXXXXooooooooooooooooXXXXXoXXooXXoO+++++OO++++#$&&&*&$%%$$+OooOOOO+++++++++@+OoOooo+@@#$$%%$$@@@#$$$%####+#@+OOO+@@+++++++++++O+#$$#@+++OXXXXXoOOO+#$$@@%#########%%$##&$#$$@OOOO++++OOooooOOOOOoooooXoooooooOOOOOO++@@###@+@#@@#%%%&*$%@+oOOOOOo.oooooOOOOOOOOOOooooooooXXXooOOOOOOOO+@@@@#@@@@###$$$#######@@@@@@#$$$$##+@@@@++++@##@+++++OOOOO++++OO$==$+O+++OooOOOooooXXXoOOOOoXXooooXXooXXoOOOOOOOOOOO+++++++@$$$$$$$#+OOOOOOOOOO++@@@@@@",
"==*&&&&%&&&%%$$##$%%$##$$$$$%$#+##%&*=*&*&&&%%%%%&&&&&******&**&***&&&&%%&*&%$%&**&&&%$$$$$$$$$$$$##$%%%&=&&&&%$$%&%%&**&&%%##$%@####@@##@@###@@@###@@@+++@+++++++OOO+@+OO+@@+++++++%=*%$@ooO++@####$$#@@@##$$$$$#@#$$#####$####@+@#$$#@@@@@@@@@@@+++++OOOOOOOOOOOOOOOooooooooooO++OXXo+++OooOOOOOOOOO++$%$$%%$%#@@@##@OooooOOOOOOOOOOOOOOOoooooXXXooooOO++++++++@##$$$$@$%$#@$&%$@+++++++++++++@@@+OOOo++@$%&%+#%&&%$##$%%$%%&&&%$##$$%$$###$###@@$$$$%$$$#@@@+OOooOOOO#&%$$$%#%%%%%%&%&&%$%%&%%%$$$$$$###################@##@@@@@@@@####$$$$$$%&&%$$%&-<;-=*%&$@OO+@+OOOooooooX. XO+OooOOOOOOOOOO++@@+++++@@+++++++OOO+++++O+++OOooooooOO++OOOOOoO++OooooXXXX.XXXXXXXoO++++@$*&%$##@+oooOOoooooXoooOOOoooO++++OOOOOOO++OOOO+++++@@@####$$$$######@@+++@@@@@@@####$",
">:;-=======*&&&%%%%%%%$#$&&$%**&&*=--;-----;--;-----=---=-----;;;;;--====-======-;;---*&&&%$$$$$$$#$&*=*&&*-;=*&&&&&&&&&%%%%%$$###$$$$$$$##$$$$$$$$$$$$$$$$######$#@@###@@#$$#$%%#@@$*=&&*&#@####%$#$$#####$$%%%&$##$$$$$$%%&%%$$$$$%%%%$###$%%%%$$$##########@@@@@@@@+++++++++++++OOO++++OOOOO+++@@#$$%*&==$$%$%%%$$#@@++++++@@@@@@@@++@@@@@+++OooOOoOOOoooOO++##@@@#%%%$$%%$#$%%#@@@@@@@@++++@@@@#@Ooo#%$$%$$%#OO+#$#@%&&&%%&=****&&&&&%$%%%%%$##%&&&&%%%$#@@@+Ooooooo#;-*===**&%&=--=&=*%*&&&&%%%%&&&$$$$$$$$$$$$$$$$$$$$$$$$$%%%%%%%%%%%%%%%%%%%$%&*,4-==**&=$@@@@@@@+++++++@+@$&&$#++++++@@@@+@@@@@@##@+@@@@@@@@+O+@@+O+@++++++++OO+@@+OOOO+++OOOO+OOooO+OOOOOOOOOO+@@@#@@%=-*&%$##########+OOOOO+++@@@#@@@+++@@@@@@@@@#######$$$$$$$$$$$####%%$@@#@@@###$$$$%%",
">,,>>>::>>>>>:;-**&%&**&**%#%=;;==--;;;-;;;:::::::>>>>,,>>>>:::;;::>:;;:>:;-;:;--;;;:>:;-=&$$$$%%$$%=-;;;;-;:-==*&&*=*&&*=====&%&%%%%&&&%%%%&&&%%%%%%&&&&&%%%%%%%&%%$$$$%%&&%$%&&%$%%%&&&*==&&&%%&%$$$$#$$$$$$##&$#####$%&*=--====*&%%&&&&&%&*-;-*&%%%$%&&%%%%$$$$$$$$$$$$$#######@@###@####@@@#@#$$@@#%$%***&&*&&&%$$$$$##@@@@@######@@@@#@@@@@@@@@@++@@@+++@#$$$###$%&&&&&%$$@$$$#####$#$&&$#$%$$%$@+++@$$&*&*&%$###%&$#$$$##%*****====*****&%%&%%&&%%%$$%&#++@+OoOOOo@-;=---;;-;-*:<:==*$&**==***&&&&&&&&&&&&&&%%$$$$$$$$$$%%%%&&&&&&&%%%%%%%%&&&==*$>1-=-==@**&$############@$%$#@#%$@@$$@@$++++++++@@@+++@##@@@@@@#$$$$$$#@@###$$$$$####$$$$#@+@@+OO+@#$$$$$$##@####@@@@#$%=-=*&*&&&&&&&&&&%$$$$$%%%%%$$#@##@@#$#@#$$%%%%%&&&&&&&&&&&****&&&&%%&&&$$$$$####$$$$",
"**====***==-;-===-====*****&**=***=-;;::>>>>>>,>>>>,>,<<,<<<,<,,>,<<,,<<<,>>>>>>,,<<<11<=*&$$%&*=--=-:::>>>>>:;;-----;;-==-;:;-=--=====-==**===*******=======*****=*****=-;-=**===*****&&&&==*&**&&&%%&&&%$$$###%%%%$###&&=-;;;;;;---==-=======-----========**&&&&&&&&&&&&&&&&&&**&&&&%%%%%$$$$$$$$$$%%%$&&&*&%%&**&%%%&&%%$$$$$$%&***&&&&&&%%%%%%%%%$$$%%$$$%%%%$$$%%%%%&&$#$&&#$%$$$$$%%%%%%%%%&%$##@++@$&%$&&*-=&$$%&%##%**&%===========--=*&&**&&&%%&%$&=&$@@++O+@@@@*;;:;:;;;--*&&%--==*--***==*&%%=***&&%&&&%%**&%********%%%%%%&&&%$$$$%&***&&&**&-;;;-&@#$$#@@$%%$$%&&$@#@#&&#@#$&$#%%#%$##@@@@@@+@####$$$$%%%%%$%&&&&&&&%%%%&%&&*==-=*&&%$$$$@+O@$%&%&&&*&%$$$%%%%%%&=%=-----=*&&&&&&&&&&&%%$%%&****&&&*&&**&%%&***&&&&&&&*****==--;;----&%*--*&&&&%%%$$##$",
"#@###@#$$$$%&*=---=*=-&#@%==&$$$&&=;;:>>>,>,>>>>>>>>::>>>,<<<111<111<<<<<<<<<,<11122111<%%$##$$%&=-=->,>-=-:>>:>::::;;:;--;:;-**===*&&*===*&***&&***===-;;;:;;;;;;;;;;;;;::::::;;;;==--=====-**=*%%&*&*=*$#@#$%%&**&%%%&&&&**=------;----==---==-;:>>::::;;;;;---------;;;-;:;=&&&&&&&&&*****&&&&****&&*&&*=*****===*&&&&&**&&%%&*==--;;;---===**&&&&%%&&&&&%%%%%%%%%%%%%%$$%&*&%%&%%$%&&&&&&&&&&&%#@@@+##+#%&*&&&*-;-=*=*&*;:;=*->:*-;*&&*====*=-;-*&&*=**=-;*%#@++@##@$-,12<<>,,,>>>:::>:>;;:-==-;;==**********=--**=--==**&&&***=======$**$==-;::::;-;;,>>-*%%$$%$$&-::;;-===$$##@@@+#%$$*&%*&%%%%$$%%%%***&%%&***&&%%%&&&%%&&&&&%%$$&===**=-*==&##%*$%&***&&*===***===*=*-:;;;:>>:;;;=*=-;-===*&&%%&*-;;;;;;;;;;;-==--==*==*-;;;;;::;;;;;;;;;---===------===&&&&",
"#$$##$%%%$##%&*=&&&&&*&$##$%$@@#%*-:::>::>>,,>>>>:>>>>,,>,,>>>>>>>>>,>>>,,<,>,,,>:,>:>,<*&&%$#@@#$%%*;:,,:>>>::,>>>>::;:>>:--;:::::;=*-:>:;--;---------;;;;----;;;;;--==***=--;-====-=--==--*=;>-%&====-*$+O+@#$&*=&$%*=&&%$%&=----;;;;;;-----;::;;;;::>:::>>>>>>>>>>>>>=-;;-=*&$@#%*=-;;;;;;--=---------;:;==----====*&&*=-=*&%%&&*==----=========--=--**=-=*&&%%%%&&%%&%%&=*%&***&%%&==========&%$#@@@@#%&==&&&==--====--=-::;::::>>,,>::>,,,>>>,,;&%=;:::>:=$#@+++@@@%;-::-;=**=******><,<>>,>;:,<<,>>>>>>>>>>>::;;;-----------;;;;::;-=**=-;-=-;::>>3>,>:-::*=-*&&*****=====--&+o+@+@#%%$$%******&%$&***&&&&*====*&=-;;;;------;;;;:;;;;::;;>;*%$&=;=*****&%&**==-;::;;-;--::::>>>,<<,>::>,<;;;--=*=----====*=======--=*=---=******&******==--::;=-;-======****&",
"####$$$$$#$$$$$$$@@$%%&*$@@@@@@#%%%%%%$$$$$$$$$$$##$%&$@+@#%&$@@%%@+@%&$#%=-=&*:>>::,:-;-=*%$##$$$$$%%&&&&&%&%%&&&&&&*&&&****=--=**--=&&=-*%%&&%%%%&&&&&&&&&&&&&&%$$########$$$$$$#######@@#$%$$=:*#@#@@$$@@$@+%*%#++@##%*%#&*=-;;=%%*;-**=-;;::;-;;:::>,;-:,:;;;;;;::1;==-&#@@$##@+@%-:;;:::>>>::::::::::>>>>>>:;;;**;-&***=--===****=-%&&&**====--;;-====--=--------;;;;;;;;;;,,,>>::;><331<<1<>%$#@@@@@@@@@#@@@@+++@@#######@$+O@&&%&=*%$%$%-;-**==*%&$&&&%%$@+@#++@@###@#$##@@#%%$###@@##$%%%%%%%%%&*======*&&&***&&&&%%&&&&%$$$#+oXO%;-&%$#++@@#$%&*&&%%%%%&*===*&%%%$$%&*=*==&%&%##@@@$%=-;;;;-=**=---==--;::::;;:>>>>>,,>>:;:>;-:;;;;;;--;;=$@@$$*=*%$$&*&&***=========----==*==--;;-=***&&%%%%%%%%$###$$##@@@#####$$$$$#####$$$$$$$$$$##$$%&%%$$#####$$$$$%%",
"########$$$$####$@+@##%&$@##@@@######@@@@@@@@@@@@@@@@@@@@@@@@@@@@++@@@++@+++++Oo####%$$&=*&%$#$$#####$$$$$$$$$$$$%%%$$#######@@@$$$%%$@#$%#@@##@@###############$##@@@@@@@@@##$$$#########@#$%$$$%&%@@@@$$#@#@@#*%@++#$%**--;:-*%@+##@#%==--;::::>,,::>,>;**-;;-----==23>:;*#@@@##@@$-:<,,,,,,>>>>>>>>>>>>,,,,,><1>>-*--%*-;;:::>>>:;;;-------;;;:;;;--;;;;;;;;;;;;;;;;:::;;;>,<;><11<>;:;-***==;;&$$##@@@@@@@#@@@@@###@@@@@@###@++OooO@+OOO++OooXXo+@+O@O++@$$@####@++##@+++@@@#$$######$%%$#@@@@@++++@@@@@@@+@@@@#######@@@##@@##@+++@+$%$@#########$$$%$##$$##$%&&&%$$$$$#$%%%$&;-=&&$+++#&;>:::;;-;--===--==*&&&&*&%$$$#####@@@@@###OOOO+@#$#&*%@O@#%$$%&%%$%%%&&&&&%%%%%%$%$$########$$###############@@@###################$$$$$$$$$$$$$$$$##@######$$$$$$$%%&",
"$$$####$$$$$########@##$#@@@@@##$$$$####@@@@@@@@@@@@@@##@@@@@@###@@@@@@@####$$$@@###$$%=**%$$$$$$####$$%$$$$$$$$$$$$$$$$%%%%%%$$$$$%&%#$%%$##$$##$$$$$$$$##########@@@@@@###################$%$$#@@#$%#@#$$@@##@######@@-;=&**==========-=*&#O+$$%&&%$#@&-;&$$$#######%*==*&$@@++@##&=*-*&&%%%$$$%%&&****=====**==%%--#@%&=-*$#$$$$%$$$$%%%%%%%%$$$$##$%&%%$$$#@+@@@+++@@$$#+O+@XO@$%$@+++++++++$&%$$#@O@@@@@@#@@+@@###@@@@@@###@@#@OO##@@#####+++@##@++@@@+#&%+$$#@@++##@+O++@+#$#@@#$#$$%$$#@@@@###########@@@#######$$$$#######@++@#%$$#@@#$$$###@###$%$##@@+++@#$$######@@@@$@#%%%$%&$@+@#%%$%%%$$$$@++@@@@+O++++@@++@@@++++++@@+@#+@@##@@++@$&&@O+#$$$$$$$$$$$$$$$$$$$$$$$$$$$$$$##$$$$%%%$$$$$$$$$#########@#@@@@#####################$$$$$#@@@###$$%%%%%%%&&&",
"$$$$$$#########$$%%$#$$$#@@@+@##$$$$$$$##########@##$$$######$$$###@###@@@#$$#####$%%%%**&%$$$$$$####$%%%$$$$$$$#$$$$$%&%%$$$$$$$$%%%%$$%%%$$$$$$$$$$$$$$$$$###########################$$###$%$$$%$######$$#@#$@##$#@+++#&%$#Ooo&=--=&#+@+OooO++OooooOOOOOOOOOOOOOOOOO++@OO@@O+@@@#$$#X+#+++#$#@+@@@@@@@++++++OO@$**-,:&*%#@@@@@++++@@++++++++++++@@++++++@@+@@+@@@@@@@@@@@@@@@@@@@@@@@@########$&%$$###@@@@@@##@@@@@@@@@######@@+@#@#$#@##+O@#@@@@@@@@@@@$$#$%$@@++@++###@++@@+@####$$#@@@@@@@##############@@@@@@@@@@######@@@@##@@@$%##@@####@@@@@#$$$%$#@@@+@##$$#@@@@@@@#$$@####&%$%#@@#@@@@@@##@++@@@@++++++@@@@@@@##$###$$###@##@+++@@@##$$$$#+@#$$$$$$$$$$$$$$$$$$$$$$$$$%%%%%%$$$$$$$##$$%%%%$$########@@@@@@@@#$$###########@@@#####$$$$######$$$$$$%%%%%%",
"$$$$$$$#####$$$$$%%$$%%%$##@+@@@#######@@@@@@@@@#################$$$$$$$##$$$###$$$%&%%*&&%$$$$%#@@@##$$$#####$$$$$%%%%%%$#######$$$$$#$$$$$##$$$$$$$$$$$$##############################$###$%%$@+#$######$$@##@$%$@OO@$++$$+++@@+++++++++++++++++++++++++++++++++++++++++@$&$OO+@$%$$#@##################@@@@@@##&&$&:,;-&#@##@@@@###@@@#@@###@@@@###@@+@@@@###@@@@@@@@@@@@@@@@@@@@@@@@@@@@@@@@$*%$$#$#@@@@@@@###@@@@@@@###@@@@@@@@###@@@@@@###########@@##@$%%#++@++@@###@##@@@##$$#@+@@@@@@@@#####@@@@@@@@@@@@@@@@@@@######@@@@@@@####@#$$#@@@@@@@#$$$$$#@##@@@@@@@@#######$$$$$#@&=&#@@++@%$##$$$#@#$$$##@@##@@#@@@@#####@@@@#@@@@+@@#@###$$#++@@+@###$$$$$##$$$$$$####$$$#$$$$###############$%%$$#########@##@@@@#############@@####$$$########@@#$##@##$$$$$$",
"$$$$$$$$$$$$$%%%$$$$#$&$###++@@@#######@@@@@@@@@###########################$$$$$##@#$$%=&%%$#$$$$####$$$$$$$$$$$$$$$$$$#$$%%%$$$#$$$$$$$$$$$##$$$$$$$$$$$$$$$$$$$$$$$$$$###################$%%%%$$#$$@@#$@#$#@#@+#$#OO+##@@#@++O+@++@@@+@@+@@@@@@@@@++++@@@@@@@@@@@@@@@@@+@@%%OXO+%=$$#@@@@@@@@############@@@@##@+##+#%#@####@@@@@##$$$@@@@@@@@@@@@###@@@@@@@###@@@@@@@@@@@@@@@@@@@@@@@@@@@@@@@#&&&%@@@@@@@@@@@@@@@###@@@@@@@@###@@@@++@@@#$##########@###@#%&%$@@#@@@++######@@@@$$@@@####@@@@@@##@@@@@@@@####@@@@@@@@@@###@##@++@###@@#$$#####@@@@@##$$#@@@@@@@@@@@@@@@@######@@#@%**%@##@+##@#$##@########@###@@@@@@####@@@#+##+###@@@##$###@@@@+++@#$#####$#######################$$$#####$$$%%%%$#############################@@###$$$$##@@###################",
"$$$$$$$$$$%$$$$$$#####%$@##+@@+@#####################################$$#@##$####$$##$$&-&&%$##$$$###$$%%%$$$$$$$$######@##$$$$$$$$$$$$$$$$$$$$$$################$$$$$$#####################$%&%%%%$#@#$##@#$##@@@@@+OO+@$#+@#+@@@+@@@@+++++++++@@@@@++@@@@@@@@++@@@@@@@@+++@$%#OO+$*###@@@@@@@@@@@@@@@@##@@@@@####@@@@@##++@#####@@@@@##@@@@@@@@###@@#@@##@######@@@@@@@@@@@@@@@@@@@@@@@@@@@@@@@&*%&&#@#@@@@@@##@@@@@@@@@@@@####@@@###@@@##$#@@$#########@#$%%%%#@@##@+++@@@###@@@@#########@@@@@@###@@@@@@@@@@@@@@@@@@@@@@##@###@@@##@++@#++@@@##@@@@@@#$#@@@@@@##@@@@@@@@@@###@@+@#%&**$@@@+@$#$$$#@########@####@@@@@@###@@###########@@@@@@#$%%#+++@@###@################$$$$#######$##@#####$$$%$$$#########@@@@############################@@##$$#@@#$#####@##",
"######$$$$$$####$$#$##%%@##@@@+@##########@@@@@@#######$$$#########$$##$$$###$###$%%$$%=*&%$######@##$$$$$$$$$$$$$$$$$$$$$$$$$%%$$$$$$$$$$$%$$$$$#######$$$$$$$$$$$$###################$$##$%%%%%%$#$$$####$##@@##@+++++$O@@++@@@@@@@@++@@@@+@@@@@@@+@@@@@@@@+++++@@@@@@@+@$###OO+@@@@##@@@@@@@@@@@@@@@@@@@@@@###@@@@@@@+##@++@####@++++########@@@@++@@##@@@@@@@@@@@@@@@@@@@@@@@@@@@@@@@@@@@###%%$&&@+@@@@@@@#####@@@@@@@@@@@@@@@@@#$$$####@@##########@@@#%%%$+++@$#+O+@@@###@@##@@#@+@@###@@@@@@@@@@@@@@@@@@@@##@@###@@###@@##@#$$#@+@##@@$$@##@@@@@@#$##@@@@##@@@@######@@@@@@@@@#$$$#@@@@#@%%&%$########@@@@##@@####$$#@@##$+@#@++@+@@@####%%$@@+@@@@##$##@#############$$$#@@@@@@@@@@##$$$###$$$$$#########@@@@###########@@##################$$$####$####$$%%",
"###$$$$$$$$$###$$%$%$#%%@#$#@@@@##########@@@@@@@@@@@##$$$##@######$###$$$##$$$$#$$$$$%**&%$$$#######$$$$$$$$$$$$$$$$$$$$$##$$$$$$$$$$$$$$$$$$$$##############$$$###########$#######$$$$$$#$%%%$$####$##########+#@++++@@@+@+++++++@@@++@@++@@@@@@@@@@@@+++@@@++@@@@@@@+++@$$#@+++++@@#@@@@@@@@@@@@@@@@@@@@@@@##@@@@@@@@@@@@@@@@##@@@@@@@@@@@@@@@@@@@@@@@@@@@@@+@@@@@@@@@@@@@@@@@@@@@@@@@@@@####%*%$###@@@@@@@##@@#####@@@@@@@@@#@++@#$##@@@@@@@@@@@@@###@@##$$#+%$++@++##@####@@##@@#@@@@@@@@@@@@@@@@@@@@@@@##@@@@@@#######@@@@$##$#@@@@##@@@@@#@@@@@@@###@###@@@@@##@@@@@@@@@@@@@@+$&&$##+O+#@&%%%$$##$$$##$$#@@@@##$####@@@#@@@@#@@@@@@@@@@@@@$%$@+@$@@#####@@#@@#################$$#@@#####$$$#####$##@@@@####@@####@@@####@@@@######@@######$$$$$$%%%$##$$$$$$$",
"$$$%%%%$$$$$$$$$$$#$#@$%##$$##@@@@####@###@@@@@@####@@@#$$##@@##$$###$$$$$$$###$$$$$$$&**&$$$$######$$%%%$$$%%$$$$%$$$$$$$$$$$##$$$$$$$$$$$$$$$$$$$$###$$$$$$$$$$###################$$$$$$$$%%%$#################$#@+@+@@@@@+++++++@@@+@@+++@@@@@@++@@@@+++@@@+@@@@@@@@@@@@$&$@@++++@#@@@@@@@@@@@@@@@#@@@@@@@@@@@@@@@#@@@@@@@@@@@@@+++++++++++++++@##@@@++@@@@@@@@@@@@@@@@@@@@@@@@@@@@@@@@@@####%&%$$$$##@@@@@##@@@@@@@@@@@@@####@++@###########@@@@@@#######$$##@##@++@+@@@@@@@@@@@@@@@@@@@@@@@@@@@@@@@@@@@@@#@@@####$$####@@@@@#$##@@@@@@@@@@#@@@@@@@@@@@@######@@@@@@##@@@@@@###@@%**&$@@+O#$$%%$$$#$$$$##$$###@@#$$####@@@@@@@@@####@@@@@@@@#$%$@@@@@@@@#####@@@###############@#######@@@@############@@###################@@@@##############$$#@@#$##@@#$##@@@",
"%$$$$######$$$$$$####@#$#@#$#@#@@@@@@@@@@@@@@@@@###$#####$#######$########$##@@#$$$$$$&*&%$$$#######$$%%%%$$$$%$#$$$$$$$$$$$$$##$$$$$$##$$$##$######################################$$$$$$#$$%$$################$%$@+++@@@@@@@@@++@@@@@@@@++@@@@@+++++@@++@@@@@@@@@@@@@@@###%%@+++++@##@@@@@@@@@@@@@@@@@@@@@@@@@@@@@@@@@@@@#@@@@@@@@@@@@@#@@@@@##@@@@@@+++@@@@##@@@@@@@@@@@@@@@@@@@@@@@@@@@@@@##%&%$$$$##@@@@@####@@@@@@@###@@@@@@@@@###@@##@@##@@@@@@######$%$##+@$@O+####$$$##@@@@@@@@@@@@@@@@@@#####@@@@@@##@@@@@@####@@@@++@#$#@+$@@@@@@@@@@@@@@@@@@#@########@@@@@@@@@@###@@@@@@#$$$@@@@O@%$%&%$$$%&&&%%$####@@#@@######@@@@@######@@@@@@@@%&*&@+@+@#####@@@@@@@@@@@@#############$$$$##$$$$#############################$$######$$$$##$$######@@@+++@@@@@#####",
"$$$#######$$$$$$$$$$%$#$#O+#@@#@@@@################$%%$####$%$#########$$$$#$$$$$$$$$$&*&&%$########$$%%%$$%$$$$$$$$$$%%$$$$$$$$%$$$$$$$$$$#$$$$$$$$$$$$$$###########################$$$$###$%%$#################$#+++++@@@@@@@@@@@@@@@@@@+@@@+++++++@@@@@@@@@@@+@@@@@@+@@#$%$@+++++@##@@@@@#@@@@@@@@@@@@@@@##@@@@@@@@@@@@@@@@@@@@@@@@@@@@@@@@@###@@@@@@##@@@@@@@@@@@@@@@@@@@@@@@@@@@@@@@@@@@@@@%&&$###@@@@@@@####@@@@@@@###@@@@@@##@@##@@@####@@@@@@@@@####$%%$#+@#@@@##@@#$$#@@@@@@@@@@@@@@@@@@@@@@@@@@+++@@@@@@######@@@@@@@@$#@+@##@@@@@@@@@@@@@@@@@#########@@@@@#@@@@@##@@++@#@@###@@+++$$$%&&%%%%&**&%#########@@######$$#@######@@@@@@@#$$$%#+++##$$##@+@@@@@@@@@@@@############$$##$$$$#######@@@@@@@@@@#$$$####$####$$$$$$$$$$$$$$$$$$$$##$$$$##$$$####$$$",
"$$$$$$$$$$$$$$$$$#$$%%$%%+@$#@#@@@@@@##############$$$$$$$###$$$$$$$$#$$$$$$$$$$$$$$$%&**&%$##@######$$$$$$$$$$$$$$$%%%$%$%$$$%%%%%$$$$$$$$$$$$$$$$$$$$$$$$#################################$%$$#################$#++++@@@@@@@@@@@@@@@@@@@@@++++++++++@@@@@@@@@@++@@@@+@++#$%#@+++++@##@@@@@@@@@@@@@@@@@@@@@@@@@@@@@@@@@@@@@@@@@@@@@@@@@@@@@@@@@@@@+@@@@#@@@@@++++++++++@@@@@@@@@@@@@@@@@@@@@@@@$&&$##@@@@@@@@#@@@@@@@@@@@@@########@@@+@@@@@@@@@@@@@@@@@###$%%###@@##@@+++@++++@@@@@@@@@@#@@@@@@@@@@@++++++++@@@@@@@@@@++++@@##@@#+$+@#@@@@@@@@@@@@@@@@###########@@@###@@@@@@@@##$#$$$$$$#@#$$%%&**&%%&%$##@##@@@#@@@###@@@@@@@@##@#####@@@@@@@++@#@++@@@@###################@@@######@@#######################$$$$$###############@#@@@@###$$$####$$$$$%%%$$#####",
"@####$$$###########$%%$&&#@$###@@@@@@#@######@@@######$$$$#@@##$$%%%$$$$$$$###$$$$$$$%&**&%%$########$$$$$$$$$$$$$##$$###%%%%$$$%$$$$$$$$$$$$$$$$$$$$$$$$$$$$##$$###########################$$$$################$%$@@@@@@@@@@@+@@@@@@@@@@@@@@@++@+++++@@@@@@@@@@++@@@@++@@@#%$@@+O++@##@@@@@@@@@@@@@@@@@@@@@#@@@@@@@@@@@@@@@@@@@@@@++++++++++++++@#@@@++@@+@#@@@@@@@@+@@@@@@@@@@@@@@@@@@@@@@@@@@$%%$$$$$#@@@@@#@@@@@@##@@@@@@####@@###++@##@@@##@@@@@@@@@###$%%$##@@##@@@@#@++@##@@@@@@@@@@@@@@@@@+++@@@@+++@@@@##@@@@@++@+@@###+O#%@+@@@@@@@@@@@@@@@@@@##########$####@@@++@@@####@@%&&&$@+@@$$$$%**&%%%$##@###@@@@@@###@@@++@@@#########@@@@@@@$%#@++@@@@##########$##############$$$###$$######$$$$$$###$$$$$#####################@@@@@@@#########@@#####$$$$$###",
"#################$$$%$#%&$@#####@@@@#################$$$$########$%%%$$%%$#@@#####$$$$&*&&%%$$%%$###$$%%%%$$%%$$$$$$$$$$$$%%%$$$%%$$$$$$$$$$%%%$$$$$$$$$$$$$$$$$$$$#$$$#############$$$$$###$$$#################$&%#@@+@@@@@+++++@++@@@@++++@@@@@@@+@@@@+@++@@@@+++@@@++@@@#%%$@++++@##@@@@@@@@@@@@@@#@@@@@@@@@@@@@@@#@@@@@@@@@#%$#+++@@@@@@@@@@@+@@@@@#@@@@@@++@@@@@@@@@@@@@@@@@@@@@@@@+++@@@@#$%%%$#$$#@@@@@#@@@@@@@@@@@@@@@@##@@@#@@@##@@####@@@@@@@@@@@#$%%$$#####@@@@@+++@##@@@@@@@@@@@@@@@@@@@@#############@@@+++@@@@@###++@%O@#@@@@@@@@@@@@@@@@@@@@@####@@@####@@####@@##@@#@$%%%$#@#@##%%*=**&%%%$########$##@@@@@+@@##@#@@#######@@@@@#*=&@++#+@#$$######################@@@###$$$$$##########@@@@@@@@@@@@####@@@#######################$$#########$$$$$$$",
"$$$$$$$$$$$$$##$$$$$$##%&$@#####@@@@@#############$####$$$$#######$%$##$$$##$%%$$$$$$$&*%%%%$$&*$$###$$%%%$$$$$$%%%%$$$%%$$$$$$$%%%$$$$$$$$$%$$$$$$$$#$$$$$$$$$$$$$$##################$$$###$$#################$%&%@++++++@@@++++++++@@@++++@@@@@@@@@@@@+++++@@@++@@@@++++#%$%&#++++@@@@@@@@@@@@@@@@@@@@@@@@@@@@@@@@@@@@@@@#@@@@@@@@@@@@@@@@@@@@@@@@@@@@+@@@+@@@@@@@@@@@@@@@@@@@@@@@@@@@++++@@@@$%&%##@#@@@@@@#@@@@@@@@@@###########@@@##@@#$##@@@@@@@@@@@@##%%$$###@#@+$@OO+@#@@@@@@@@@@@@@@@@@#####$$$$$##@@@@##@@@+++@######@@#+X##@####@@@@@@@@##@@@@@@@@###@@@@####$%%$@@##@@@#@###$#####$##%&***&%$$$######@@#@@++@@@@@###@#@@@@############$%#+@@++@@#$$$$###################@+@#$$$$$##@########@@@@@####@@@####@@@@@@@#########$$$$###@##@@@@##############",
"%%%%%%%$$$$%$#$$%$$%%#$%%@##@#$#@@@@#########$$####$$$$$$$$$$###$$$$$$##$$$#$%%$$$$$$$&&&%%%$$##$$###$$$%$%%%%%%$$%%%%%%%$$$$%%%%$$$$$$$$$%%%$$$$$$$$###$$$$$$$$$$$$####################$###$$###########$$###$$%%%#@+++@@@@@@+++@@@@@@@@@@@@@@@@@@@@@@@@@@++++++++@@@++@@#$$%%$+@@+@@@@@@@@@@@@@@@@@@@@@@@@@@@@@@@@@@@@@@@@@@@@@@@@@@@@@@@@@@@@@@@@@@@@@@@@@@@@@@@@@@@@@@@@@@@@@@@@@@@@@@++@@@@#%&%$####@@@@@###@@@@@@@@@@#########@@###@#####@@@@@@@@@@@@##%%$@#$#@@@++OO+@+#%@@@@@@@@@@@@@@@#####$$$$$###@@@@##@@@@@@@######@@@+@@@@@####@@@@@@@##@@#@@@###@@@@@@@@@#@@@@#@@@@@@#@$%$$@@####&$%&**&%%$$##@###@@@@@@@@@@@@###@@@@####@#######$$##$#@@@@@##################@#@#####$$$$$$$$$$$$#########@########@######@######@###############@@################@@",
"$$%$$$$$$$$$$$$##@#%&%%%%$######@@@@@###############$$$$$####$#$$$$$%%$$$$$######$$$#$&=*&%$$#@#$$###$$$$$%%%%$%$$$$%%$$$$$$%%%%%$$$$$$$$$%%%$$$$$##$$$$$$$$$$$$$$$$$$$$#########@####$$$$$%%%$#$$$$$#$$$$$$##$$$%%$@+O+@@@@@@+++@@@@@@@@@@+@@@@@@@@@@@@@@@++++++++@@@@+@@@##$$@O@@+@##@@@@@@@@@@@@@@@@@@@@@@@@@@@@@@@@@@@@@@@@@@@@@@@@@@@@@@@@@@##@@@@####@@@@@@@@@@@@@@++@@@@@++++++++@@@+@@@@#&&%$$#@@@++@@@###@@@@@@@@@@@@@@@@@@@@@@@@@@@@@@@@@@@@@@@@@@#%%$####@@@@oO@@@@#@@@@@@@@@@@@@@@@#################@@@@@@##@@#$#@@#@@@@@@@@@@@@@@@@@@@##@###@@###@#@@##@@@@@@@@@@@@@@@#@%*&$@+##+@$%%***&&%%$##@@@@@@@@@@@@@@@@@@@@#@@@@@@#############@@@##########################$$$$%%$$$$%%%%$############@@@#$$#@@#############################################@@",
"##$$####$$##@#$$$$$%&&%$%%$#$$$####@@################$$$$$$$$$$$$$$$$$$$$$$$$$$$##$$$$&=*%%$$###$#@#$%%$$$$$$$$$$$$$%%%$$$%%%%$$%%$$$$$$$%%%$$$$$$$$$$$$$$$$####$$$$$$$$$$$$$$$$$#$####$$$$$$$##$$$$#$$$$#######$%%$@+O+@@@@@@@@@@++++++++++++++@@@+@+++++@@@@@@@@@@@@++@@@####+++@@#####@@@@@@@@@@@@@@@@@@@@@@@@@@@@@@@@@###@@@@@@@@@@@@@@@@@@@@@@@@+++@###@@++@@@@@@@@@@@@@@@@@++++@@@@@@@@@@@$%%$##@@++O+@@@####@@@@@@@@@@@@@@@@@@@@@@@@@@@@@@@@@@@@@@@@@#%$$$#@@@@@@X+@@@##@@@@@@@@@@@@@@@@@###@@@@@@@@@@@@@@@@@@@##@####@+@###@@@@@@@@@@@##@@@##@#$#@##########@@@@@@@@@@@@@@@#@%*&$@+@@+@#$%&&&%%$$########@@@@@@@@@@@@@@@#@@@@################@##$$$$$$%$$########$$$################$$$$##############################################################$$$$$%",
"%$$$$$$$%%%#@#$%&%$$$%&%%**%$%%#####@########@@########$$$$$$$$$$$#######$$$$$$$###$%%%&&%%%$##$$#@@$%%$$$$$$$$$$$$$%%$$$$%%$$$$$$$$$$$$$$%%$$$$$$%%$$$$$$$$$$$$$$$$$$$$$$$$$$$$$#$$$$$$$$$###$############@@@@@#%%$#+O+@@@@@@@@@@++++++++++++++++++++++++@@@@@@@@@@@@++@@@$$###@++##@###@@@@@@@@@@@@@@@@@@@@@@@@@@@@@@@@@@##@@@@@+++@@@@@@@@@@@@@@##@+++@@@@@@@@@@@@@@@@@@@@@@@@@@@@@@@@@######$&%$#@@##@@#@@@#####@##@@@@@@@@@@@@@@@@@@@@@@@@@@@@@@@@@@@@@#%%$$#@@@#@@o+@@@@@@@@########@@@@@@@@@@@@@@@@@@@@++++@@@#####@@@@++$###@@@@@@@@@###@@@##@#%############@@@@@@@@@@@@@@@@@#%#$@@@@@@##$$%%$$$########################################$$$$#@@@@@@@@++@@@########$##########@@######$$$$####$$$####$########@@@#########################################$$$",
"$$#$$$$$$$%%$$$%%%$##%&&&&*%#$$#####################@###$$$$$######$$$$$$$$$$$$$$##%&&&**&&&%$$$$#@@$%%$$$$$$$$$%%%%$$%%$%%%$$$$$$$$$$$$$$$$$$$$$$$$$$$$$$$$$$%%%%$$$$$$$$$$$$$$$$$$$#$$$$####$##@@@############$&&$#++@@@@@@@@@@@@@@@@@@@@@@@@@@@@@@@@@@@@@@@++@@@@@@@+@+@$$@@#@+@@@####@@@@@@@@@@@@@@@@@@@@@@@@@@@@@@@@@@@@@@@@@@@@@@@@@@@@@@@@@@@###@@++@@#####@@@#####@@@@@@@#####@@@@@@@@@@$&%$$##$#@@##@+@@@+@@@@+++@@@@@@##################@@@@@@@@@@#%%$##@###@+OO@#@@@@###########@@@@@@@@##@@@@@##@@++++@@####@@#$@++##@@@@@++++++@@@@@@@##@$%############@@@@@@@@@@@@@@@@+@$@##@#@@#####$$$$####@@@@@@@####@@##############@@@@####$$$$$$@++++@@@#####@@@@@############$####$$$$##$$$#########################$$$######################################@@",
"$$$$$$%%$$%%&%$$$$$$%%&&$$%%######$$$#######$$$$########$$$$#######$##$$$$$$$$$$%$$%&*=-=&&*&%$$$#@#$%%$$$$$$$%%%%%%$$$%$%%%%%$$%%$%%%%%$$$$$%%%%$$$$$%%%$$$$$$$$$$$$$$$$$$$$$$$$$$####$$##@@#####@@############$&&$#@@@@##@@@@@@@@@@@@@@@@@@@@@@@@@@@@@@@@@@@++@@@@@@@+@@@$$#@#+@+OO@#@@@@@@@@@@@@@@@@@@@@@@@@@@@@@@@@@@@@@@@@@@@@@@@@@@@@@@@@@+++O+@##@@+@@@@@@@@@@@@@@@@@@@@@@@@@@@@@@@@@@@@@$&%$$$###@+@@@@@@@@@@@@@@@@####@@@@@@@@@##########@@@@@@@@@#$%%$#####@@+OO@##@+@@@@@#####@@@@@@@###@@@@@@@@+++++++@@###@@@@###@@@@@@@@+++++++@@@@#@@@@$%###########@@@@@@@@@@@@@@@@@+#%$##@@@@######$$###########################@@@@@@@@@######$%$$#@@@#####@@@@@@@##############$$$#####@@@@@@##################@@@####@@######################################$$$",
"$%$$$#$%$$$$$$$$$#$%%%%&$#$%$$####$$$$######$$$$$####$$$$$#############$###$###$$###$%*=*$$%%#@#$$###$$$$$$$%%%%%%$$$$%%$$$%%$$$%$$$%%%$$$$$$%%%%$$$$$$$%%$$$###$$$$$$$$$$$$$$$$$$$$###$$##@@##############@@###$&&$#@@@@@@@@@@@@@@@+@@@@@@@@@@@@@@@++@@@@@@@@@@++@@@@@@@++@#@++++OooO+@@@####@@@@@@@@@@@@@@@@@@@@@@@@++++@@@@@@@@@@@@@@@@@@@@@@@@@@@@@#####@@@@@#@@##@@@@@@@@@@@@@@@@@@@@@@@@@@$&%$##@@##@###@###@@@@@@@@@@@################@@#@@@@@@@@@###$&&%####@@@+++@@@@+@@@@@@@@@@@@@@@@###@@@@@@@++OO++++@@##@@@##+O@$#++++@@@@+++++@@@@+#@@@@%%@@@@#####@@@@@@@@@@@@@@@@@@@@$&%@@@@@@###@@#######$$###$##################@@@@@@@####@@##$$##@@@@@@@@###@@@@@@##############$$$#########$$###$$##############$$$############################################",
"#$#####%$###$%$$$$$$$%&&%$$$$$################$$####$$$$$#########$$$$$$$$$$$#####$$##&-=%$$$#@#$$####$$$$$%%%%%%$$$$$%%$$$$%%$$$$$$%%%%$$$$$$$%%%%%%%%$$$$$%%%$$$$$$$$$$#########$$$$$$$#@##$$##$$############$$&&%#@@@@@@@@@@@@@@@@@@@@@@@@@@@@@@@++@@@@@@@@@@@@@@@@@@@@@#%$#@+OooooO+@@####@@##########@@@@@@@@@@@@@@@@@@@@@@@@@@@@@@@@@@@@@@@##$##@@###@@@@@@@@@@@@@@@@@@@@@@@@@@@@@@@@@@@@@#%%$#$###@+#$#@##@@@@@@@+@@@@@@@@@@@@@@@@@####@@@@@@@@@@@###$&&%###@@+@@@@@+O@@@@@@@@@@@@@@@####@@###@@+++++++++@@###@@+++++++@@+++@@@@@++++@@@@+#@@@@%%@@@@@@@@@@@@@@@@@@@@@@@@#####$&%@@@+@@#$####$$$##$$$####################################$$#@@+@@@@@@@@@@@@@@@@@#######@@@@@############@############@@@@@@######@@@@@#######################################",
"###$$$$%$$$%=-&#$%$##%&%%$#@#$##$$$#####$#####$####$$$$$$$$$$$####$$$$$$$$$$$####$$$##&--*&%%$#$$$#@##@$%%$$$$$$%%%%%$$$$$$%%%$$$$%%%%%%%$$$$%%%%$%$$$$$$$$$$%%%$$$$$$$###########$$$$$#####$$###$#######@@@####$%%%#@++@@@@@@@@@@@@@@@@@@@@@@@@@@@@@@@@@+@@@@+@++@+@@@@@@@@%*#@++Oooo+@@@##################@@@@@@@@@@@@@@@@@@@@@@@@@@@@@@@@@@@@@@@@@@@@@@@@@@@@@@@@@@########@@@@@@@@@@@@@@@@@@#%$$##@##++@#@@#######@@@@@@@@@@@@@@@@@@@@@@@@@@@@@@@@####@#&&$@#@@@@@##@@@@@@###@@@@@@@@@@@####@@###@@++++@@@@@######@+++@@++@@@@@@@@@@@@@@@###@#@@@#$$###@@@@@####@@@@@@##@@#######%%##@@$&$##$######@@#######################################$$#@++@@@@@@@@@@@#########$$$#############@@@@@@@####@@@@##########$$###############@@@@############################",
"##@#%$$$$$$$**%#$$$#@#%&%$##$%%$$$$#####$$$$######$$$$$$$$%%%$$#$$$$$$$%$$$$$######$##%=-*&%%$$####@@@#%%%$%$%%%%%%%%%%%%%%%%%%%%%%%%%%%%%%%%%%%%%%$%%%%%%%%$$$$$$$$$$$$$$$$$$$$$#$$#######$$$##########@++@@####$%$$@++@@@@@@@@@@@@++++++++++++++++@@@@@+++++O+OO++++++@@###%$#$@OXXO+@#######################@#@@@@@@@@@@@@@@@@@@@@@@@@@@@@@@@@@++@@##@@@@###@@###############@@@@@@@@@@@@@@@@$%%$$@@#@+@##@@@@@@@@@@@@@@@@@@@@@@@@@@###################@#&&$#@@@###+OO+@@@@@@@@@@@@@@@@@@@@##@@++OO+++++++@#######@@@@###@@@#@@@@@@@@@@@@@@#@@#@+@$%#####################@@####@##%%@+@@$%$#######$###$$$$$$$$$$$$$$###$$$$$$$##############$%%$#++++@@@@@@@@#@@@@@@@@@@@@@@@@@@@@@@#########@@@@@##########@####################@@@############@#@@@@@$##$$#####",
"%$#$%$##$%$##$$%$##$@@%=&#%%$%&$###$$$$$$$$$$######$$$$$$$%%%%$$$$%%$$$%$$$$$$$$$##$$%&*=&%%%%%%%$#$$$%$$$$$%%%%%%%%%%%%%%%%%%%%%%%$$$%$%%%%%%$$$%%%%%$$%%%%$$$$$$$$$$$$$$$$%%%%$$$####$$$$$$$$$%$###$$#@++@######$$$@++@@@@@@@@@@@@@@@@@@@@@@@@@@@@@@@@@@@@@@@@@@@@@@@@@+@$##%%#@@OoooO$$####$$$$$$$$############@@@@@@@@@@@@@@@@@@@@##@@@@@@@@@@@@@##@@@@@#@@@@@@@@@@@@@@#####@@@@@@@@@@@@@@@##$#$%$$$#++@@##@@@@@@@@@@@@@@@@@@@@@@####################@+@%&$$#@@#$$@+++@@@@@@@##########@####OOOOOOOO++++@@@######@@@#$$$#@#@@+@@@@++++++++++@@++@$%####################@@@@@@@@#@#$@+@#@O+$@%$$$$$$$$$$$$$$$$$#################@@@#########$$%$#@++@########@@@@@######@@@@@##@@++@@###@@####@#################################@#@@############################@",
"##@@#@@@#$#@+@#$$##$#@%=*#$$%$$$$$$%%%%%%%%%%%$$####$$$%%%%%%%%%%%%%%%%%$$$$$$$$%$###$%**%$$%%%%$$$$@#$###$$%%%%%%%%%%%%=*%$$$%%%%%%%%%%%%&&%%%%%$$$$$$$%%%%$$$$$$$$$$$$$$$$$$$$$$$$$$$%%$$$$$%%%$###$$#@++@####@@#%$@OO+@@+@@@@@@@@@@@@@@@@@@@@@@@@@@@@@@@#####@@@@@@@@@++$$$%%++@#@+Oo$##@@##$$$$$$$$$$$$########@@@@@@@@@@@@@@@@#######@@@@@@@@####@@##$$#@@@@@@@@@##########################$%%$$$####@######@@@@@@@@@@##############################@++$%$$$###$$$#+O++@###################ooOOO+++@@###@@+$#@@@@##$$$#####@@@@@@@@@@@@@@@+++OOO@#++@@@@####@@@@@@@@@@@+++++++@Oo+@@##@#@$%&&%%%%%%$$$$%%%%$$$$$$$$$$$$$$$$$$$$$$$$$$$$$$%%%$#@++@##@@@@@@@@@@@@@@#@@@@@@@@@@@@@@@@##############@###########@@@####@@@####################@###########$#@#####",
"ooOOooOOOO++++++@@@####$%%#$&&%$$$$$$%%%%%$$$$$$#####$%%%$###$%%%%&&&&&&&&&%%%%%%%$#@#%**&%%%%$$$###@@$####$$%%%%%%%%%%&&&&&&&&&&&&&&&&&&&&&&&&&%%$$$$%%%%%$$$$$$$$$$$$$##########$$%%&&%$$#$%%$#@@@@@@@+O++@@#@@@#$$@+O+@@@@###@@@@@@@@@@@@@@@@@@@@@@@@@@@###@@@@@@@@@@@#@$%####+o+#$@O++OOOO++@##################@@@@@@@@@@@@@@@@###############$##@@##$$$#####@@@@@@@############@@@@@@@@@@@@@#%$$$#@@@+@#######@@@@#@####$$$$$$$###$$$$$$$$#$$$$$$$#@@O+#$$$$%$$##@#+OOOO++++++@@@@@@@+++++OoooOO++@@##@@@@@@@++++@#@@@################@@@@@+++O+@@+++++++++++++OOOOOOOOooooooO+OO+++@@@@O@@$$$##$$$$##$$$$$$$############################$$$##@++@@@@@@@@@@@@@@@@@@@##@@@@@+++@####@#####@@@@@@##$$######@@@@@@@@@@@@@@@@@@@@@@@@++O@#@@@@@+@@@@@@@@@##@##@@@++",
"OO++O+++++@#@+@@@@####$#%*&&**%#+++++++@+++O+++++OOO++@@@+OOO+@@####$$$$$$$$$$$$$$$#++#%**&&%%$#%#@@@@@+++++@@@@##$$%%%&&&&&%%%%%%%%%$$$$%%%$$$$%%%%%%$$####$$####@@@@++++OOOOOOO+++@@@+++OOO+++++++++++++OO++@@@+#$$#@++@@@#########################$$$#######@@@@@@@@@@$$$%#@#$+XXoOoXXX..XXXXooOOOOO+++++@+@@@@@@@+@@@@@@@@#@@@@##############$$#####@@@++++++++++++OOOOO++++++++++OOOOOOOOOOO+#$$$#@+oXoOOO+++OOOO++++++@@@@@@@@@@@@O+#+X@%$########O+OO@##$##@@@++OooX...XXXXXoooooooXXXXXoooooooOO++OOOOOOOOO++++++@+@####@@@@@@@@@@@@@@@++O++O++OOOoooooooooooooooooXXXXXXXoO+@++OoOX..oXXXXXXXXXX...XXXXXXXXXXXXXXXXXXXXXXXXXXXXXXXX....+@###+++#########@@@@@@@@@##@@@++OO++++++++@@+++++++OOOOOOOO++++++@##@@++++++@@@@+OOoooooOOOOOOOOOO+OOOOOOOOOOOOOOO+",
"@@#@@##@@@##@+####$$$$%%%**&%&%@++OOOOOoooooooooooooooooooooooXooooooOooOOOOO+OOOO++ooo@$$$$$$#@#$#+oXXoooOOOOOoOoooooooOOOOOOOOOoOOooooooooooooO++++OOooooooOOOOOOOooooooooooooXXXXooooooooooXX++@@@+++++OOOO+@@+@###+OOO+++++++++++++++++++++@@@@@@@@@@@@@@@@@@@@@@@@@@@##$%$$#@OX     .........XXXXXXXXooooOOOoooooXXXXXXXXXXoooooOOOOOOOooooooooooooXX...XXXXXXXXXXX.XXXXXXooOOOOOOOOOOOOooO+@#$#@+++OooooX.............XXXXXX....XXXXXXXXX....XXXoooooo+@@@@OOO+OOooX....XXXXXXXXXXXXXXXXXooooooooooooooooooOO+++++@@@@##@@++++OOOOO+++++++OoOOoooXXXXXXXXXXXXXXXXXXXXXXXXXXXXXO++++++OOo@+OOooXXooX..XXoXXXXXXXXXXXXXXXXXXXX....XXXXXXXXXXO@###+OOOOOOOOOOOOOOOoOOOOOOooooXXXXXXXoooOOOOOOooOOOOO+++++OOOOoooOOOOOooooooOO++++@@+@@+O+++++++++++++++OO+OO++@@@",
"@@#@@@@@@@@#@+@@@@@###%&&%%%%&&%###@@++++++++++OOOOOooXXoOOOOoX..XXoOOOOOOOOOOOoooO++Oo+###$%&&$##+OOoXXOOOOOOO++++OOooo.o++oXXoOOOO+OOOOOOOOOOOOoooooOO+++OOOOOOOOOOOOOO+++++++OoXXooOOO+@@@+oX+@##@+O+++OoXoO++++@@@OoXXoooooXXXXXXXXXXXXXXXXXXXXXXXXXXooooooooooOOOOOOoO+$==&$@O.......XXXX....X.X..........XX.............XXXXooooooooooXXXXX..XXooooooooooooooooooooooOOOOOOO++++++++@@@@@@@@+####@@++OO+OoooooXXXXXXXXXXXXXXX...XX    ..XXXXXXXXXXXoXo+@+@@++++OoooOOOooOOOoooooooooOOOOOOOOOOOOOooooooooOO++@@@@###@@##@@@@@++OOO+++@@@@@+O++OOOooooXXXXooooooooooooooooooOOo+@#$@@#@+oOoooooooOOooXooOOooooooooooXooooooooooXXXXXXooooOO@@@@++O+.......XXXXooooOOOOooOOOOOOoXXoOO+OOOO+++++++++++++@@@@@+++@@##@@+O++@@@@#@@@@##+oXoooooO+@###$###$$$$$$$$$$",
"@######@@@@@@@@@@@@@@##%%$$$%&&&%*$#$@O+++@@+++@@@+++OOOOOOOoooooOOoooOOOOOOOOOOOOOOO+++$$$$$$$$$$$#++OOOOOOOOOO+@@OooO++@++++++++++++++++++++++++@@@@++OOOO++@@@++++@@@@@++++++#@+OO+@@++o+##@@+++++@Oo+++@@O++@###@@++OoooooOooX.XXXXXX....XXXXXXXXXXXXXXXX.XXooooooooO+@##$$$&&%#OXo+.XooooX..X.   .X...     oX.XXXooooooooooOO+OOOOOOOOO+++OOOO++OOOOOOOO++OOoO+OOOXOO+O+@+@@@@@##$$$#$$###$%*&%%$$%@@@@@@@@+++++++++++OOoooooOOooXXXX.....XXoooXoO++O+++@@@+#&&$####$#@@#+o@+++@@@@@@@@@+++O+++++++++++OO++++@#$$$$$$$$$$######################$$#++++O+@@+OO+@@@@@@@@@@@@+++@@##$$$###@@++++OOOOOOOOOOOOOOoooooOOOOOOOOOOOOO+OOOO+OO+++++++@###@++OOOOOOOOOOOOOOOO@++##@@#+@@OoOOOO+++++++++O@@@+O@+O#$##$**$+@##$$$$$@##@+@@++OoXo.o+O++OO+@######$%$####$%%%",
"@$&$$%%%$$$$$$$$#@@$%%%%%&&%&*=*%$$$$$$$$##$#+@##@@@@@@@@++++++++++++++++++++++++++@@@@@#########@@+++OOOOOOOOOOO+++OOO+++++++++++++++++++@@@@@@@@@##@@++++++@@@++++++++++++++OO$%$#@@+O+OXXoOOOOOOO+@#@@+@&%++##@@##@+OOoooOOOOOXXooooOOooooooooooooooooooXXXXXoooooooXoOO+++++#$%%$@++@OXXo++OoXXXXXX..XXXXX..XXXOOO++++++++++#####@@##@@@#######$$#########$##@@#@@@O@OOoO@@###$$%%%&&&&&*&&&&&&&%%%%%#@@@@#$#@@@@@@####@@+++O+++++++OOOOooXXXoOOOOOOo+@@OO+#$$$$$$$$#$$$$%%###@@@#@@#$%%%$##@@###$############$%%&&&&&&&&&%%%%%%%%%%%%%%%%%%%%$$%&&%@#@++@++O+@$%$$$$#########$$%%%%%%$$###@@@@@@@@@@@@##@@@++++@@@@@@@@@@@@@@@@@@@@@#########$%%$#@@@@@@+++++++++++#@@#$@O++@@+O++++@@@@@@@+#$@#@@$@#$@@#$$%&&&$#@@@@@@#$##@@@++OoXOoOOOO++OO+@#$$$&*%$$$$$%%&&",
"#$%*====&&&&&&&&&&%%%&&***==*******&&&&&%$$%$@@$################@@@@##@@@@@@@@@@#####$$$##########@++@##++++++OOO+++++++++++++@@@@@@@@@@@@@@@@@@@@@@@@@@@@@@++++@@@@@@@@@@@+@@@++@##@#@++++OoooXXoooO@$%#+@$%@+###@###@++++++++++++O+++@@@@#@++++++++O+++OOOOOOoOOOooooooOO++@@@@@#&&%#@$$@+O++@+ooO+++OoooOOOOOooO+++@@@@@@@@@@$$$$$$$$$$$$$$$$%&&%%&&%&%%&&%%&%%#@#@O@@@#@OoO$%&****&%**%%==**-***&&&%%%%$$#########$$$$$$$$$$$$#######@###@@@@@+O++++@@##$$%%$$$$$$$$$$$$$%$##$%%%%%&&&&&&%$$$$%&***&%%%%%%%%%%%&**========***********&&&&&&&&&&&&***$#@@+ooOO+@%&&%&%$$$$$$$%&&**=====**&&%%$$$$$$$$$$#############################$$$$$$%%$$%&**&%$$#$$%%%%$######$###@##@O+@@++@###$$$$$$$$$%$#$$%$$%#@$$#+@$&$##@@@@@##@##++@##$$$#++OO+@$%@@&*&=***&$$&****&",
"$$$=;-;--========******&&*==*&&&=========*&**&%%%%%%$$$$$$$$$$$$###$$$$$$$$$$$$$%%%%%&&&%$$$$$$$########@@@@@@@@@@#####@++++@@@##$$$$$$$$$$$$$$$$$###$$$$$$$####$$#################@+@@++#$#@@#@@@@@$%%$%%#@$%$$%%%$$$$$$$$#######@+@##@##$$$##$$#####@@@@@@++@@##@++@@@@++@#%&*%#@$&*%$$$$$$$$$$##@@@@@@@@@@@@@##@@#$$$$%%%%%%%%%%%%&&&&&&&&&&&*****************=**&$$###@@+Oo$*=;::::;;;=**=*&&***=*%&***&&%%%&&&&&&&&%%%%%%%%%%%$$$$$$$$$$$$$%$$$%$#@@#%*============****&&&%%*---;;::;--=%$#%%&*=-==*******&&&**=---;;;;;-----------;;;;;;;;;;;;;;-*=%#@@@@@@@@%**==========--;;:::>---==**&&&%%%%%&&%%%%%%%%%%%%%%%%%&&&&&&&&&%%%%%%&&&&&&&**=--=*&&*&%*&$&%%%%%%%%%$%$$&%@@@@++@$%&&&&&&&&&%$%%&&%**&**%%$$@#%%&&$$$$$%$#%%$$%*=--*%#@+OO@#%%%=::===--===&$&*-",
"#%*=;:>>>>>>>>,>>>:;----====*&&&=======--=====****&&&&%%%%%%%%%%%&&&&&***&&&&&&**=***&&&&&&&&&&&$$$$$$$$$$$$$$$$$$$$$###+++@@@@@%%%%%%%%********&&%%%&***&&&&&&*****&&&&&&&&&&&&%$%$#@@++@#@@%=--=&&*==&****&****==*&&&&&%%%%$$$$$$$#$$$$$%&&&%%%%&&&&&%%%%%%%%%%%$###$$$###$%**-&#$&&&%$$$$$$$$%%%$###$$$$$$###$%$#$&==;:=*;-&*======---------;;;;;;;;;;;;;;;;;;;::-=*$##+O@++*:::>>,,<,<<:-;-%#%*===-;;;--==*=--=**=---=-----====**&&&***&&*======--*&##%-;--:-;;;;;;;=*===*==*=---=====--=&$###$%*===--------;:;;>,,>,,,,,>>>>>>>>>>>>:::::::::::>>;-=*%#@@@+@##%-;;;,>:;;:>>::::::::;;;;;;;;=====================-======********=====--------;:::;-=*==--=**%%%%%%%%%%$$$%%$$#@++@%*======****&&******&*=&%%&%$%&*&%$$%%$$$%%$$%&****%@@@OOO$%&=:>:-;;;>,>::>:::",
"+#*&=:;---;:>,<<11<,>>,<>::;===*****==--;;--;;-----==****&&&&&&&*=====-;;;;-====-----===*=--**=-&&&&&&&&&&&&&&&%&&&%$##@@@@@@@@@&***==---=------===**==--=======****************-*&$+OO++O+++$*-;-=*=;;-=**-=*===-;:::;;--==****===*&&&*&*=====&&&****=--=====*&**&&%%&&&&&&&&**;*%%&&%%$$$$$$$$%%%%%$$##@@#@@@++#$$$&*=;;--==*==---============*&********&&&***&**-;-=*##@+@@+&;=%$%&&%%&=-----*%%$$$%$$%%&&&**%$%**%$%&%&&&&%%%%%%$$#####$$%%&&%$$%*-;------==#Oo+#+O+@@@#@@#$$$$#@+++OOO@#@@$###%*=--;;;;;;;;;><123211222221111<<,,>>>>>>>>>>>>::>>>>:=%@OOO+@#$%=-----;::;-=;::>,<11<<<<,,,,,,,>>>>>>>>>>::::::::::::::::::::::::::>>>>>>>>>,>>;,>%&-=*&%%&&%%%%%%%%*&%$$#%*$#@@+@%*----------;;;;-;;-;--;-----=;;;;;-=*&***&&&%&&&&*&$#@+OO$&*&$$%&&%%&**=;;-*&",
"+#&=:,>:>>>>>>>>>>>,,,,>,>;;---=$&=&$$=:>,,>>>>>>>>>::;;;---==========--;;;;;;;;:-&&*==**=----=*=-----;;------=====*&%#@@@@@@@@@&&&&&%%%$$$$$$$$$%%%$$######$##########$$######$%%$$@++++++++@$&&==*=;;--*$%&&&&=-:>,<<,,>>::>::>;=&&&%%&-;-=*=--==*=====-;--==------=========**-*&&*&%%%%%%%%%%%%%%%%$$####@@+++++#$$#@@@@@@@@@+++OOOOOOOOOOOOOO++O+++++OO++OO++++@&&%*%#@@$$++#$%$@++#@OO++oO$&&#@##@@@@@@@@@@@$@+##+#++++++++++++@++OOO++@@+++@@@@#$%-=*&%%$#@@@@@@@@#####@#%#@@@@####@#$$@+@@+@#&=---;::::;-=;,>;-==========-;;;;;-----------;;;>,<,,=#++++@@#@#$#@####$$%%%$$%%&&*&&%&*&#$====***====*************===-;;:::::::::::::::::::::>:>>;55,-==**=-------==--=*%$#$#@#@@$&********===-====----=-;;=;;---;:>::;-;;----==--;--*%@@+Oo#$@+@$###$#$&&$####",
"$$#=;-::;;;;;;;;;--;;;-->:-=-------==***:,,>:>,,,,,,,,,>>>>>:::::;----======**==$->::,<,:-*=;>>:>:;---;:::::::::;;;;-*$@##@@@@@@@###############$%%%$#@++@@@@@@@@+@@@@@@@@@@++++@#%&%#@@+++@@+@$==*&*;;=--%@###==-====-------;:::-*%%$#$*-;--=-::::::;;;;;;:>>,<<11221<,,,>>:::::;;::;;;-=*&&*=---===**&&%$#@+ooooO@@++@@@@@@@@@@@@@@##@@########################@#$%*--&#@@@$#+@#$$@+#$$#@@@@@#++#$##############@@@@##########@@@@@@+++++@###@@#$$#@++#####################@#%$#@@@@@+@@#%%@+@@@@$&=;;::;--;:>**&+OoO+++++++++++@##@++o+#$@+++@@#$%&%$&&%###@++@#$$@+########@@@@@@@@@@@@@@@@@@@@@@@++++@@@@@@@@@++++++++@@#############@@@@@@+@#%#$:;==**&&&&&&&&%%$%%$%&*=%O$#@$#@#%@@@@@@@@@#@+@+++@@++@+@@####@@@@@#$$%%$$$&&&&&**=-=%@@@++@@######@@$&%$%@@@#",
"##$$$$$$$$$$$$%%%$$$$$$#########&&&*--&$**;-#+$%&&%%&=;:--------===--;;;;;;;;;;;;::>>,,,>:-*=>,>>,:-:::<,>:;;:>,;:>>;*%&##@@@@@##########$$$$$$#$$$$$####$$###################@@##%%$#@O+++++O++$$$$$$$#######@@@@@@@@@@@@@@@@@@#+OOOoo+##@@##$%%%%$$$$%&&&&=====---=-==================>>>>>>>:::::::::**&@oO+oOO+++@@@@@@@@@@@@@@@###########$$########$$##$####$$$$%&&#@@@#@+@###########@@@@@@@@@@@@#@@@@@##@@@###@@@@@@@@@@@@@+++@@@@@+++@@@@@@@@@@########@@@@########@#####@@@@#####$%$@@@#@@=<,2,,,,,,>>:=$##@@@@@@@@@@@@@@@@@@@@@@@@@@@@@#####$%%$#@#@++##@@###################@##########$##########@@@@@@@+++++++++++++@@@@@@@@@@@@@@@@@#####O+++@@@@@+++@@++O##++%*&$#@+O@@##@@@@@@@@@@@+@@+@@@@@#@##@@####@+@@#$#@#@@@@@@@@#$$$@@@+#+#%%$#@#$%%$#######",
"###$$$$$$$$$$$%%%$$$$$$$$$$$$$%%%%%%%%%%$#$&&$#$$$$$$$$$*&%####$$$######*&&&%%$$%$####$%%%%$$$%$*******&&&*=-==*;;::;*&&##@@@@@##########$$$$$$##@@@##########$$$##########@@@###$$$###O+@@+OOO+@@@@@@@@@@@@@@@@@@@@@@@@@@@@@@@@@OO+@+OOooOOO++@++OOOOOO++++OOOOoooooooOOOOOOOOOOOOOOOOO@#$$$#@@########$%%$@++OOO+++@@@@@@@@@@@@@##@@@###@@###@####################@@#$%#@+@@@+@@##########@@@@@@@@@@@@##@@#@##@@@####@@@@@@@@@@@@@##$%%%$#@@@@@@@@@@@@#######@@@########@@@@#############$%$@@+@@@%:;;>:--;;-*-=$##+@@@@@@@@@@@@@@@@@@@@@@@@@@@@######%%$@@#@++@##@###################@@#########@@#####@@@@#@@@@@@######@@@@@@@@@@@@@@@@@@@@@@@@@@###O+++@@##@++@#$$@+@@@@$&&$#@++@@@#@@@@@@@@@@####@++@@@##@#######$##@@@@@@@@@@@@@@#$$$#@++++@#$##$%%$##@######",
"####$$$$$$$$$$%%%%%%%%%%%%%%%%%%%%&&&&&&+@#%%%$$%%%%%%%$$$$$###$$$$$$$$$@@@##$$$$$$$$$$$$%$#@#$&&*=*%#$%&%%$$%&****==&%$##@@@@##########$$$$$$$$######$$######$$$###############@@$$$$%$@@@++OOO@@@@@@@@@@@@@@@@@@@@@@@@@@@@@@@@%$@@@@#@OOO+++++++@@@@@@@@@@@@@@@@@@@@@@@@@@@@@@@@@@@@@@OOOOOOOO++++++++%#$%@O++O+++@@@@@@@@@@@@####@@@@@#######@#########@########@@@@#%$#++@@+@@@############@@@@@@@@@########@@####@@@@@@@@######$$$%%$$$##@@@@@@@@@@##@@#@@@####@#@@#@@@@@@#######@@###$%$@@+++OO$#O++++++++##@O@#+#@@@@@@@@@@@@@@@@@@@@@@@@@@######%%$@+@#+O@############################@@@@@@@@@@@@@@@@@@@@@@@@###@@@@+++++@@@@@@@@@@@@@@@@@@@@@@@@@@@@@@@@++@@###@@###$&$#@+++@@#@@@@@@@@@@@$#@#++@@#@@@@###@++@#####@@@@@@@@@@@#$$$#@+@@$###@@%$$##@@######",
"#####$$$$$$$$$$$$$$%%%%$$$$$$$$$$$$$$$$$@+O@$&&%&&&&&%%%%%%$$$$$$$$$$$$$$$$$$$$$$$$$$$$$%%#$&&&&&*=*%$%%%%%%%%%%&%%*=*%$###@@###########$$$$$$$$$$####$$$$#######$$$############@+$%$#%%@@@+++OO########@@@@@@@@@@@@@@@@@@@@@@@@&**$#%**&#++@@@++@@@@+@@@@+@###@@@@@@@@@@@@@@@@@@@@@@@@@@+++++++++++++++%#$%#OO+O+++@@@@@@@@@@@###@@##@@@@##########$#########$##$$###$$%$#++@@+@@@@#####@#####@@@@@@@@@##############@@@@@@@@@@####$$$$###$##@@@@@@@@@@@@@@@@@@####@@@@#@@@@@@########@###$%$@@@@+#+%$+@@@@@@@@+@$@@#@@@@@@@@@@@@@@@@@@@@@@@@@@@@######%%$#@#$#O+@##$#########################@######@@@@@@@@@@@@@@@@@@@@@@@@@@@@@@@@@@@@@@@@@@@############@@@@@@#@@###@@##@#&$#@+++@@@@@@@@@###@@@#@#$#####@$+@@@##@@##$$###@@@@@@@@##$$$#@++$$########@@@@@@####",
"######$$$$$$$$$$$$$$$$%%$$$$$$$$$$$$$$$$$$#@@#$$$$$%$%%%%%%%%%%%%%%%%%%%%%%%%%%%%$$$$$$$&==--*%$$$%$$%%%%%%%%%%%%$$&=*%$###@@###########$$$$$$$$$$$###$$$$$$$#@@#########@@@@####@$%$@@@@++++++@@@@@@@@@@@@@@@@@@@@@@@@@@@@@@@@@#*;;;;;=%#@@#@@+++++@@@++@@@@@@@@@@@@@@@@@@@@@@@@@@@@@@+@@@@@@@@@@@@@@@@##%%$@+OOO+++@@@@@@@@@@@@@@@###@@###@@@###################$$#$%&%$@@##@O@@@@@@##@@@#####@@#@@@@#@@##############@@@@@@@@@@@####@@@@@@@@@@@@@@@@@###@@@@###@###@@##@@@@##@@####@@###$%$@@@@+#+$$+@@@@@@@@@+@#++$#@@@@@@@@@@@@@@@@@@@@@@@@@@######%%$@@@##@+@###########################@@#@@@@@@@@@@@@@@@@@#@@@@@@@@@@@@@@@@@@@@@@@@@@@@@@@@@@#############@@@#@@@###@@$%##@+++@@@@@@@@@@####+@#@#$@@@@####@+#$##@@#@+@###@@@@@@##$$$#@+@@@##@###@@@@@@@@####",
"#######$$$$$$$$$$$$$$$$$$$%%%%$$$$$$$$$$$$$$$$$$$$$$$$$$$$$$$$$$$$$$$$$$$$$$$$$$$$$$$$$$&=;-&$#%$$$$$$$$%%%%%%%%###%*&%#$######$########$$$$$$#$$$####$$$################@@#######$$$@@+@+++@@@++++++@@@@@@###@@@@@@@@@@@@@@@@@@+#*=*&%#@@@@+@@++++++++++@@@+++@@@@@++@@@@@+@@@@++@+@@@+@@@@@@@@@@@@@@@@+@$$##@+++++@@@@@@@@@@@@@@#####$$$##$$$##$$########$$#########$%%#@#$$@O@@@@@@@@@@######@@@@@@@@@@#####@########@@@@@@@@@@###@@@@@@@@@###@@@@@@@###@@@@###@@######@##@###@####@@###$%$@@+++#+$%@@@@@@@@@@++##@@@@@@@@@@@@@@@@@@@@@@@@@@@@@######%%##@+@$#@@@####################@@####@@###@@@#####@@@@@@@#@@@@@@@@@@@@@@@@@@@@@@@@@@@@@@@@@@@@@@@@@@@@@#$#@@@@@@##@@#$%##@@+@@@@@@@#@@@@####@##@@#@+@#@###@@##@@@@@@@###########$$$#@+++#%%@@#@@@@@@@@@@@@@",
"@#######$$$$$$$$$$$####$$$$$$$$$$$$$$$$$$$$$$$$$$$$$$$$$$$$$$$$$$$$$$$$$########$$$$$$$$#$&&$##$$$$$$$$$$$$$$###$$$*=*&%$######$$$$$$$$$$$$$$$$$$$$$$#########$#########@@#####@###$%#@@#@++@@@+@@@@@@@@@@@@@@@@@@@@@@@@@@@@@@@@@++@+OO++++++@@@+++++++@@@+@@@@+++++++++++++++++++++++++++++++++++++++++@#$#@@#@++++@@##########@@######$$#$$$$#######################$$%$#@###@+@@@@@@#######@#@@@@@@@@@@####@@@@######@@@@@@@@@@#@@######@@@@@@@@@@@@@####@@###@@@#############@@####@###$%$@@+++@+$$@+++++++@@@++@@@#@@@@@@@@@@@@@@@@@@@@@@@@@@######%%$$$@#&%#@@@@@#################@@@@###@#######@@@@#@@@@@@@@@@@@#@@@@@@@@@@@@@@@@@@@@@#####@@@@@@@@@@@@@@+@@+oO@@@@@@#$&##@@@@@@@@@###@@@@@@##@#@+#@@#@@####@@@@@@@@@@@@#########$$$#@@+@%&%#@@@@@@@@@@@@@@@",
"@@######$$$$$$$$$$$############$$$$$$$$$$$$$$$$$$$$$$$$$$$$$$$$$$$$$$$$$$#######$########$%$#####$$$$$$$########$#$&**%%$$#####$$$$$$$$$$$$$$$$$$$$$$$########$####################%%@@@#@@+@@+O@@@@@@@@@@@@@@@@@@@@@@@@@@@@@@@@@+O+#@++@@+@@@@++@++++++O++++++@+@@@+@@@@@++++@@@@@@@@+++@@@@@+++@@@@@@@##%$@@+++++@@@@@@@@@@@@#########@#####################$########$%%#@@@##@@@@@@@@######@#@@@@@@@@@@####@@@#######@@@@@@@####@@@@#########@@@@@@@######@##@###############@@@####@###$%$@@@@O@@#@#@@@@@@@@@@++@#@@@@@@@@@@@@@@@@@@@@@@@@@@@@#####$%%###+@%&#@@@@@#################@@@@#######@@@@@@@@@@####@@@@@@@@@@@@@@@@@@@@@@@@@#########@@########@@@@@@@$$#@@@@#@#$&##@@@@@@@@@###@@@@@@+@@@##@##@@@#####@###@@@#@@##########$$$#@@++$$###@@@@@@@#@@@@@@",
"@@####$$$$$$$$$$$$########$$###$$$$$$$$$##$$$$##$$$$$$$$$$$$$$$$$$$$$$$$$$$####$$####$$#@#$$$$####################$&***&%%$$####$$$$$$$$$$$$$$#$$$$$$##########################@#@$*$@@@#@@@O#$+$%@@@@@@@@@@@@@@@@@@@@@@@@@@@@@@@@@+@@@@@@+@@@++@@@@+@++@++++++@++@@@@@@@@@@@@@@@@@@@@@@@@@@@@@@@@@@@+@@##%%@@+O+++@@@@@@@@@@@@@#######@@@####@###############$#######$$$$#@@@@+@@@@@@@@@@@@@@@@@@@@@@@@####@######@@@#####@@#######@@@@@@#####@##@@@@@@@###########@@@#########@@###@#####$$#@@@@++@@@@@@@@@@@@@@@@@@@@@@@@@@@@@@@@@@@@@@@@@@@@@@#####$%%$##@@###@##########################@####@@@@@@@@@@@####@@@@@@@@@@@@@@@@@@@@@#@@@@@#######@@@@@@@@@@@@##@@@@@@@@@@#@#$%$$#@@@###@@###@@@@@@@@@@##@##############@@@@@####@@@####$%$#@@@+@@@@@@@@@@@##@@@@@@",
"@@##$$$$$$##########$$$###$$$$$$$$#########$$$##$$$$$$$$$$$$$$$$$$$$$$$$$$$####$$$##$%%$##$$$$#################$#@$&===*%%%$#@@#$$$$#$$$$$#$$$$$$$$$$$$$$$####$$###$$#$########@#@&*%@@@@@##@%&#@@@@@@@@@@@@@@@@@@@@@@@@@@@@@@@@@@@+@@@@@@@@@@@@@@@@+@@@@@@@++++++++++++@+++++++@@@@@@@@++@@@@++@@@@++++##$$#@@++++@@@@@@@@@@@@@@@######@@##############$$$###########$%$$##@@+@@###########################@@@####@@@####@@@@######@@@@####@@@@##@@@@@@@@######@@@@@@@@@@@@@@@@@@#####$###$%$@+@@@++@@@@@@@@@@@@@@@@@@@@@@@@@@@@@@@@@@@@@@@@@@@@@######&%$##############################@@@@@@@@@@##########@@@@@@@@@@@@@@@@#@@@@@@@@@@@@#@@@@@@@@@@@@@@@@@@@@@@@@@@@@@@@@#@#$$$$#@@@###@@###@@@@@@@@@@##################@@#@####@@#####$&$#@@@@@@@@@@@@@@@@@@@@@@@",
"#####$$$############$$#@@#$$##$$######$####$$$$%$$$$$$$$$$$$$$$$$$$$$$$$$$$####$$$##$$%%$$$$$$$######$##########$#$&==&%$$$##@####$$$$$$$$$$$$$$$$$$$$$$$#######$$#$$$$$#########@#*%+@@@@##@%&#@@@@@@@@@@@@@@@@@@@@@@@@@@@@@@@@@@++@@@@@@@@@+@@@@@@++@@@+@@+@@@+++++++++++++++++@@@@@@++@@@@@++@@@+++++##$$#@@++++@@@@@@@@@#####@@@@@############$$$####$$$#########$%%$$###@@@@#####################@@######@@####@#####@@@@##@@###@########@#@##@@@@@############$$$################$$##$%%#@@@@++@@@@@@@@@@@@@@@@@@@@@@@@@@@@@@@@@@@@@@#@@@@@@######&%$##@@@@@@###$$$##############@@@@@@@@@@@@##########@@@@@@@@@@@@@@@@@@@@@@#@@@@@@@@@@@@@@@@@@@@@#@@@@@@@@@@@@@@@@@###$%$$#@@@###@@###@@@@@@@@@@######@@@@@@@@###########@#@#####$=$##@@@##@@@@##@@@@@@@@@@@",
"############$$$$$###$$##$$$$$###$$$##$$$$######$$$$$$$*$$$$$$$$$$$$$$$$$$$$$$$$$$$$$$$$$$##$%%$#################%$%*==&$$$########$$$$$$$$$$$$$$############################@@@@#@$*%+@@@@##@$%#@@@@@@@o@@@@@@@@@@@@@@@@@@@@@@@@@@++@@@+@@@+++@@++@@@+@@++@@@@@@+++++++++++++++++@@@@@@++@@@@+++@@@+++++##$%#@@++++@@@@@@@@@#####@@#@@@@####################$$#######$%%%$$###@@@####################@@@@@####@@####@####@@@@@@#@@@@############@@@###############@##$$#@################$$$&%#@@@@++@@@@@@@@@@@@@@@@@@@@@@@@@@@@@@@@@@@@@@@@@@@@@######&%$##@@@@@@@##$$######@@@####@@@@@@#########@@@@@@@@#####@@@@@@@@@@@@@@@@@@@@@@@@@@@@@@@@@@@@@@@@@@@@@@@@@@@@@@@@@@###$%$#@@@@##@@@###@@@@@@@@@@#####@@@@@@@@@###########@#@#####$-$##@@@########@@@@#@@@@@@",
"####$$$$$$$$$$$$$$#$$$$$%$$$$$##@#####$$$$%%$$$$$$$$$$-*$$$$$$$$$$$$$$$$$$$#####$$$$###$$###$%$######$$#########%$$*==&%$$#######$$$#$$$$$$$$$$$##########################@@@@@@#@#*%@@@@@##@$$#@@@@@@@@@@@@@@@@@@@@@@@@@@@@@@@@@@@@+++++++++++@++++@@@@+@@@@@@@++++++++++++++++@+@@@@++@@@@@@@@++++@+++#@$%#@@@+++@@@@@@##########@@#################$$############$$%%%$$###@@@##############@##@###@@########@@@###@@##@@@@#####@@@##########################@@+@@@@@@+@@@@@@##@@@####$#$%%$#@@@++@@@@@@@@@@@@@##########@@@@@@@@@@@@@@@@@@@@@@@#####%%$##@@@@@@@#######@@@@@@#@#@@@########@###@@@@@+@@@@####@@@@@@@@@@@@@@@@@@@@@@@@@@@@@@@@@@#@@@@@@#@@@@@@@@@@@@@@@@###$%$#@@@@@#@@#####@@@@@@@@@##@###@@#@@@@###@@@###@@@@##@@@@#$&$##@@@@##@@@##@@@@@@@@@@@",
"###$$$$$$$$$$$$$$$$$$$$$$$##$$#@@@#####$$$$$$$$$$$$$$$$$$$$$$$$$$$$$$$$$$$$######$$$###$$###$$$#################$$$&=&%$$########$$$$$$$$$$$$$$$$$$$$#####################@@@@@@#@#*&+@@@+@@@@#@@@@@@@@@@@@@@@@@@@@@@@@@@@@@@@@@@@+++@+++++@++@@++@+++@@@@@@@@@@+++++++++@++++@+@@@@@@++@@@@@@@@@@@@@+@+#@$%$##@+++@@@@@###########@##################$$$$##########$$%%%$$###@@@@@@@@@@@@@@@@@@##@@############@@@@##@@##@@@@######@@############################@@@@@@@@@@##@@###@@####$$$%$###@@++@@@@@@@@@@@@@@@@#########@@@@@@@@@@@@@@@@@@@@@#####%%$##@@@@@@########@@@############@@@@@@@@@@@###@##@@@@@@@@@@@@@@@@@@@@@@@@@@@@@@@@@@@@@@@@#@@@@@@@@@@@@@@@@@@@@@@####$%$#@@@@@@@#@####@@@@@@@@@##@@#####@@@@@##@@@####@@@@#@@@@##%###@++@@@@@@@@@@@@@@@@@@@",
"##############$$$##$$##$$$$########$$$$###$#######$$&$+$$$$$$$$$$$$$$$$$$$$########$###$$$$###################$##$%&*&%%$#$$$#$##$$$$$$$$$##$$$$$$$$$$#####################@@@@@##&*-+@@@++@++@@@@@@@@@@@@@@@@@@@@@@@@@@@@@@@@@@@+++@@@@@@++++@@@@@@++++@@@@@@++++++++++++++++++@++@@@++@@++++@@@@@@@@@@#@$%$##@+++@@@@###########@@##############$$###########$#####$%%%$$###@@@@@@@@@@@@@@@@@@#@@@######@@@@###@####@@############@@######@@@@####################@@@########@###$#######$%$###@@++@@@@@@@@@@@@@@@@@@@@@@@@@@@@@@@@@@@@@@@@@@@@@@#@@##%%$###@@+@#########@@#$$###########@@@@@@@@##########@@@@@@@#@@@@@@@@#@@@@@@@@@#@#@@@@@@@@@@@@@@@@@@@@@@@@@@@@@@@@####$&$#@@@@@@@@#####@@@@@@@@@#@@@######@@####@@####@@@@########$###@+@@@@++@@@@@@@#@@@@@@",
"############$$$$$$$$$$##$$%$$$$%$$###$#$$$$$$$$$$$$$$$$$$$$$$$$$$$$$$$$$$$$########$$$##$$$$###############$##$#@$%*=*&&&%%%$$$##$$$$$$$$$$$##$$$$$$########################@@@@##%*:=@@@+@#@@##@@@@@@@@@@@@@@@@@@@@@@@@@@@@@@@@@+++@@@@@@@@+@@@@@@@++++@@@@@+++@+++++++++++++++++@@@@++@@++++@@@@@@@+@@#@$%$##@++@@@@#####@@@####@###############$$$################$%%$$###@@@@#############@@#@@@######@@@@@#######@@############@@#####@@@@@##############@@#####@@##########@$$$######$%$##@@@++@@@@@@@@@@@@@@@@@@@@@@@@@@@@@@@@@@@@@@@@@@@@@@@@@@#%%$$##@@++@########@@#$$#@####@###########@######@######@@@@@@@@@#@@@@@@@@@#@@@@@@@@@@@@@@@@@@@@@@@@@@@@@@@@@@@@@@####$&$#@@@@@@@@#########@#@@@@@@@##################@@#@########$##@+@@###@@@###@#####@@@@",
"@###$$$$$$$$$$$$$%%%%$$##$%$$$&*&%$$$$$$$$$$$%$$&$$$$$$$$$$$$$$$$$$$$$$$$$$####$$$$$$$###$$$##$$$######$#####$###$%*=*%&%%%%##$##$$$$$$$$$$$$$$$############################@@@@###@&*#@@+@#@@##@@@@@@@@@@@@@@@@@@@@@@@@@@@+@@@@@@+++++@@@@+++@@@@@@@@@@+++@@@+++++++++++@++++++@@++@@@@@@@@@@@@@@@@@@@@@@$%$#@@@@@@@@#@#@@@@#######################$$$####$$########$$$$$##@@+@@#######@##@#######@############@@@@@###@@@@############@@#######################$$$$$$#$$$$##$$###%$####$#$&%#@@@@++@@@@@@@@@@@@@@@@@@@@@@@@@@@@@@@@@@@@@@@@@@@@@@##@@@&%%$$#@O++@@######@@@@######@#@@@@#########@@@@@@@@@@####@@@@@@@@@@@@@@@@@#@@@@@@@#@@@@@@@#@@@#@@@@@@@@@@@@@@@@@@@####$&$#@@@@@@@########$#*#@@##@##########@@@@@######@#######@#####@+O#####@####@@##@@@@@@",
"###$$$%%$$$$$$##$$$$$$$$$$$$$$$%%%$$$$$$$$##$$$$#$$$$$$$$$$$$$$$$$$$$$$$$$$###$$$$$$$$###$$$##$$$###############$%&=-*$%%$$$##$##$$$$$$$$$$$#$$$$$###########################@@@@#$%$+#@@+@#@@##@@@@@@@@@@@@@@@@@@@@@@@@@+++@@@@@@+@++@@@@@+++@@@@++@@@@+++@@@+@++++++++++++++++@@@+@@@@+@@@@@@@@@@@+@++@@$%$@@@@@@@#####@@@@#####@##################$$$#############$$$$##@@@++@#########################@@####@#@@#####@@@###@###@####@@####@####################$$$$##$$###$$$@#$$##@#$$$&%#@@@@++@@@@@@@@@@@@@@########@@@@@@@@@@@@@@@@@@@@@@@@@#@@+$$$$$##@@@@@####@@@@@@@@######@@@@@@@@@@@@@@@@@@@@@@@@@@@@@@@@@@@@@@@@@@@@@@@@@@@@@@@@@@@@@@@@#@@@@@@@@@@@@@@@@@@@####$&$#@@@@@@@#######+$###$#+@@@#########@#@@##############@@#%&%$@@@@@#@@@@@@@@@@@@@@@##",
"###$$$$$$$$###$$$$%$$$$$$$$####$$$$$%%$$$$$$$%%$$$$$$$$$$$$$$$$$$$$$$$$$$$$#######$$$$##$$$$###$$###############$$&=-=%%%%$$#####$$$$$$$$$$$$$$$$$$$$$$$$$$$$$$###$$$$########@@##&%$@#@@+@#@@##@@@@@@@@@@@@@@@@@@@@@@@@@@@@+@++@@@@@@@@@@@@+@@@@+++++@@++@@@@@@++++++@+++++@+++@@++@@@@+++@++@@@+++++++@@$%#@@@@@@######@@@@@@#@@@#############$$############$$#####$$$$##@@@++@##########################@@@#############@##@###@@#@##@@##@@@@@####@@###########@#####@@#######@@####@#$$$&%#@@@@++@@@@@@@@@@@@@@@@@@@@#######@@@@@@@@@@@@@@@@@@@@#@+++@###@##$##@#####@####@@#######@@@@@@@@@@@@##########@@@@@@@@@@#@@@@@@@@@@@@@@@@@@@@@@@@@@@@@@@@@@@@@@@@@@@@@@#@@@####$%%$#@@@@@@###@###<*O#@##+####@@@@@@#@@###########@#######$%*&%###@@@@@@@@@@@@@@@@@@@@",
"@@###$$$$$$$$$$$$$$%%$#$$$$###$$$$$%%$$$$%%$$$$$###$$$$$$$$$$$$$$$$$$$$$$$$########$###$$$$######################$%==*&%%%%$#####$$$$$$$$$$$$$$$$$$$$$$$$$$$$$$$$$$$$$$$$$$$$####$&##&#@+O+@++@@o.o@@@@@@@@@@@@@@@@@@@@@@@@@++++@@@@@@@@@@@@+@@@@++++@@@@@@@@@@@++++++++++++++++@@+++@@@++++++++@+@@++++@@$%#@@@@@@##########@@#@@######################$$#####$$####$$%$$##@@+@@####@####@@######@@@@##@@@@@#################@@##@@@@##@@###@@@@@@@@@@@##########@@@####@@####@@@@#@@###$$$&$##@@@++@@@@@@@@@@@@@@@@@@@@@@@###@@@@@@@@@@@@@@@@@@@@@##@++@@####$$#@@@######$$$#@@################################@@@@@@@@#@@@@@@@@@@@@@@@@@@#@@@@@@@@@@@@@@@@@@@@@@@@@@@@@@###$%%$##@@@@@###@###3*O$@+#%$###@@@@@@@@############@#######$$%%%$#@@@@@@@@##@@@##@@@@@@",
"@@##$$$$$$$$$$$$$######$$$$$$$$$$$$$$$$$%%$$##########$$$$$$$$$$$$$$$$$$$$$#######################################%**&%%$$$$$#####$$$$$$$$$$$$##$########$$$$$$$$$$$$$$$$$$$#####$%$#&$##@#@@+++@@@@@@@@@@@@@@@@@@@@@@@@@@+@+@@++@@@@@+++++@@@+@@@@++++@@@@@@@@@@++++@++++++++++@@@@++++@@+++@@@+++@@@@@@@$%#@@@@@@#######@@@@##@###################$$###$$$#########$%%%$$##@@@@@@@@@@@@@@@@@@@####@@@###@#@@@@#############@@@##@@@@@####@######@@@@@@@@@########@@@###@@###@@@###@@###$$%%$@#@@@++@@@@@@@@@@@@@@@@@@@@@@@@@@@@@@@@@@@@@@@@@@@##@@##@@####$$$###@@@@#####$$$$#@@@#################@@@@@@@@@@@@@@@@@@@@@@@@@@@@@@@@@@@@@@@@@@@@@@@@@@@@@@@#@@@@@@@@@@@@@@@###$%%%$#@@@##@@@@@##;%@#@##@@@@@########@@##@@####@@@@#######$$$$#@@@@#@@@@#############",
"$$$$$$$$$$$$$$$$$#######$##$$$$####$#$$$$$$###$$$$$$$$$$$$$$$$$#$$$$$$$$$$$#######$####################$##########&=*&%%$$$$%%$$$##$$$$#$$$$$$##$$#####$$$$$$$$$$$$$$$$$$$$######$%&=&$##@oX@@+@@@@@@@@@@@@@@@@@@@@@@@@@@@++@@@@+@@@@@++++++@@++@@@@++@@@@@@@@@@++++++++++++++++@@++++++@++++@@@@@@@@@@@@@$%#@@+@@@#@######@###############################$$$######$$%%%$$$##@@@@@@@@@@@@@@@@@@##@#@@###@@#@@##@@############@###@@@@@####@#######@@@@@@@@@@@@@###@@@@##@@###@@@#####$##$$%&%@#@@@++@@@@@@@@@@@@@@@@@@@@@@@@@@@@@@@@@@@@@@@@@@@#@@#$$$#$#@@###@@@@@@@####################@@@@@@@@@@@@@@@@@@@@@@@@@@@@@@@@@@@@@@@@#@@@@@@@@@@@@@@@@@@@@@@@@@@@@@@@@@@@@@@@@###$%%%%$#@@#@@@#####@@@@@@#@@@@@#########@##@@####@@@@#####@@$%%$#@#@@@@@@@##@@@###@@@@@",
"$$$$$$$$$$$$$$$$$$$$$$$####$$$$$$$$$$$$$######$$$$$$$$$$$$$$$$$$$$$$$$$$$$$###$#################################$#&=*&&%$%$$&&$$$$$$$$$$$$$$$$$$$$$$$$$%%%%%%%%%%%$$$$$$$$$$#####$&*;*$#%#=*X+O#@oo@@@@@@@@@@@@@@@@@@@@@@+++@@@@++@@@@++@+@@@@++@+@@@@@@+@++@@@@++++++++@+++++++@+++@@@@@@++@@@@@@@@@@@@#@$%$@@+@@@########@####################$$##########$$#####$$%%&%%$$$###@###############@@@###@#########@@@###@#@@########@@@@####@@@########################@@@###@@@#####$#####$#$&&#@@@@++@@@@@@@@@@@@@@@##########@#@@@@@@@@@@@@@@@@#@@#$%%$$$#@@@@@@@##########@#########@@#@@@@@@@@@@@@@@@@@@@@@@@@@@@@@@@@@###@@@@####@@#@@@@@@@@@@@@@@@@##@@@@@@@@@@@@@@@@@#@@$%%%%$#@##########@@@@@@#######@@@@@####@#@@###@@@@####@@@@$%%$###@@@@@@@@@@@@@@@@@@@@",
"####$$$$$$$$$$$$$#$%%%%$$%%%###$$%$$$$$$##$$$$$$########$$$$$$$$$$$$$$$$$$$###$#####$$##########################$#&=*&&%$%$$&&$#$$$$$$$$$$$$$$$$$%%%%%%&&&&&&&&&%%%$%%%%%%$$$$$$$%=%%%%$+@>:o@+O@oo@@@@@@@@@@@@@@@@@@@@@@@++@@@@++@@@@@@@@@@@@++@@@@+++++++++@@@++++++++++++@+++@+++@@@@@@+@@@@@@@@@@@@@#@$%$@@+@@@####@###@###########################$$$######$$#$$%%&&%%$$$##################@@@#############@@@###@@@@@###############@@@##################@@@@###@@@##@@@#####$#####$#$**$@@@+++@@@@@@@@@@@@@@@@######$$$####################@#$&%%%&%$###$+@#$%$$$$$#@@@#######@@@@@@#####################@@@@@@@@#####@@@@####@@@@@@#@@@@@@@@@@####@@@@@@@@@@@@@@@@@#@@#%%%%$#@###########$##@@@@#@##########@##@#@####@@@###@@@@@#$$$#@@@###@@@@@@@@@@@@@@@@",
"@#$$%%$$$$$$$$$$$$$$$$$$$$$$$$$$$$$$$$$##@#$$$$$$$$$$$$$$$$$$$$$$$$$$$$$$$$$$$$$$$##$$$$$$$$#####$###########$$#$#%=;-&$%%$$&%$##$$$$$$$$$$$$$$$$$%%%%%%%%$$$%$$$$$$$$$$$$$$$$$$$%&$@$%#+@**#+@@O++++++@#@####@+@@@@@+++@@@@@@#####@@@@@@@@@@@@@@@++++++++@+++++++++++++++++++++@@@@@@@@@@@@@@@@@@@@@@@@@#$$$%$#@@@###############################$######$$##$###$%%$%%#$%$$$$%#$$$#@@@@##$$$##@@@##########@@##########@@##$$#####################$$##################################@@#&&*=&@@++OO+@#####@@@@@@@@@@@@@@@@#################@@@#$#@#%&&**&%%$$#+@@##$%%$$$$$$#############################@++++@##$$$###################@@@@@@@@@@@@#########@@@@@@@###@@####$&%%%$$$#############@@@@@@@@@@@@@@@@@##################@@@$&*&%##+##@++#$$##@@@######",
"@@#$%%%%%$$$$%%%%%%%%%%%%%%%%%%%$$$$$$###@#$$$$$$$$$$$$$$$$$$$%%%%$$$$$$$$$$$$$$$$##$$$$$$$$$$$$#$$######$$##$%$$#%=-*&*%$%%%$$#$$$$$$$$$$$%%%%%%%%%%%%%%%%%$$$$$$$$$$$$$%%&%$#@@%*&$%%###@##+O@@@#@@++@@######@##@#$#@@#@+O+@@@@@@@@@@@@@@@@@@@@@@@@@+++++++OOO+++++++++++++++++++++@@@@@@@@@@@@@@@@@@@@#%%%%$@+@##@+@############################$$%%&**&$$%$#@%%$%%$$$%&%%$@#@@######@@####@@##$#$##$##@@######################@@##########@@###%$#@$##@@@##########################@@$&*==&$++OO+#$$$##############@@@@@@###@@@@@@@@%%$$##@@+OOOOO@$%%&*&$$$++OO+@######@@########@@@@@##@@@##@########@+OooO@@@+@@############################@@@###########@@@@####@#@@#%*&&%%$$######@@@@@@@@@###@@@@@@@####@@@@@@@@@@@@@@@@@@@@@#$&*&#@++#$#@@@@+@@###@@@@@@",
"#@@@@@#$$$$$$$##$%@@&*$%%%%%%%%%%%%$#####$$$$$%%%%%%%$$$$$$$$%%%%%%%%%%%%%%%%%%%%$$$$$$$$$$$$$$%%%$$##$#######$%$#%==&%=%#$##@#@@#$$%%%&@#$%%%$#######$##@##@+@@@@@@@@@@O+@##@+O+#%$#$$#+@%%@XXo++@++++++@@@@+++OOO+@@@@+OooO+++++++++++++++++++++++++++++@@@+++@@@@@@@@@@@@@@@@@@@@@@@@@@@@@@@@@@@@@@@@@@$%$$$%O+##@@##$$$$$$$$$$$$$$$$$$$$$$$$$$#$$%%&&=-=&$%*#$$$%$#$$$&$#$@+@##$$%%$$$%%$##$$$##########$&%%$$$$$$$$$$$#@@##@@@@@@@@@@@@@@@@@@@##@@##@@@##$$$$$$$$$$$##########@@@@@@@+@%$##++OOO+@@%%%%%$$$$$##@@@@@++++++@@@@@@+++@##@@@@@+oXoO++#%&&%&&&%$@OX..XooooOO++++++@@++@+@@#@@++@+++@@@@@@#@@@@@@@#####@@@@@@@@@@@##@@@#####$$$$$$$###############@@@######@@@$&%%$$$$$$$$$$$$%%$$########$$######$$$#@@##$$########@@@@@#$%%$#$#@+@@@@OooO@@@OOO+++",
"@+OooooO++@++OOOO+XX##+@@@@@@@@@@@@@@+@@#@@@@##$##@@@@@@##$$$$$$$$$$$$$$$$$$$$$$$$$$$$$$$$$$$$$$:*$$$$$%%$####$$$#$*=&$%$$%$#++oOOOOOOOOOOooooooooooooooooooXXXooooooooooooooooXooOOo+###@@@+oXoOoOoXooXXoXXX...X.XXXXooXXoXXXooooooooooooOOOOOOOOOOOO++++@@@++++++++++@@@+OO+@@@+OooO+@@##@##@@@@@@@@@+++@#@+#%%$###$$#######$$$$$$$$$$$$$$$$$$##@+OOoX  O%%+ooOoO++##%&%&$@#$@+++@#$$$##$#####$$$$$$$$$$$#$%$#&&&&%%&&&%%$####+++@@###@@+++++++OOO+OO++O+@###@+++++++++++++++++++OOOOo+oXO@@O+++OOoooO+++OOOOOOoooXXXXXXXXXXXXXXoooooXXXXXooOOOOO+#$$##$$$#####@OoXXXXXXXXXXXX. ..XXXoXXXoXXXooooooXXooooO++@@+O+@@@+O##@@++OO+++@+@@@@@##@@@@@@##@##@@@####@@@@@@@####@@+++@%$$$#@@@+@@@@@@##@@@@@@@@@@@@@@@++O++++@@@@@@@+++++++++++#$&&&&%$OoXXoooOOoXXoooooooo",
"@@+++OOOOOOOOOOooXXXooooooooooooOoXooOOOOoooooXX.XXXXXooOOOOOOOOOOOOOOOOOOOOOOOO+++++@+@@@@@@@@@%&%#@#$$$###@@@+@+@#&&%##$$#@++OOOOOOOO+++OooO++#@+oooOO++OOO++OooooooooooooooooooOoo+@##@@++OoooooooXoXXoXXXX.XXXXX..XXXXXXXXXXXXXXXXXXXXXXXXXXXXoooooooOOOoooXXXXXXXXXXXXXXXXXXXXXXooooooooooooooOoOooOoo+#@@$&$+oO+OoOOOOOOOOOooooooooooooooooXXXXXXXoo. .XoXXXO++###%%$$#@@+XXXXXooOOOoooooOO++++@++++OoooX.+++OOooooooO++++OOOoooooOoXO$+.oOoX.XooXXXoO++o...................XXXXXXo.XO+#@O+@@+oooOOoooXXXXXXXXXXXXXXXXXXXXXXXXXXXXXooooooooO@$#@+@##@@@@+OOOOOoXX.XXXXXXXXX...XXXXXXXooXXooooooXXooXXoOOOOOOooooooooooOooooooXXooooooooXXXXXOoXoOooOO+++@@@+OOOOOOOOoooO+$%$#@+OoooooXXXXXXXoooOOOOOOOOOOO@@OOoOOOOoooooooOOoooOOO+#%&&*&#OoXoOOOoOOOooOOooooo",
"###@@++++@@@+OOoooooooOOOOOOOOOO+OO+++OOoOOO++OooOO+++++OOOOOOOOOOOOOOOOOOOOOOOO++OOoooooooooooo.O@+oo+OoOOOoooOOOO+#%&%$$@+++@@+++++OOOOOOOO++++++++++++++O+@@+OOOOOOOOOOOOOOOOOOOoOO@@@@#@+OOooXXoooOOOOooooXoXXX.XoooOOOO+OooooOOOOOOOOOOoooooOOOOOO++++++OOOOOOOOOOOOOOooXXXoOOOOOOOOOOOOOOOOOOOOOOOOOO+$$@+$#+OOO++ooooooXXXXXXXXXXXXXXXXXXXXXXXXXXX.XoOoooO+O+@@@O@$@#%#OooXXXXXXoOooXooooooooXXXXXXXXXXX.Xo+Ooo+@@+O++OoXoooOOOOOX+O+#+oOOOoXoOOOOOO+++oXXXXXXXXXXXXXXXXXXoooooooOooO+#$$@##@OooOooooXXXXXXXXXXXXoooooooooOOOOOOOOOOOOOO++#@@+@@@#$%%%$####@@+++++++++++++OOO++OoooOOO+++++++++@@@@@@@@@@+++++++OOOOOOOOOOOOOoOOOOoooooooXXoX.XoXoooooOOOOOOooOOOOOOOOO+#%$#@@OOoOOOOO+++OOOOOOOOOO++++@@%#@OOO+++OOOO+++++OOOO+@O@##%&&%@@@OO+#@OOO+OOOO+@++",
"$##@@@@@@@#@@@++++OOOOOOOOOOOOO++++@@@@@@@++@@#########@#@@@@@@@@@++++++++++++++@+++OOOOOOOOOOOOOOOO++OO++OoooOOOOO+@$%%&&#@@++@#+ooO+++OOOOOOOOOOOOOOOOOOOO++++++++++++++++++++OOooooO+@@++++OOOoXoOOoOOOOOOO+OOOOOO+O+@#@##@+@@@@@@@@@@@@@+++++++@@@@@@@@@@+++++++++@@@@@@++OOOoO@@OoO++++++++@@@@@@@@@@@@$$#+@@@+O+@#OOOOOOOooooXXXXXXXXXXXXXooooXXX.XOoXXooooooooO+@@#$$#@OOooooOOOO+OooO+++OOooooOOOOO+OOO+++++++++++++++++++++@@@@@@##########@#####@@##@++OOOOOOOOOOOOOOOOOOO++++@@+@#$%%%$##@++O++++OOOOOOOOOOO++++++OOOOOOOO++++@@@@@##$$$#$%&&%%%%$$%%%$####$$#@@@@@@@@@++@@+oooooO+@+$$$$$$$$%%&&%%%%%$$$$$$$###########@@@@@@++++@#@@+@+O@@@@@@+++OO++++@@##@++@@@@#$$$$##@@@@@@@@@@+++++++++++@@###@++OOO++++++OOO+++OOO+@###@##$##@$%$@@##@@@#@@@@####",
"%%$$$$#######$$$##@@@+++++++++++@##$$$$$$##@##$$&&%%$$$$%%%%%$$$$$$$$$##########$####@@@@@@@@@@@$@++#@+##@++OOOo+++@###$%*$##@@@@+OooO+@@@@@@@@@@@@@@@@+++@@+++@@@@@@@@@@@@@@@@@@@+OOOO+++##@OOOOOXXoOooOO+++@#@++@@@#$$$$%%$$$$$$$$$$%%$$$$############$$$$$$$##@@@@@@@@@@@@@@@@@@@@@@@@@@@@@@@%%%%%&%%%%%$#$$#@###@++@++++++++++++++++++++++++++++OOOOOOOOOOOOoO+OoO+@@@%%#@@+OOOOOOO+@@++@@@@++OOOO+++++++O+@@@@@@@@@@##@@##$$$$$$$$%%%%%%%%%$$&&$$$$%%%%&&%$%%%$$####$$$$$$$$$#######$$%&&%%%$$$%&$#####@@@@@@######$$$$##@@@@#####$$$$$$%%%$##$%&==*%$#$$%&&&%%$$$$$$$$$$$$$$$$$$#@@##$%&************=*&&&&&&&%%%&*==**&&%%&&&&&&%%%$##$%&&%##@@#$#######@@@@++@@@##@@####$%%%%$$$$$#####@@@@###$$$###$%%&&%%$#####@@@###@@@@+++@#$#+@%&$@@%$$%&#O+#$###$$$$$$$",
"--=*&&&%%%%%%%%%$$%$@###@@@+@@@@##$%%$$$$%%%%%$%%&&&&&&&&&&********&&%%%%%%%%%%%$$$$$#@@@@@+@@###@@##@@@#@+@@+OO+++@##$%&&&%$$$###$#$##$$$$$######################################@@@++++++@##$%++OoO+OOoOOooO+O++@@@#%&%%&&%%%%%*%&:;**&&&&&&&&$%%&&%$#***&&%%%$##########@@++@@@@+@#$%*%#$&===******&&&&&&&&&&%%$$###########################@#################@#@@@@##@$$#$##@@@@@@@@###$$$$##@+@@++@@######$$$$%%%%%%&&&&&&&******==**===******&%%%$%****&****&%$####$%&&%%&&&&&&&&&&&&&&&&&&&&&%$%%%&%$%%%&&%%%%%%%%%%%%%%%%%%%%&&&&&&***&&%%%%%%%&&**&&%$$%%%%%%&&&&&&&&&&&&&&&%%$##$&*=--=======****&%%%%%%%&&&&&&&&&&&&&********-==**&&&**%$$$$%%$$$%%%%$$$$$$$$%%%%%%%%*=*******&%%%%#@#$%%%&****&%%&*==*&%%%%%$##$%%%$$$$$$$$%$###$%&&&%$#$%%%%%$$$%%%%%%%",
"::;--==*****&&%%&**%$&$$@@@+@@+@###$$$%%&&&&%%%%$%%&&*******==--------*&%%&&%%%%%&&&&%#@@@@@@@@@@+@#####$$####@#####@#%&&&&&%%%%%%&%%%%%%%$$$%$$$$$$$$$$$$$$$$$$$$$$$$$$%%%%%%%%%$$#####@@########@++@@+OOOOoOOO@++++@#%*-;;;;;;;;-==-;;;-------******&&&&%%$$##&%$##$%%%$$#@+@@+OO+#$%&*************************&&%&&&&&&%%$$$$$$$$$$$$$$$$$$$$$$$$$$$$$$$$$$$$%%$$#$%%$##$$$$$$$%%%%$$#$%%%$%%%$$%%#@#$%%%%%&&&&&&&******===========---------===========***=--=*%$@@++@$&*&%&*===**&&&&*******&***&&*=*==***&&&&**&&&&&&&&&&&&&&&&&****===*=======*&%%&*=-----=-==---------=--====&%$#++@$&*==****&%%%%$$$%%%%%%%%%%%$$$%%&&&**=******=&%&*=&%%%#@+@#$%&&&&*=*&&&&&&&&&&&**=====--**=-===*=*%#$&**&*===*&%%&*==*&%%&&&%%$$%%&&&&&&&&&&&%$##$&&&**&&==*&&*==*&&&&&&",
">>>>>::;;;;::;;;;:;=&&#@@++@@@@@$&===**====*&&*=-----;;;;::;;;;;-==-::;-***==---;;-==&$@++@###@@@@@#$$$%%$$$$$$#####@#$&&&&&&&&&&&&&&&&&&&&&***&&******&&&&&&&&&&&&&&&&&&&&&&&&&&&%&&*********&&%%$#@#$#++@@@++@##@@#$%*-;;;::::::::::::::::::::::::::::==========*&&*=====&$@++OOO@$&**=-;;==-;;-------------------=**&&&&&&*&&&&&&%&&&&&&&&&&&&&&&&&&&&&&&&&&&&******%&*%*=&&****&&&&&&&***&****&&%$@+@$%%%&*****===---------;;;;;;;;;;;;-;>>::::::::::>>,,>;-&%#@+++@#$%%&&*************===--=**=--=*-**--==*****************&&&&&&&**=-:>>>>:-====**&***=-:::;;--===-;;;;;;;;---*&$#+O+$&*=======**=***=--;-;-------;-====-;---=====-=*&&*=-*$$#@@#$##$*-=*&@##$%&*===========**&&&&&==**==*%$$%****$%*====*==********&**=---===--=-==;:;-=-----;-==*==---=*&&&&",
";;;;-----;;:::::::>>;=##@+@@@@@@%*--==**===*&&&*=********=****&&%%&&&&*************&&&$#+@@@##@@@$%$$%&&&%%%$####$$%%%&***&&&*****===***=======*=======================================----------===**=*%$$%$#@###@#$%%%&%##$$$$###$$%%%&##*=&$$$$###$&*=*&%%&*===-;;-==-:>:=%#@@@@@#%=;::::::::::::::::>>:::::::::;;;----------==================================*=====**&*=*&**==*&*--===--=-;;-*%%%$@+#&&*=-:::>>>>>>>:::::::>>>>>>>>>>,,,,,,>>>>>>>>:;;-----&%#@OO++@#&*=&%%%%%&&***==----;;:>:::>:-:=*=--*&&**=-;::::;;---==---;;;;;;;;;;:::;::;--;;;---=****====************&&&&%#+OO@%*==;;;;;:::::::::;;::::::::>>>>>>>>:::::::::;::>>>>:*###++#%%%&&%&&%%%&&***********=*&&==*&%%$$%=-=%#@$***=********=***=-------;;::::::::::-=:<1,>:::;;;-;:;-=-;;;;;;;;",
"$$######$$$%%%&&&&*::-$@@+++@@@@##$$$$####$$##$$@@@@@@@@@@@@@@##+#%%#@@@@@@@@@@@#####$$#@@@@@@##$&===;;--:;*$##$%%*---;:::;;---=&**&&&&***&&&=**********========*==--;;;;;;;;;;;;;;;;------=--;::;;;====*%%**%$%@@++++@@@@+OO++++++++++++++++++++++++++++++OOoooO++++++++#%&%#@@@+++#%=-::::::::::::::::::>,,>:;;:>>>>>>>>>>>>>>>>>:::::::::::::::::::::::::::::>:;;;;:>*&=--;---;;--;>,>>>>>>>>,>;*&&%$##%*-:>,,,>>:;;------====***&&&%%%&&%$#$$$##@@@+++OOO+#$%$#@++@@+@$*==-;;;;;::>>>>>>:::;::-*===*=;-=--==&-::-==---;;::>>:;;---==*&$##$$%&=*&%&&%$%%$#+++++++++++++++++++@@@@#$#@+++@$&&&$$$$$%%%%%%%$$$$$$######$$$##@@@#$$%%&&&%%%&&&&*=*$+++@$*==&&*=-*&&%&*=--;:>>:;--;::--;::;;:,<,:-=&*=;:;::::::::::;;;:::::::;;::::::::::;----=***&&%%%&&&&&&**==----",
"$$###$$$$$###$$$%$$&*=%#@+++@@@@@@@@@@@@@@###########@@@@@@@##$#####@@###########$###$$#@@@+@@##&;,:-;;;;:>;*%%%&*->>>>>>>>>>>>>:--;;**----=====-----------==***=------->>>>>>>>>>>>::;;;;-=-;:>>;;;----=**==*&&@@@+OO+@++@@++@@@@@@@@@@@@@@@@@@@@@@@@@@@@@@@@@@++++++++++@##@@@+OO+@#@@@@@@@@@@@@@@@@@@$%%%&&***==**&&%$$$%&&***===============----------========:;;:;;-*-:------====-;::::;;-=;;-*$$%%#@@$&==*&%#@@@###@@@@+++@@+OO+@@@@@++@@@@@@@@@@@@@@@@####@++++@#$*====**=========*&&&%%%$#@+OOOO+@#+O$*=**&$#+Oo++@@###$########@@@@@@+++++O++++++OOO+@@@#############@@#$##$$#@++++#$#@@@++@@++@@#@@@@@@@@@++++++++++++++++++++OO++++@@#$$@++@$:,,>>,>;,:--;:::>,>:-=;>::::::::;;::;;;;=-=*&=--========>>::;------=**===**&&%%%&*%@++@@@@++@++O+##++@#$@#%&",
"$$$$$$$$$$$$$$$$%%%%%=&%#@@#######@######$%$#@@##$$#############%#@+@#$$@@#@@@@##$$#$&%$@@@@@@##$=;=%$$%$$*-=&%%&*-;;-===*****==;;-=*&%%%***=;;-=======***==---;;;;;;;;;::::::::::::::::>>:;;:>>>>>:>>:::;----*%++++O+@@@+@###@@@@@@@@@@@@@@@@@@++@@@@@@@@@@@@@@@@@@@@@@++#$$#@+++++++++++@@@@@@@@@@@@@@@@@@#%&**%##@@@@@@@@@@@@+++++++++++++++@@@@@@@@@@@@@@@@@@@$&*&$%=*$#@+@@@@@#$$########@@#$$$#@@##+OO+++OXoO+@@+++@@@@@@++++@@#####@@@##@@++++++++++@##@###@+++++#%%#@#@+OOOOOOOOO+++OOOOO+@@+oO@##$#+O+OOO++@@@@@+@@@@@@++++@@@@@#$#@+++OO+@+O+@@@@##@@########################@+oo+@@@+++++++++++@@@@@@@@@@@@@@@@@@@@@@@@@@@@@@@@@@++++#$###OO#&=-*$%=:51,,:&@O&-&OO++$@@@@@@@@+++++@$=*=*%@@@@@@@@@@@@&***&%%%&**&%%%%%$$$$$$$%%#@@##@@#$$#####$########$$",
"$$$$$####$$$%$$$$#%&%&$@@+@#$%%$##@#$$##@@###@##########$$$$##############$$$$$$$#$$%**%+@@@@@@@@++$%##$%%*--&&====-*%$$$$$$$$$$@$&=-=&%%%$##$$$$$$$$$$###########$$$$$$#########$%%**=->>:;;;::*=**===*==***=&#@@@++++@@@@@@@@@@@@@@@@@@@@@@@@@@@@@@@@@@@@@@@@@@@++@@@@++@$$#+++++++@###@@@@@@@@@@@@@@@@@@@@@@@@@@@@@@#########@@@@@@@@@@@@@@@@@@@@@@@@@######$$#@%%#$%*=%@#####@#%&%$@#####$#@##$%%#++@@++OOO+@@@@@@@@@@@@@@@@@@@@@@@@@@@#@@@@@@@@@@@@@@@@@@@$%$#@+++++++@##@++@@@@@@@@@@@@@@@+++@@@@@@@@##Oo+OO++@@##@@@@@@@@@@@@@@@@@@@@@@@@@@@###@@@##@@##@@@@@@@@@@@@@@@@@@#####$#@O+##@@+@@@@@@@@@+++@@@@@@@@@########@@@#####@@@@@@@@@@@$%$@@++@@++@@+#&;*%#$$#@++@@##$##########@@@##$&=**&$@+@@@##$$$$$$$%$$#$%&**&%$$$$$$$$$$#######@@@###@+@@@######@+++",
"$$$$$$##$$$$$$$$$#$$%&$@@++@@#@######$#################$$$############$$$$$$$$$$$%$$%&*%#@@@@@@@##$%$#$%$%&*==****&%$$$$##$$$$%$$$&*=:>&$$%&%$###$$$$$##$%%$#####$$$$$$$$$$$$$$$$%%&&**&**-:>=$+$$##@#########%&$#@@++++@@@@@@@@@@@@@@@@@@@@@@@@@@@@@@++@@@@@@@@@++@@@++@@##$#@+++++++@@@@@@@@@@@@@@@@@@@@@@@@@@@@@@@@@#######@@@@@@@@@@@@@@@@@@@@######@@@###@@###################$$$$$$$$$#####$$%%#@++@++OO++@@@@@@@@@@@@@@@@@@@@@@@@@@@@@@@@@@@@@@@@@@@@@@@@#$#@@++@++@@@@@@@@@@@@@@@@@@@@@@@@@@@@@@#######@@@@@@@@@@@@@@@@@@@@@@@@@@@@@@@@@####@@@@#######@@@@#####@@@@@@@@@@###$$#@+++@@@@@@@@@@@@@@@@@@@@@@@@@@@@@@@@@@@@@@@@@@@@@@@@@@@###$#@+++@###################################@@@@&&&%$#############################@@@@@####@@@##################@@#$",
"$$$$$$$$$$$$$$$$$#$%&=&###@@##########################################$$$$$$$####$$$%**&$@@##@@@$$$$%&%$%&=-;:;;**&%$$$$$$$$$$$$$#&*%%&#$$&&$@OoO@$%$##$%$#@#$$$$$$$$$$#$$$$$$$$$$%&&&&&&=-=%#$%$$$###########$&$@@@+O+@@@@@@@@@@@@@@@@@@@@@@@@@@@@@@@+++@@@@@@@@++@@@+@@@@#$#@@+++++++@@@@@@@@@@@@@@@@@@@@@@@@@@@@@@@@@@@@@@@@@@@@@@@@@@@@@@@@@@@######@@@@########################$$$$$$$$####$$%%$#@++@+++++@@@@@@@@@@@@@@@@@@@@@@@@@@@@@@@@@@@@@@@@@@@@@@@@@%$@@@+++++@@@@@@@@@@@@@@@@@@@@@@@@@@@@@@@@@@#@@@@@@@@@@@@@@@@@@@@@@@@@@@@@@@@@#@####@@@@####@##@@@@#####@@@@@@@#@@@@#$$@@@++@@@@@@@@@@@@@@@@@@@@@@@@@@@@@@@@@@@@@@@@@@@@@@@@@@@#$$##+++@@@####@@######################@@######@@%$$$$################@################@##@@@@@######################",
"$$$$$$$$$$$$$$$$$%&&&*&$###@+@#################################$$$$####$$$$$$#####$$%&*&$@@##@@@$$$$$&%$#%=:>:;-*&%%$$%%%$$$$$$$$%$&=%@%$%&&%$#@@@#$$#$%$$$$#$$$$$$$$$$$##$$$$$$$$%%&&&&#&*%####$$############%&#@@@OoO@@@@@@@@@@@@@@@@@@@@@@@@@+@@@@@++@@@@@@@@@@@@@@@@#@@###@@++++++@@@@@@@@@@@@@@@@@@@@@@@@@@@@@@@@@@@@@@@@@@@@@@@@@@@@@@@@@@@@##@@@@#@######################################$$%%%#@@+@+++++@@@@@@@@@@@@@@@@@@@@@@@@@@@@@@@@@@@@@@@@@@@@@@@@@%%@+@+++O+@@@@@#@@@@@@@@@@@@@@@@@@@@@@@@@@@@@@@@@@@@@@@@@@@@@@@@@@@@@@@@@@@@@@@@##########@@@@@@@@@######@@@@@#####@@$$@@@@@#@@@@@@@@@@@@@@@@@@@@@@@@@@@@@@@@@@@@@@@@@@@@@@@@@@@%$#@+++@@@@@@@@@################@#@@#@@@@@######################@@##@@@@#############@##@@@@@####################$#@",
"$$$$$$$$$$$$$$$$%%&&&*&%$$$#+@################################$$$$$$$$##########$$$$%&&%$$#@@@@@###$$#$$%%&**&%%&&%%$$%%%%%%%$$$$%+.@%%%$$$%$$%%%#@#$$$$#$%%%$$$$$$$$$$$$$$$$$$$$$$%%%%%$$###$############$$#$%&$@@@+OO@@@@@@@@@@@@@@@@@@@@@@@@@+++@@@@@@@@@+++@@@@@+@@#@@@##@@@++++++@@@@@@@@@@@@@@@@@@@@@@@@@@@@@@@@@@@@@@@@@@@@@@@@@@@@@@@@@@@@###@@@#########################################$%%$#@@+++++++@@@+@@@@@@@@@@@@@@@@@@@@@@@@@@@@@@@@@@@@@@@@@@@@@%%#@@+++++@@@@@#@@@@@@@@@@@@@@@@@@@@@@@@@@@@@@@@@@@@@@@@@@@@@@@@@@@@@@@@@@@#@@@@##########@@@@@@##########@@@######@@$$@@@@@#@@@++@@@@@@@@@@@@@@@@@@@@@@@@@@@@@@@@@@@@@@@@@@@@@@%$#@@@@@@@@@@@@#@###############@@@@#@@@@#######@@@@@@@@@@@@@@@@@@@@@@@############################################@",
"$$$$$$$$$$$$$$$$$$$%*=&&&%$#@@@###############################$$$$$$$$#######$$$$$$$%&&%$$##$$##$##$$$$$$%%%&&**&%%$$$$$%%%$$$$$#$#++#$#$$%%&&%%$$#@@###$$%%%%$$$#$$##$$$$$#$$$##$$$%$$$#@@#$####$########$$#$%&$@@@+OO@@@@@@@@@@@@@@@@@@@@@@@@@+@@@@@@@@#@++++@@@@+@@@@@@@##@@@@+++++@@@@@@@@@@@@@@@@@@@@@@@@@@@@@@@@@@@@@@@@@@@@@@@@@@@@@@@@@@@@##############@@#############################@#$$%$#@@@+++++++@+++@@@@@@@@@@@@@@@@@@@@@@@@@@@@@@@@@@@@@@@@@@@@%%#@@++@++@+@@@@@@@@@@@@@@@@@@@@@@@@@@@@@@@@@@@@@@@@@@@@@@@@@@@@@@@@@@@@@@@@@@@@##########@@@@@@###@@@@@########@@@@#$$#@@@@@@@@@@@@@@@@@@@@@@@@@@@@@@@@@@@@@@@@@@@@@@@@@@@@@@@@$$#@@@@@@##########################@@@##@@#########@@@@@@@@@@@@@@@@@@#############$$######$$$#####################$%",
"$$$$$$$$$$$$$$$$$$#$&=&$%&$##@+@##############################$$$$$$########$$$$##$%&**&$#@#$#@##$%$$%%%$%%&&&**&%$$$$$$$$$$$$$$$$$$$$$$$$%*--=&&*&$$$$#$$$$%%$$$$$$$$$$$$$$$$$###$$$$###@@#$###$$$##$$$##$$##$%$#@@+OO+@@@@@@@@@@@@@@@@@@@@@@@@@@##@+++@@@+++@@@@++@@@@@@@##@@@@+++++@@@@@@@@@@@@@@@@@@@@@@@@@@@@@@@@@@@@@@@@@@@@@@@@@@@@@@@@@@@@##############@@##@#########@######@@@@@@######$$%$##@@+++++++@+@+@@@@@@@@@@@@@@@@@@@@@@@@@@@@@@@@@@@@@@@@@@@@%%#@@++@@+@+@@@@@@@@@@@@@@@@@@@@@@@@@@@@@@@@@@@@@@@@@@@@@@@@@@@@@@@@@@@#@@@@@@@#######@###@@@@@@###@@@@@@#####@@@@#@#$$#@@++@@@@@@@@@@@@@@@@@@@@@@@@@@@@@@@@@@@@@@@@@@@@@@@@@@####$##@@@@#$$########################@@##@@######$$##@@@@@@@@@@@@@@@@@##############$$$##########################@@$%",
"$$$$$$$$$$$$$$$$$%%%*=*$%&%$$$################################$$$$$$$##$$$$$######$%%&&%%$#@@@+@#%&$$$%%%%%%%%%%%%$$$$$$$$$$$$$$$$$$$$$$$$$%=-=*-*%$$%$##$%%%$$$$$$$$$$$$$$$$$$####$$###%#++@#$$######$##$$$$$%%%$#@++++@@@@@@@@@@@@@@@@@@@@@@@@@@@@@++++@@@@@@@@@+@@@@@@@@#$#@@@+++++@@@@@@@@@@@@@@@@@@@@@@@@@@@@@@@@@@@@@@@@@@@@@@@@@@@@@@@@@@@@@@@@@@@@@@@@@@####@@@@####@@@@####@@@@@@@@#####$%%$###@+++@+++@@@@@@@@@@@@@@@@@@@@@@@@@@@@@@@@@@@@@@@@@@@@@@@@%%#@@@+@++@@+@@@@@@@@@@@@@@@@@@@@@@@@@@@@@@@@@@@@@@@@@@@@@@@@@@@@@@@@@@@@@@#@@@@####@@@@####@######@@@@@@@####@@@@#@#$$#@@++@@@@@@@@@@@@@@@@@@@@@@@@@@@@@@@@@@@@@@@@@@@@@@@@@@@##$$$#@@@###$$$######################@@##@###@@##############@@@@@@@@################################################",
"$$$$$$$$$$$$$$$$$%%&*=*%#$$########################$#########$$$$$$$$$$$$$$##@@@#$$%%&&%%%$$####$#@$$$$$$$$$$$$$$$$$$$$$$$$$$$$$$$$$$$$$%%%$&*==&$#####$#$%&&%%$$$$$$$$$$$$$$$$#########@##@@##@@#####$##$$$$$%&%$#@@++++@@@@@@@@@@@@@@@@@@@@@@+@@@@@@@@@@@@@@@@@++@@@+@#@@#$$@@@++++++@@@@@@@@@@@@@@@@@@@@@@@@@@@@@@@@@@@@@@@@@@@@@@@@@@@@@@@@@@@@@@@@@@@@@@@@@####@@@@###@@@@@###@@@@@@@@@@####$%%$###@@+@@+++@@@@@@@@@@@@@@@@@@@@@@@@@@@@@@@@@@@@@@@@@@@@@@@@&%#@#@++O+@@@@@@@@@@@@@@@@@@@@@@@@@@@@@@@@@@@@@@@@@@@@@@@@@@@@@@#@@@@@@@@@@@@@@@@@###@@@##########@@@@@@@@####@@@@#@#$$#@@++@@@@@@@@@@@@@@@@@@@@@@@@@@@@@@@@@@@@@@@@@@@@@@@@@@@@$%%$#@@@############################@@######@@@@@@@######@#######################################################$#@",
"$$$$$$$$$$$$$$$$$$$&==*%#@####################$############$########$$$$$$$$$$$$$#$$%*&%$$$$$$#$$###$$$$$$$$$$$$$$$$$$$$$$$%%$$$$$$$$$$%%%%$$$$$###$#@#$$$$$%%%$$$$$$$$$$$$$$$$################@######$##$$$##$%%$#@@#@O+@@@@@@@@@@@@@@@@@@@@@@@@+++@@@@@@@@@@@@@++@@@+@#@@#$$@@@@+++++@@@@@@@@@@@@######@@@@@@@@@@@@@@@@@@@@@@@@@@@@@@@@@@@@@@@@@@@@@@@@@@@@@@@########@@##########@@@@@@@@#####$%%$$##@@@@@@+@@@@@@@@@@@@@@@@@@@@@@@@@@@@@@@@@@@@@@@@@@@@@@@@@&%###@++O+@@@@@@@@@@@@@@@@@@@@@@@@@@@@@@@@@@@@@@@@@@@@@@@@@@@@@@@@@@@@@@@@@@@@@@@@@@#####@@@#######@@@@@@@######@@@@#$$###@@#@@@@@@@@@@@@@@@@@@@@@@@@@@@@@@@@@@@@@@@@@@@@@@@@@@@%$$#@@@##@@##########################@######@@@@@@@@@###@@################@@@######$######$$$####################$#$",
"$$$$$$$$$$$$$$$$$$#$==&%$@@##++@#########$$#####$$##############@@####$$$$$$$$%%$$$$%&*%$##$#@@$$##$$$$$$$$$$$$$$$$$$$%%%$%%%$$$###$$$%%&%%$$$$$$$$$$$$$%%$$$#####$$$$$$$$$$$$$##########################$$$#$$%%$@@#$@o+@@@@@@@@@@@@@@@@@@@@@@@@@@@@@@##@@@+@@@@@@@@@@@@@##$#@@@@+++++@@@@@@@@@@@@######@@@@@@@@@@@@@@@@@@@@@@@@@@@@@@@@@@@@@@@@@@@@@@@@@@@@@@@@@@@@@@@@@@@@@######@@@@@@@@#####$%%$###@@+@@@@@@@@@@@@@@@@@@@@@@@@@@@@@@@@@@@@@@@@@@@@@@@@@@@@@%%$##@++++@@@@@@@@@@@@@@@@@@@@@@@@@@@@@@@######@#####@@@@@@@@@@@@@@@#@@@@@@@@@@@@@########@@#######@@@@@@####@@@@##@#$$###@@#@@@@+@@@@@@@@@@@@@@@@@@@@@@@@@@@@@@@@@@@@@@@@@@@@@@%$#@@##@@@##########################@@######@@@@#@@@@@@@@@@###############@@@@@@@#$$$$#@@@#$$$##@###############$$#@",
"$$$$$$$$$$$$$$$$$%$%=;=&&%$$%$################################$$$$$$########$$$$$$$$%&*&%$$$$@@$$##$$$$$$$$$$$$$$$$$$$$$$$$$$$$#$$$%%%%%%%%$$$$$$$$#$$$$$$##$####$$$$$$$$$$$$$$####################@#####$$$$$%&&%$#@@@@@@@@@@@@@@@@@@@@@@@@@@@@@###@+@@##@@++@##@@@@#@@@@###@@@@@+++++@@@@@@@@@@@@@@@@@@@@@@@@@@@@@@@@@@@@@@@@@@@@@@@@@@@@@@@@@@@@@@@@@@@@@@@@@@@@@@@@@@@@@@@@#####@@@@@@@######$%%$###@++@@@@@@@@@@@@@@@@@@@@@@@@@@@@@@@@@@@@@@@@@@@@@@@@@@@@@$%$##@+@++@@##@+@@@@@@@@@@@@@@@@@@@@@@@@#############@@@@@@@@@@@@@#@@@@@@@@@@@@@######@@##@@##@##@@@@########@@@@##@#$$###@@@@@@@@@@@@@@@@@@@@@@@@@@@@@@@@@@@@@@@@@@@@@@@@@@@@@@%$@@@#@@@######$###################@@@@#@@##@#######@@@+@@@@###############@@@@@@@#####@@@#####@###############@@@@@",
"$$$$$$$$$$$$$$$$$#$%*;-*&%$#$$#######################$$########$$$$$############$%$$%&&%$%%%%$##$$#$$$$$$$$$$$$$$$$$$$$$$#$$$$$#$$%%%%$$%%%$$%%%@$$$##$$$$##$$$#$$$$$$$$$$$$$$$####################@@#####$$#$%&%%%$++@%#@@@@@@@@@@@@@@@@@@@@@@@@###@++@@#@@@@@###@@@@@#@@@##@@#@@@++++@@@@@@@@@@@@@@@@@@@@@@@@@@@@@@@@@@@@@@@@@@@@@@@@@@@@@@@@@@@@@@@@@@@@@@@@@@@@@@@@@@@@@@@@@####@@@@@@@@#####$%%$#@@@++++@@@@@@@@@@@@@@@@@@@@@@@@@@@@@@@@@@@@@@@@@@@@@@@@@@@$%$##@++++@###@@@@@@@@@@@@@@@@@@@@@@@@@@########@@####@@@@@@@@@@@@@@@@@@#@@@@#@@######@@###@#@@@@@@@########@@@@@@###%%###@@#@+@@@@@@@@@@@@@@@@@@@@@@@@@@@@@@@@@@@@@@@@@@@@@@@####$###@@@##########################@@@##@@###########@@@@@@@@#############@@@@@###@@@@####@@@@#################@@+@@",
"$$$$$$$$$$$$$$$$$##%*=-=&%$$########$####################################$$$$$$$$$$$&**%$%%%%$#####$$$$$$$$$$$$$$$$$$$#####$$$$#$$$$%%%%%%%$$%%%$$%&%#$$$$$$#$$$$$$$$$$$$$$$$$$####################@@#########$%%###@++@#@@@@@@@@@@@@@@@@@@@@@@@@@@@@@@@@@#@@@#####@@@@##@@##@@@@@@++++@@@@@@@@@@@@@@@@@@@@@@@@@@@@@@@@@@@@@@@@@@@@@@@@@@@@@@@@@@@@@@@@@@@@@@@@@@@@@@@@@@@@@@@@@@@@@@######@@@@@@$%%$@@@@+++++@@@@@@@@@@@@@@@@@@@@@@@@@@@@@@@@@@@@@@@@@@@@@@@@@@%%###@++O+####@@@@@@@@@@@@@@@@@@@@@@@@@@@@@@@@#########@@@@@@@@@@@@@@@@@@@@@@@@@######@@##@@@@#@@@@@########@@@@@@###%%###@+@@@@@@@@@@@@@@@@@@@@@@@@@@@@@@@@@@@@@@@@@@@@@@@@@@@@#$%$#@@@#####$##################@@@@@@@@@@##############@@@@@###############@@@###@@@@#####@@@####################@@",
"$$$$$$$$$$$$$$$$$$$%&*==*%%%####$$$$$###########$###################$$$$$$##$$$$$$%%&*=*&%$$$#@###$$$$$$$$$$$$$$$$$$$$#####$$$$#####$%%%%%%$$%&%&%$%$##$$$%%$#####$$#$$$$$$$$$$###################@@@@#######$%&%#@#$$@@@######@@@@@@@@@@@@@@@@@++++@@@@@###@@##@@@@@@@##@@#$#@@@@@++++@@@@@@@@@@@@@@@@@@@@@@@@@@@@@@@@@@@@@@@@@@@@@@@@@@@@@@@@@@@@@@@@@@@@@@@@@@@@@@@@@@@@@@@@@@@@@@@####@@@@@@@$%%$@@@@+++++@@@@@@@@@@@@@@@@@@@@@@@@@@@@@@@@@@@@@@@@@@@@@@@@@@%%#@#@++O+####@#@@@@@@@@@@@@@@@@@@@@@@@@@@@@@@@@#######@@@#@@@@@@@@@@@@@@@@@@@#@###@##@@##@@###@@@@#########@@@@@@###%%$##@+#@@@@@@@@@@@@@@@@@@@@@@@@@@@@@@@@@@@@@@@@@@@@@@@@@@@#$%$#@@###@#####@#################@@#@@@@@######@@#######@@@@############@@####@####################################",
"$$$$$$$$$$$$$$$$$%$%&*&&&$###@@##$$$$######$#################$$$$$$$$$$$$########$$%%&***%%%%%$$$$$$$$$$$$$$$$$$$$$$$$$####$$$$####$$$%%$%%##%&%%$#####$$$$$$####$$$#$$$$$$$$$$##################@@++@@######$%*&%@@@@+++@@##@@@@@@@@@@@@@@@@@@@@+@@@@@@###@@@@#@@@@@@@@###$$#@@@@@++++@+@@@@@@@@@@@@@@@@@@@@@@@@@@@@@@@@@@@@@@@@@@@@@@@@@@@@@@@@@@@@@@@@@@@@@@@@@@@@@@@@@@@@@@@@@@@@@####@@@@@@@$%%$#@#@@@@++@@@@@@@@@@@@@@@@@@@@@@@@@@@@@@@@@@@@@@@@@@@@@@@@@@%%#@#@++++###@@#@@@@@@@@@@@@@@@@@@@@@@@@@@@@@@@@#######@@@@@@@@@@@@#@@@@@@@@@@@@#@@@#######@###@@@@#########@@@@@@###%%###@@#@@@@@@@@@@@@@@@@@@@@@@@@@@@@@@@@@@@@@@@@@@@@@@@@@@#$$###@@@@@@############################@#######@@@######@@@@@###########@@#######################################$$%",
"$$$$$$$$$$$$$$$$$$$%*-*%$#@#$$###########################$####$$$$$$####$$#######$$$%&%%%%%&=*%$$$$$$$$$$$$$$$$$$$$$$$$$##$$$$$##$$$$$$$$%%$$%&%#$$$%%%$$$$##$$$$$$$$$$$$$$#$$$###################@@@@########%&&%#@++@#@@@@@@@@@@@@@@@@@@@@@@@@@@##@@+@###@++@##++@##@@@##$$###@@+++++@@@+@@@@@@@@@@@@@@@@@@@@@@@@@@@@@@@@@@@@@@@@@@@@@@@@@@@@@@@@@@@@@@@@@@@@@@@@@#@@@@@@@@@@@@@@@@@@##@@@@@@@@#&%$####@@@+++@@@@@@@@@@@@@@@@@@@@@@@@@@@@@@@@@@@@@##@@@@####@#$$#@@@@@@@@@@@@@@@@@@@@@@@@@@@@@@@@@@@@@@@@@@@@@@@@###@@@@@@@@@@@@@@@@@#@@@@@@@@@@@@#######@###@@@@#########@@@@@@@@#$$$##@@#@@@@@@@@@@@@@@@@@@@@@@@@@@@@@@@@@@@@@@@@@@@@@@@@@@@$$@@#@@@@@###@#################################@####@@@@@@@@@@@####################@@@############@@############*&&%",
"$$$$$$$$$$$$$$$$$$$%*=*&$$##$$###################################$$$$$$$$$$$$$##$$$$%&&&%%%%&*%$###$$$$$$$$$$$$$$$$$$$$$$$$$$$$$$$$$$$$$$%%$$$$$$$$$$%%%%%%$$$$$$$####$$$$$$$$$####################@@@#@@#####%&$$$$$$###@@@@@@@@@@@@@@@@@@@@@@@@@@@@@@@@@@@#####@@@##@@@###$####@+OO+@@@@@@@@@@@@@@@@@@@@@@@@@@@@@@@@@@@@@@@@@@@@@@@@@@@@@@@###@@@@@@@@@@@@@@@@@@@@@@@@@#@@@@@@@@@@@@@#@@@@@@@@@#%&$#@##@@@++@@@@@@@@@@@@@@@@@@@@@@@@@@@@@@@@@@@@@####@@@@@@@###$#@@@@@@+@@@@@@@@@@@@@@@@@@@@@@@@@@@@@@@@@@@@@@@@@@@@@@@@@@@@@@@@@@@@@@@@@@@@#@#@@@@@@@@@###@@@@##########@@@@@@@@@#$$$$##@@@@@+@@@@@@@@@@@@@@@@@@@@@@@@@@@@@@@@@@@@@@@@@@@@@@#$$#@#@+#@###@@#################################@#####@@@@@@@#@@@@@@@@@@###############@###########@@##########$$%$##",
"$$$$$$$$$$$$$$$$$%%&*=*%%$$$$$##$$$$$############$$$$$$$$$######$$$$$$$$$$$$$$$$$$$$%%&&%%$$%%$#####$$$$$$$$$$$$$$$#$$$$$$$$$$$$$$$$$$$$$$$$$$$#$$$$%$$$$##@#$$#######$$$$$$$$$##################@##@@@@@#####%&$$$$$#@@@@####@@@@@@@@@@@@@@@@@@@@@@@@@@@@@##$$$##@#########$$##@@+OO+@@@@@@@@@@@@@@@@@@@@@@@@@@@@++++++@@@@@@@@@@@@@@@@@@@@@###@@@@@@@@@@@@@@@@@@@@@#@@@@@@@@@#@@#@@@@####@@@##@@%&$#@@@@++++@@@@@@@@@@@@@@@@@@+@++@@@@@@@@@@@@@@@@@@##@@@@@@@#$$###@@@@+@@@@@@@@@@@@@@@@@@@@@@@@@@@@@@@@@@@@@@@@@@@@@@@@@@@@@@@@@@@@@@@@@@@@@@@@@@@@@@@####@@@@##########@@@@@@@###$$$$####@@@@@@@@@@@@@@@@###@@@@@@@@#@@@@@@@@@@@@@@@@@@@@@@$%$#@@##@@@##@@@#####################################@@@##@@@#@@@@@@@@@@@###$$##@@##################@#########$$$####",
"$$$$$$$$$$$$$$$$%%%&*=*%%$$$$$$#$$$$$############$$$$$$$$$$$$$$$$$$$$$$$$$$$$$$$$$$$%&&%$$$$%$$####$$$$$$$$$$$$$$$###$$$$$$$$$$$$$$$$$$#########$$$%%$$%%$##$%%#########$$$$$$###################@@@+++@@@@###$&*&%$##@@@#######@@#######@@@@@@@########@@@@@@@@@@@@@#@##$#$$###@@++++@@@@@@@@@+@@@@@@@@@@@@@++++@@@@@@@@@@@@@@@@@@@@@@@@@@@@@##@#@@@@@@@@@@@@@@@@@@@@@@@@@@@@@@@@@@@@@@###@@@####&&#@@##@+++@@@@@@@@@@@@@@@@@@@@@@@@@@#####@@@@@@@@@@@@@@@@@##$$$$##@@+++@@#@@@@@@@@@@@@@@@@@@@@@@@@@@@@@@@@@@@##@@@@@@@@@@@@@@@#@@@@#@@@@#@@@@@@@@@@@@@@####@@##############@@@@@@#$$$#@@###@@+++++++@@@@@@###@@@@#####@@@###########@#######$&$@@+#$+############################################@@@#@@@@#@@@@@@########################################@@#####$$",
"$$$$$$$$$$$$$$$$$$$%*=*&%$$$$$$#$$$$#####################$$$$$$$$$$$$###########$$$$&*&$$$$$$$####$$$$$$$$$$$$$$$$$#$$$##$$$$$$$*%$$%%$@@@####$$$##$$$$%%%$$$%$#######$$$$$$$$##################$$++@+OO++@###$%-*$###@@@#######@######################@@@@@@@@@@@@@@@@@###$%@@#@@@++++@@+@@@@@@@@@@@@@@@@@@@@@@@@####@@@@@@@@@@@@@@@@@@@@@@@@##@@@@@@@@@@@@@@@@@@@@@@@@@@@@@@@@@@@@@@@@###@@@###$&%#@#$$@@@+@@@@@@@@@@@@@@@@@@@@@@@@@#########@++@@@@@@@@@#####%%$##@++++@@#@@@@@@@@@@@@@@@@@@@@@@@@@@@@@@@@@@@##@@@@@@@@@@@@@@@@@@@@@@@@@@@@@@@@@@@@@@@@####@######################$$#@@+@@@@@@@@@@@@@@@@@@@@@@@@@###########################$&#@@@@############################################@##@@@@@@@#@@@@@########@@@@#########@##@@@@@@@@@@###$$$$#####$%%&",
"$$$$$$$$$$$$$$$$%$$%*=*&%$$$$$$$$$$$######################$$$$$$$$$$$$$$$$$$####$%$%&*&%&&&$$%$$#$$$$$$$%$$$$$$$$%$$$$$##$$$$$$$;=%#@@#$$##$$$$$$$#####$$$$$$%$##$$$$$$$$$$$$$$#################$$@+@@@+++@###$%*%#####@@#################@@@@###@@@#@@@@#########@@######$%%@@#@@@+++++@+@@@@@@+@@@@@@@@@@@@@@@@@@@@@@@@@@@@@@@@@@@@@@@@@+@@@@@@@@@@@@@@@@@@@@@@@@@@#@@@@@@@@@@@@@@@@@#####@#####&%$@####@@@@+@@@@@@@@@@@@@@@@@@@@@@@@#######@@@@@@@@@@@@@@@###%%$##@@+++@@@@@@@@@@@@@@@@@@@@@@@@@@@@@@@@@@@@@@##@@@@@@@@@@@@@@@@@@@@@@@@@@@@@@@@@@@@@@############################$%$$@++@@#@@####@@@@@@@@@@@@@@@@@@@@@#####@@######@@#######$$$#@@+@$@@@@@@@@@@###############################@####@@@@@@@@@@@@@@@@@@##@@@@@@##################@@#####$$$$$$$$%*-",
"$$$$$$$$$$$$$$$$$%%&*=*&%%$$%%$$$$$$$#####################$$###$$$$$$$$$$$$$$$$$$%%&**&%&*&$%%$#$$$$$$%%%%%%$$%$%%%$$%$#*&%$##$$$$$$$$$$$%%$$$$$$%$#####@@###$$##$$$$$$$$$$$$$$$################@+##@#$%@@@###$%@#$#@+@#######@#################@@+@@@@@#$$#@@@##@@@#####$$%&@@###@+++++@++@@@@@+@@@@@@@@@@@@@@@@@@@@@@@@@@@@@@@@@@@@@@@@@@@@@@@@@@@@@@@#@@@@@@@@@@#@@@@@@@@@@@@@@@@@@@@@@########%&%$####@@@@@@@@@@@@@@@@@@@@@@@@@@@###@@@@@+@@@@@@@@@@@@@@##$$%%$##@@@@@@@######@@@@@@@@@@@@@@@@@@@@@@@@@@@@@@##@@@@@@@@@@@@@@@@@@@@@@@@@@@@@@@@@@@@@@#########@@@@@@@@@@@@@@@@@+@#$%$#@@@###@####@@@@@@@@++++@@@@@@@@@###@#@@##@####@#######$#%$@@@@##############################################@@@@@@@@@@@@##@@@@@####@@##########$$$$$$$$$$$$#####@@###$$%%&*",
"$$$$$$$$$$$$$$$$$%%&*=*&%%$$%%$$%%%%$$$$$$$$$$$$$$$#######$$$$$$$$$$$$$$$$$$$$$$%$%%&&&%%%%$%%$@$$$$$%%%%%%%%%%%%&%%%%$###$%%$#@+%&$#%&&%%$$$$$$$$$$$$$$$$$$$%$######@@@######$$$$$$$$$$########@@####$%$#@##$&*+@#@+O@#####@@@@##@@@@##########@+@@####$%%$#@@@@###$$$$$%$%&###$#@+OO+@@++@#@@++@@@@@@@@@@@@@@@@@++++@@@@@@@@@@@+@@@@####@@@@@@@@@@@@@@@@@@@@@@@@@@@@@@@@@@@@@@@@@@@@@@@@@######$&%$$#######@@@@@@@@@@@@@#######@@@@@@@@@@@@@@@@######@@@####$$%%$##@@@@@@@@@###########@@@@@@@@@@@@@@@@@@@@@@###@@@@@@@@@@@@@@@@@@@@@@@@@@@@@#@@@@@@@@#########@@@@@@@OOOOOOOOOOO+@#$$#@@@@@@@@@@@@@@@@+++OOOo@@@@@@@@@######################$@$%#@@@@@###@@#######################################@@#@@@@@###########################$$$$$$$$$#########$$$$$$#$%&",
"$$$$$$$$$$$$$$$$$$$%*=*&&%$$%%$$%%%%%%$$$$$$$$$$$$$########$#$$$$$$$$$$$$$%$%%%%%%%%&**&&%$$$$$##$$$$%%%%%%%%%&%%&&%%%$@@@#%%%$###$%%$####$$$$$$%%$$$$$$$$$$#$#+@@@@@########$$$$$$$$$$$$#######%%$#$$@+%#@@#$&=$#++++@@###@@@@@@@@@@############@#$$$##$%%$###$$$$$$%%&%&$%&###$#@OOO+@@++@#@@++@@@@@##########@@++++++@@######++++@@@@#@@@@@@@@@@@@@@@@@@@@@@@@@@@@@@@@@@@@@@@@@@@@@@@@@@####@#%&%$#$$$$$##@@@@@@@@@@@@##############$$$$$$$$$%%%%%%$###$$$$$$%%$##@@@@++++OOO$$$$$#####@@@@@@@@@@@@@@@@@@@@@###@@@@@@@@@@@@@@@@@@@@@@@@@#@@@@@@#@@@@@@######@#@@@++++@@@@@@@@##@+@@@@+OoooOOOOoOOOOOOOOO++++++++++++@@@@@@@@@@@@@@@@@@@@@@@@##@$%#@@+OO++OoO@#################################$$##@@####@#####@@@#$$#####$###################@@+++@@##$$$$$$#####",
"$$$$$$$$$$&&$##@@@##%=--&&%%%%$#@$%%$$$#@############################$$$$$$$$$$$$$$%*-=&&%$$%%%#@++++@@+@#%%$$@OO@%$#$$$+@$$$$%%%%%%%&&%%%%%$$$%%%$%%$$$$$%$%%%#@+++#$$#$%%%$$$$$#$$$$$%$$##%%#O@#$$###$%$O@$@%*$@@@+O@$%%%%%%%%$$$$$$$$$$$%%%%%%%%%%$#######$$%%%%%%%%%%&&**%####@@+OooXXXoooOOOOOOOOOOOOO+@@@@@++OOO+++@@@####+++@@@#######@@@################@@+++@@@@##$$###@@@@@@@@+++@@###@$%%$$$$$###@+++@$$$#@@@@######################@@@@++++++OOOO++@$$$###@++OOoooXXoO@###@@@@@@@@@@@@@@@@@@++@##@+O+OO**OO++@@@@@+++++@@@++OOOOOOO+++oO+++++++++++++OOOOOOO###@@@@@$##@@@@@+OoooooooXXXXXooooOOOOOOOoooooOOOOOOOOOOoooooooooooooO++&&**&#+oooXXXXoooooOOOOOOOOOOOOOOO+++@@@@++++++@@@@@@++@@@@@@@+++OOO+++++++++++O.XoOOooOOoXXXXoooooooOOOOOOOOOOOOooo",
"$####@++O+$$@OoXooo+@#=:==&%%%#+o+++OOOOOOOOOOOOOOOOOOOOOO+++++++++++++++@@@@@@@##@#&==&%%%%&&&$@OooOOOooooooOoXXoOOoOOOOO++++@@@@@@@@#@@@#@@@@@#$########$$$%%%$$##$%%$$$%%%$#@+++++@@@%$##%%@XO+@++@#$#$@##+#$@+@@+OOO++@@@@@@@@@@@@@@@@@@@@@@@@+++++OOOO+++++++@##@+OooO@#@@@@@@+OX..XXXooooooXXXXoooXXXoooooooooOOOOOOO+++@+++O+++++@@@++++++@@@@@@@@@@++OOOO++OOOOOO+++@@++OOOOOOooooooooooo+$%%%$####@++OOO++OOO++OOOOOOOOOOOOOOoooooXXXXXXXXXX......XXXoo@@##$$#@OoooooXX.XXXoX.XoooooXXXXXXXoooooooooooooOX##XOoOOOOoOOOOOOOOOOOOOOOOOOOO+@+OOOOOOOOOOO+OOO++OOOOOOOOOOO+++++@@@@@+OOoooooooooooooooooooXXXXXooooooooooooooooooooXooO+@@$%&&%#OoooooooooXXXooXXXXXXXXXXXXXXXooOOOoooooOOoooooooooooooooXoooX....XX...XXoo.XO+OX.OOooXXXooOO++OOOoooooooooooo",
"@+++++OOOoooOOoo+@oo#&*;>;--*&&$+OoO+OO++++++++++OOOOOOOOOOO++++++OOOOOOO+++@@@@@@++#%***&&&&&%$@OooO++OO+OOOOOO+OOoOOO++OOooooo++@@@@@@++@++O++@@+OOOOOOO++++@+++OooOoooOOOooXXXXXXooooOOOoOOOooooXXXooooXXXXO@%#@@OX..XXXXXXXXXXX....................X.........XXXXXXXXXoooOO+@@++@+OooooooooooXXXXXooXXXXoooooOO++++++++++@@@++++++++++++++++OOOOOOOOOOOOOOOOOO+OXooooXXXooooooooooooooooooooXO#$$$$###@@+OOOoXXXooooXXXXXXXXXXXXXXXXXXXXXXXXoOOOOOoooooOOOOO+@###$##@+++++OOO+OoOOoOOOOOOOO++OOOOOOO+++++++@@@@@@@@@@+++@@@@@##@@+@@@######@@O+OXoOO++++++@@@@##@+++OOOOO+++OO+++++@@@@+OOOoooooooooooooooooooooooooooooooooooOooooooooOOOOO@#$$#+oXXoooooXXXXooooXXXXXoXXXXoooooO+++++++++++OOOO+++++OOOOOOO++OOoooOooXooO+++@$$+ooOOoooOOOO+++++++++++++++++++",
"@@+@##@@#@OO#$$$$#&%%-::>;--*&&&$#@@###@@@@@@#############################$$$$$$$$$$$%=;;--==**&#@++@@@@##@+++O+#O+O++O@O+@@@@@@@@@@@@@@@@#@+++@#@+OO+++++@@@@@@@+O+@@+OO++OoooXX...XXXXXXXXX..XX...X.  ...XOOO+%#@+OOoXXXXXXXXXXXXXXXXXXXooooooooooXooooXXooooXXXXXXXXXoOOoO+++@@###@+++++OOOOOooooooooooooOO+++@@@@##@####$$$$$$###############@@@@@@@@@@@@@@@@++OOOOOOOOO++++++++++++++++++++O@#$%%%%%$$$##@@+OO+++++OOOOOOOOOOOOO+++++@@@@@@@#####@@@@@@@@##$$##$$$$$$#####@@@@+#@+@+++OO++@@@@@@#####$$$$$$##$$%%&&&%%&&%$##$%$##$$$$$$$$$$#@+++OoOOO+++++++@@#@@#$OOOOO+++++@@@+++@@@@@+++OOOOOOOOOOOOOOooooooooooooOOOOOOOOOOOOOOO+@+OOO++@##@+OoooooOoXXOOO+OOOoXXXXXX..oooooO++++@@@@@@@+++@@###@@@@@@@@++@@#@@@+++@@+++$**$++@++OOOO++@@#######$$$$$#####@",
"##@@#$$#$#@+#%&%%$%=**;-::;--=**&&&%%&&&&%$$$%%%%%%%%%%%%%%%%%%$$$$%%%%&&&&&&%&%&&&&&*=-------==%%%%$$$$%%####@##@@@@@+#@#$$#@$%$$$$##############@@@@@@@@@@@##@@++@#$$@@+OOOOoXXXoooooOOooOOoXoXXooooXXoOOO+##@$#@+++OOoooooooooooooooooooooooooOooooooXXXoOOOOOOOOOOOOOOOOO@##$%%$#@@####@@@+++OOOOOOOOOOO++@####$$$$$%%%%%%&%%%%$$$$$$$$%%%%$$$$$$$$$$$$$$$$$&$#@+++O++@#$$##################$$%&&&&****&&&%%$###$$$#########@@@@@@@@@@###########$$$$$$$$%%&&&%%%&&&&%%%%%%%%%$$%$#@++++@@@###$$$$$$$$$$$$$$&&&&&&&&*==*&&&*#%&&%%&***********%%%#+OOO++++@@@@#$#####@@@@@@@@##$######$$$##@@+@@@@@@@@+++OOOOOOO++OOO+++++++++++++++++@@@@+@######@++OO+++++++@@@@++OOOooooOOOOO++@@###$$$$$$$#$$%%&&%%%%%%&%$$$%%%%$$%%%$$#$&=*%$####@@++OO+#%%&%%$$$$$$$$#$$%%",
"###@$&&%%%%##%&&&*%%=*&*;,:->:-=*=-;-========*&&&&&&&&&&&&&&&&&&%&&**==-----=========--;::>>>>:;===*&%%&&**&&%%$$$%$$%$&&&&%%%&&&&&&%%%&&&&&&&%%%%$$$$$$##$#$$$$###@#$$$#@@++++++++++++@@+@##@#$$##@+++++##Oo#%#%%#++@@@@++++++++++++++++++++++++++OOOO+OOO++@@@@@@@@@@##@@#$#$&&&&&&&%%%%%$$$$##@@+++OOOOOO+@#$$$%%%&&*************&&&&********%%%%%%%%&&&&&&&&*&$@+++++@@$%%%%%%%%%%%%&&&&&&&&&****=====-====**%%$%%%%%%$$$$$$$%%%%$$%$$$%%%%%%&&&&&&&%%%%%&&&========*&&&*===%$$%&&$@+++@@##$$%&&&&&&&&&**============---=====-;;;;:::;;;;;;;;;-*&&%@@@#$%%$$$$%&*&%%%%%%%%$$$%%%%%%$$$%%%%$######$$$$$$$$##############################$$$$$$$#####@@@@@####$$$%%%%%$$#@@@######$$$$%%&&***********============**&&&*****&&&&*==*&$#@####@++@%=----=**&&&%%%%&&&",
"&&&$&=-==-;=*=--*=-=*;;:>,>>>::::::>:;:>,,,>>::;;;;;;;;;;;---------;;;;:::::::::;;::>>,,,,<<<<,,>:::;----;:;--*%&%%$$&&&**====**=====***==*******&%%%%&&%%%%%&&%%%$$$$$##$$###$$@@@@####$%&&&&*****%###$#%$$@#&$$%$@#$%&$$$$$$#############@@@@@@@@@@@@@@@@@@###$$$$$$$$$$%&&%%%*&&&*****&&&&&&&%$$$##@@@@@@#$&***==---;;;:::::::::::::::>>>>>>>-=**=-;:-------;;:=#@@@@@@$%*===================;;;;;;;;;;;;;;----=***********====--========-----;;::;;;----------------===-;;;;:-====&@@+OO+@$%&=-;;;;;>>>::;;-----=-=---;>,,>:<,>::>>:::;;--===--*%%%$$$%&==*&&*&*===***********===**&&&&***&&&&&&&&%%%&&&&&&&&%%%%%%%%%%%%%%%%$$$$$$$$%%%%%&&%%$$$$$$$$$$$$$%%&**====*&%$$%%%%%&****&*==---------------;;;----;--============**--=$@@@@@##$$$&-:>,,>::;;;----==**",
"::-&&=*%=:;;;---=*&===---=-;&&=---=*=--==**==--;;;;;;;;;;;;;----=**&&&&&&&**==---;>,,>:-&%*==***==--;-----;;;:;=*%$#%==*>,<,:;:>>>>>>:::::;;;;;--=*&&***&&&&&&******==&$$$$%%$$#######$$*-;;;-=&*==**&%&&$+$$#**$**&&&%%&%%%%%%&&&&&&&&&&&%%%%%%%%%%%%%%%%%%%%&&&%&&&&&%%&&%&***&&&&%%&*****=****&&%%$$$$$%%&*-;::::>>,,,,<<<<<<<<<,,,,<<<<1<<<<<,,,,,,,,>>::;;;-:=+++@@@$&-;:::>>>>>>>>>>>>>>>,<<<<,,>>>>>>>:::>>>:;-==:::::::::;;;;----=------====---------;;::::;;----;::>>>:;-;,,>-$#@+oO#%*=;:>:::;==**&&%%###$$%%&&%%%%*-;;*#++@@++++++++++++##@@###%*=-=*-;;-;;;-====------------===---===*********************&&&&&&&&&&&&&&&&&&&&&&&&&&==**&&&&***&&%&&&&*==-----*&&*====-;:;;-;:>>>>>,,,,,>>:::>>,,>:;;;::>>>>::::;;;;;-;,:&@@$@++@#%*=:,<<<,,>>>>>>>>>>::",
";;>;&*&++#$$%$##$$$$$$$$$$$$$$$$$$#######$$$##$$$$$$#######$$$%%%%%%%%%%%%%%%%%%%$$$%%%%%%%%$$$$$$$%$$$$$#$&*=-=$#$%%*==-;::::;-;:::::::>>>>>>>>:>:==;:;::;;;;;----=====****%%&&&%&&*****=*&&&$#%&=--*%$#@+++#%%--------------------------====*********=%&*=-==*==---;;;;;------;;;;;;;;;;;;;;;;-=&%&%$$$%&&%;,,,,>:;-=====**&&&&%&*=*%$#$$##@##*==*&%$$$%$@+++++@$#@@@#**-;:;;--;;::>>>::::::;;;;;;;;;----=============*&&%%%%%##$###$$$#####@@@@######$$$$&****=;::::;-=&$@@#%%*$*:>,&#@+@####$##@+OOOOOOO++@@@@@@@@@@@@@@@@@@@@@@@@@@@@@@@@@@+@$#@#$#$$$&=;-==;>>:-;;:::;;;;;::>>:>:::::::::::::;;;;;;;;;;---------------------------==&&&&==--------==**&&&&&&**=---;;=*&&&&==::>>,;-=****&%&&%%&%%%%$$$#####$$$$$%%%%&&&&&*-=$=:;=#++++#%%$**=*&%$$%%%%%%%%;;;;",
"$@%*%*;=%$$###$$$$$$$$$$$$$$$$$$$####$$$$$$$$$$$$$$$$$$$$$$$$$$$$$$$$$$$$$$$%%%$$$$$$$%%$$$$$$$$$$$$$$$$$$#@@#%=%$$$%&*&@@####@@@@@@@@@@@@##$$%%$&**&&*-===-----;;;;;:::;;;=&$%&*$%*=;:=&%&&%#$%%%&**&%$$%%$##%=::::::::::::::::;;;;;;;;;;;;;;;;;;;;;;;;;;;------------;;;;;;:::::;;------=**=---=*&%%$%##$&%$##@@@+OOOoXXooOO++++@#$#@+++@@++++O+++++OO+@@+++@@+#$$#@@#%%$$##@@@#$$#@+O+@#$$#@@o+++#+oO++++++++++++@@@@+++OOOOO+++++++@@@@@@@@@++++@@@########@@+@$&&$@##@+++@#$*&.X+*&#@++@@@@@+++OO++++++++@@@@@@@@@@@@@@@@@@@@@@@@@@@@@@@@@@+@%#+$%@$@@#%=---=-;>>;=-;::;-;>>,,,,>,,,,>,,,,,,,,,,>>>>>>>>>>>>>>>>>>>>>>>,,,,,>>>>>>>>:;;;;:>::::::::========**=-;:>>::-&$$$#&&&&&&&&#@+OOoOO+++++++++++@@@@@@@@++++++++OOOOO@+o@=;*$+++####$#@+++++O$$$$$$$$$$$$",
"###$$%%%%##$@#%$$$$$$$$$$$$$$$$$$$$$$$$$$##$$$##$$$%%%%%%%%$$$$$$$$$$$$$$$$$$$$$$$$$$$$$$$$$$$$$$$$$$$$$#%%###$=&$$$#$$#########################@#%**%#@+@@@########$$$%***&%$$$&%+oO$%$$$###$$#$$$$$%%$$$$$##$%&&&&&&&&&&&&%%%%%$$$$$$$$%%%%%%&=*&%%&*==%#@#$$#@@@@@@@@@###$$$$#@+OO+@@@O+@+O@&&&&%####@+#$#+O+++++++++@@@@@@@@+++@@@++++@@@@@@@@#@@@@+@##@+@@@@#%%$@@@@@@@@@@@@@####@@@@@@@@@@@@@@+@@@@@#############@@##@@@+++OO++++++++++++++++++++@@@######$$$##@@@@#@@++@@@###$$%%#@+++++++++++++@@@@@@@@@@@@@@@@@@@@@@@@@@@@@@@@@@@@@@@@@###$$#@@#@@#&-:>:::;;;;--=-;:>>,>>>>>>>>>>>>>>>>>>::::::;;;;;;:;:::::::::::::>>>>:::::::;::::;==========********===**&&&&**%#@@@%#OoO++O+@@@@@@@@+++++++++@@@@@@@@@@@@@@@@@@@@@@#@OO&;%$@@@##@+@@@++@#########@@@@@@",
"##############$$$###############$$%%$$$$$$$$$$####$$$$%%%%$$$$#####$$$$$$$$$$$$$$$$$$$$##$$$$$$$$$$$$$$$#$###$$&&$$####@###@@###################$#$**$#$$$$##############@##$$#@$#@+O++@#######@######$$$#@@##@@@##@######@@@@@@+++++++++++++++@@@+OO+@#*$@+@##@++@@@@@@@@@@@@@@@@@@@@@@@@@@@@@@@#%$@+@##@@++@@++@@@@@@@@@@@@@@@++++@@@+@@##@@@@###@@@@@@##@@@@@#$%%$#++########@@####@@@@@@@@@@@@###@@@############@@+++@@@++O+++++@@+++++++++@@@@+@@@++@######@@@@@@@@@##@@@##$$$$$$$$#@+++++O+++@@@@@++@@@@@@@@@@@@@@@@@@@@@@@@@@@@@@@@@@@@@@#$$%*%##+++#%*==&%#+@#%*=****&&&&%$%*=*&$@@$$@@$$$####@@@@@+++++@@@@@@@@@@@@@@@@@@@@@@@@$$%%%#@+++++++++++++++++#@######$%%%$@@@@@@@@@@@@@@@@+@@@@@######@##@@@@@@@@@@@@@@#######++o#=%$#@@+@#+oO+@@@@@@##########$$",
"########$$#@@@@###################$$###$$$$$$$$$########$$$$$$$$$$$$$$$$$$$$$$$$$$$$$######$$$$$$$$$$$$$#@#$$$$#%###@@#@###@@##$$$$$$$$###$%%$#@@#$%%$#####################$%%$@O#%@+@##@@#$#@@@@@@@########@++@@@@#######@@@@@@@@@@@@@@@@+++++++@@@@@@@@@++++@@+@@@@@@@@@@@@@@@@@@@@@@@@@@@@@@@+@%$###@@@+++@+++++++++++++++++++++++++@@###@@@@@@@@+@@@@##@@@@@#$%%$#+O@@@@@@@@@@@@@@@@@@@++@@@@@@@@@@@@@@@@@@@####@@@@@@@@@@++++++++++++++++@@@@@@@###@###@+@@@@@@@@@@@@@@@@#$%%%$@#%*$#@@+++++@@@#@@++++@@@@@@@@@@@@@@@@@@@@@@@@@@@@@@@@@@@@@@@#$%$#@+++@###@@@@@@@@@@@@@@@@@@+++@@@@@@@@@@@@@@@@@@@@@@@@@@@@@@@@@@@@@@@@@@@@@@@@@+++++++++@@@@@@@@@@@@@@@@@@@@@@@@@@#$$$#@@@@@@@@@@@@++@@#@@@@@@#####@@@@@@@@@@@@@@@@@@@@@@@+O+o+%&$#@+++#@O++@#@@@@############",
"############$#@#######################$$$$$##$$$$############$$$$$$$$$$$$$$$$$$$######$$$$#######$$$$$$$$$%&%$%$$@@@@#####@@@@############################################$$#@+O++@@@@@#@@@+@###@@@###@@@#$#@++@@@@@@@@@@@@@@@@@@@@@@@@@@@+++++++@@@+@@@@@@@++@@+@@@@@@@@@@@@@@@@@@@@@@@@@@@@@@@@#$$#@@++++++++++++++++++++++++++++++++@@@@@@@@@#######@@@@@@@@@#$%%$#+O+++++++++++++@@@@@@@@@@@@@@++++++++++++++++++@@@@++++++@@+++++++++++++++++@@@@@@@@@@@@@@@@@@@@@@+@+@@#$$$#@@#$%&$##@@+@@@@@@@@@@@@@@@@@@@@@@@@@@@@@@@@@@@@@@@@@@@@@@@@@@@@@@######@@@@@@@@@@@@@@@@@@@@@@@@@@@@@@@@@@@@@@@@@@@@@@@@@@@@@@@@@@@@@@@@@@@@###@@@@@@@##############@@@@@@@@@@@@@@@@@@#$#@@@+OO++@@###@@@#@##$##@@@@@@@@@@@@@@@@@@@@@@@@@@@@##@@@@O#*%#@@@@+@##@@@@@@@#@@@@@@@@@@@",
"$$$$$$$$@#$$%$$#################$$###$$$#######$$$$$$$$$###########$$$$$$$$$$$$$######$$$$#############$$$%$##%&$@@@@###@@@@@@@@@@@@@@@@@@@@@@@@@@########################$#@@+++@@@@@@@@@@@@########@@@@@@@+++@@@@@@@@@@@@@@@@@@@@@@@@@@@@@@++++@++++@@@@@@+@@@+@@@@@@@##@@@@@@@@@++@@@@@@@@@@@#$###@++++OO++++++++++++++++++++@@@+++@@@@@@@#@@##@@@@@@@@@#@@@@##$$#@++OO++@###@@@@@@@@@@@@@@@@@@@@@@@@@@@@@@@@@@@@@@@@@@+++@@@@@@@@@++++++++++@@@@@@@@@@@@#####@@@@@@@@@++@@@@@@##$$%%$$#@++@@@@@++++@@@@@@@@@@@@@@@@@@@@@@@@@@@@@@@@@@@@@@@@####@#####@@++@@@@@@@@@@@@@#####@@@@@@@@@@@@@@@@@@@@@@@@@#############@@@@@@########@@@@@@@@@@@@@@@@@@@++@@@@@@@@@@@@@@@@#$$#@+++OO++@@######@@@@@@@@@@@@@@@@@@@@@@@##@@@@@@@@@@@@@+@+#&&$#@#@@+###@@##$#@@@@@@@@####",
"@@@##$$$%$$%#$%#####################$$##@#$$$####$$$$$$$$$$$$#####$$$$$$$$$$$$$$###################$####+#$$%$$&$@@@@@##@############################################@######@@++++++@@@@@@@#@@#####@@@@@@@@@@@@@@@@@@@@@@@@@@@@@@@@@@@@@@@@@@@@@@@++++@@@@@@++@@++@@@@@@@@@@@@@@@@@@@@@@@@@@$$@O#$#@@@+@++OO++++++++++++++++++++@@@@@@@@@@@@@@@###@@@################@+++@@@@@@@########@@@@@@@@@@@@@@@@@@@@@@@@@++@@@@@@++++++@@@#@@++@+++@@@@@@@@@@@@###@@@@@@@@@@@@@@@@@@+++OOO+@#$%%$$#@+++@@@@+++++@@@@@####@@@@@@@@@@@@@@@@@@@@@@@@@@@@@@@@#$@O+@@###@@@@@@@@@@@@@@@@@@@@@@@@@@@@@@@@@@@@@@@@@@@@@@@@@@@@@@@@@@@@@@@@@@@@@@@@@@@@@@@@@@@@@@@@@@@@@@@@@@@@@@@@@@@@@#%%$@++@+++@@@##@@@@@@@@@@@@@#####@@@@@@#################@@@#$%&##@@##@O++@#@@##@@@@@@##@@@@",
"#######$##$########################$$$#@##$$##########$$$$$$#######################################$$$%$$$$##$$&$$##@@#@@@###@@@####################################@@@#########@@@@++@@@@@@#@@###@@@@@@@@@@@@@@@@@@@@@@@@@@@@@@@@@@@@@@@@@@@@@@@@@@@@@@@@@@@@@@@@@@@@@@@@@@@@####@@@@@@@@@@++@@##$$#@@+++++++++++++++++++++++++@##@@@@#@@@@@@@@#@@@###@@++@@@@@#####@++++@@@@###########@@@@@@@@@@@@@@@@@@@@@@@@@@@@@@@@@+++++++@@+++@@@++@@@@@@@@@@@@@##@@@@@+@@@@@@@@@@++@+@@@@@@#$%&%#@@++++@@@@@@@++++@@####@@@@@@@@@@@@@@@@@@@@@@@@@@@@@@@@#$#@@@@@#$#@@@@@@###@@@@@@@@@@@@@@@@@@@@@@@@@@@@@@@@@@@@@++++@@@@@@@@@@@@@@@@@@@@@@@@@@@@@@@@@@@@@@@@@@@@@@@@@@@@@@@@@@#$%$@@@++@@@@@##@@@@@#@@@@@@@@@@@@@@@@@@@@@@@@@@@@@@@####@###$%%#@@@@@@#@@@@@@@@@@@@@@@@@@@@",
"########################################$$##@###################################$$$##########$$##@#$$#####$$$#$*$$$#@@@@@####@@@#####################################@@@@#$$#@###@@@@@@@@@@@#####@+@@@@$@@@@@@@@@@@@@@@@@@@@@@@@@@@@@@@@@@@@@@@@@@@@@@@@@@@@@@@@@@@@@@@@@@@@@@@@@@@++++@@@@@@@@@@#$%$###@@++@@@@+@@@@@@@@@@@@@@@@##@@@@#@@@@@@@@@@@@###@@@@@#########@+++++@@###########@@@@@@@@@@@@@@@@@@@@@@@@@@@@@@@+@@@+++++++@+@@@@@++++@@+@@@@++++@@+@@@@@@@@@@@@@@@@@@@@@@@@@#$%&%#@@@++++@@@##@@@@@@#@@@@@@@@@@@@@@@@@@@@@@@@@@@@@@@@@@@@##@+@@++#$@+@#+@@@@+@@@@@@@@@@@@@@@@@@@@@@@@@@@@@@@@@@@@@@@@@@@@@@@@@@@@@@@@@@@@@@@@@@@@@@@@@@@@@@@@@@@@@@@@@@@@@@@@@@@#$%$@@@++@@@@@@@@@@@@@@@@@@@@@@@@@@@@@@@@@@@@@@@@@@@@@@@@@###$%%@@@@@@@#@@@@@@@@@@@@#@@@@@@@",
"######################################$$$$###$$$$$$############$$$$###########################$$###$#+oO@+@#%##&$$$#@@@@@@####@@#########################################$$$#+@#@@+++@########@@@++##@@$######@@@@@@@@@@@@@@@@@@@@@#######@@@@@@@@@@@@@@@@@@@@@@@@@#@@####@@@@@@@@@@@@@@@@@@+@@@@#$%$###@@@+@@++@@@@@@@@@@@@@@@@@##@@@@#@@@@@@@###@######@####@####$$@+@+++@@@###@@@@@@@@@@@@@@@@@@@@@@@@@@@@@@@@@@@@@@@@@@@@@++++@@@@++@+++++++++@@@+@@++@@@@@@@@@@@@@@@@@@@@@@@@@@#$%&%#@@@++++@@@##########@@@@@@@@@@@@@@@@@@##############@@@##@++@+O@@++@#@@@@@@@@@@@@@@@@@@@@@@@@@@@@@@@@@@@@@@@@@@@@@@@@@@@@@@@@@@@@@@@@@@@@@@@@@@@@@@@@@@@@@@@@@@@@@@@@@@@@@@@@@#$%$@@@++@@@@@@@@@@@@@@@@@@@@@@@@@@@@@@@@@@@@@@@@@@@@@@@#@###$%%#@@@@@@#@@@@#@@@@@@@@@@@@@@@",
"######################################$$$##$$%$$$$$$$########$$$$###############################$%$%%#+O@@+#$$#%$$$#@@@@@@####@@########################################$##%#oO@@++++@########@##@+@##@#########@@@@@@@@@@@@@@@@@@@@@@@@@@@@@@@@@@@@@@@@@@@@@@@@@@@@@@@@@@@@@@@@@@@@@@@@@@@+++++##$$#@@+++++++++++@@@@@@@@@@@@@@@@@@+@@@@@@@@@@@@@@@####@@@@#@@####$$@+@++@@@@@@@@@@@@@@@@@@@@@@@@@@@@@@@@@@@@@@@@@@@@@@@@@@@@@@@@+@@@@@@@@@@@+++++++@@@@@@@@@@#@@@@@@@@@@@@@@@@@@@@#$%&%#@@@+++@@@@@#######@@@@@@@@@@@@@@@@@@@@##############@@@##@+@@@@@@++@@@@@@@@@@@@@@@@@@@@@@@@@@@@@@@@@@@@@@@@@@@@@@@@@@@@@@@@@####@@@@@@@@@@@@@@@@@@@@@@@@@@@@@@@@@@@#@@@@@@@@@@#$%$@@@++@@@@@@@@@@@@@@@@@@@@@@@@@@###############@@@@@##@###$%%##@@@@@@@@@@@@@@@@@@@@@@@@@@",
"#################################$$$$$######$$###$$$$######$$$$$$$$$$#################$$$$#######$$$$%%#$%$#$$%&$$$#@@@@################################################$##%#oO++++++@##########$%#+@##@##########@@@@@@@@@@@@@@@@@@@@@@@@@@@@@@@@@@@@@@@@@@@@@@@@@@+++@@@@@@@+@@@@@@@@@@@@@@@@@##$$@@@++++++@@@@@@@@@@@@@@@@@@@@@@+++@@@@@@@@@@@@@#####@++@@@#######@+@@@@@@@@@@@@@@@@@@@@@@@@@@@@@@@@@++@@@@++@@@@@@@@@@@@@@@@@@+@@@@@@@#@@@@++++++@@@+@@#@@##@@@@@@@@@@@@@@@@@@@@#$&*%#@@@+++@@@@@@@@@@@@@@@##@@@@@@@@@@@@@@@@###########@##@##$#@###%#++@@@@@@@@@@@@@@@@@@@@@@@@@@@@@@@@@@@@@@@@@@@@@@@@@@@@@@@@@@####@@@@@@@@@@@@@@@@@@@@@@@@@@@@@@@@@@@@@@@@@@@@@@#$%$@@@++@@@@@@@@@@@@@@@@@@@@@@@@@@@@@###################@###$%%$##@@@@@@@@@@@@@@@@@@@@@@@@@",
"#################################$$$$#################$$$$$$$$$$$$$$$$$$$$$#$###################@@@@@%*%#%%###$*$$$#@@@@###################################################$#OO++++++@##########$%$#@@@############@@@@@@@@@@@@####@@@@@+@@@@@@@@@@@@@@@@@@@@@@@@@@@@@@@@@@@@@+@@@@@@@@@@@@@@@@@##$%$###@@++@@@@@@@@@@@@@@@@@@@@@@@@@@@@@@@@@@@@@@@##@@#@@@@@@@#####@@+O@@@@@@@@@@@@@@@@@@@@@@@@@@@@@@@@@@@@@@@@@@@@@@@@@@@@@@@@@@+@@@@++@@@@@@@@++++++++@@@@@@@@@@@@@@@@@@@@@@@@@@@#$&*%#@@@+++@@@@@@@@@@@@@@@@@@@@@@@@@@@#####@@#############@##$#@#$##+O+++@##@@@@@@@@@@@@@@@@@@@@@@@@@@@@@@@@@@@@@@@@@@@@@@@@@@@@@@@@@@@@@@@@@@@@@@@@@@@@@@@@@@@@@@@@@@@@@@@@@@@@@@@#$%$@@@++@@@@@@@@@@@@@@@@@@@@@@@@@@@@@@@@@@@@@@##@@@#@###@###$%%$$#@@@@@@@@@@@@@@@@@@@@@@@@@",
"############$##################################$#####$$$$$$$$########$$$$$$$$$###################@@@@$&&@####@#&%$$#@@@@########@######################################@#$#$#@@++@@@+@@@##########$$@@@@@@@@@@@@@@@@@@@@@@@@@@@@@@@@@@@@++@@@@@@@@@@@@@@@@@@@@@@@@@@@##@@@@@@@@@@@@@@@@@##########$%$###@@@+@@@@@@@@@@@@@@@@@@@@@@@@@@@@@@@@@@@@@@@##@@##@@##@@#$$$$#$#@@@@@@@@@@@@@@@@@@@@@@@@@@@@@@@@@@@@@@@@@@@@@@@@@@@@@@@@@@@++@@@@++@@@+@@+++++++++@@@@@@@@@@@@@@@@@@@@@@@@@@@#$&*%#@@@+++@@@@@@@@@@@@@@@@@#######@@######@@####@@@@#####@##$#@###@+++++@@#@@@@@@@@@@@@@@@@@@@@@@@@@@@@@@@@@@@@@@@@@@@@@@@@@@@@@@@@@@@@@@@@@@@@@@@@@@@@@@@@@@@@@@@@@@@@@@@@@@@#@@@#$%$@@@++@@@@@@@@@@@@@@@@@@@@@@@@@@@@@@@@@@@@@@##########@###$%%$$##@@@@@@@@@@@@@#@@@@#@@@@@",
"############$######################################$$$$$$$$#############$##$$$$###############$$$#@##@@&#@+#%$$%%$$#@@@@@#####@@@#######################################@$#$$#$@@@@@@@@@@@@#####@+#####@@@@@@@@@#@@@@@@@@@@@@@@@@@@@@@@@@@@@@@@@@@@@@@@@@@@@@@@@@@@@+@+@@@@@@@@@@@@@@@@@@@@@@@@@##$$#@@++++@@@@@@@@@@@@@@@@@@@@@@@@@@@@@@@@@@@@@@@@@#@@@@@+@@@@@$$%$$%%+@@@@@@@@@@@@@@@@@@@@+@@@@@@@@@@@@@@@@@@@@@@@@@@@@@@@@@@@+++++@@@@@@@@@@@@@@@@++++++++@@@@@@@@@@@@@@@@@@@@@@@#$%&%#@@@++++@@@####@@@@##@@@@@@@@@#########@@@###@@@@@####@##$#@@#@@@#@@+@@@####@@@@@@@@@@@@@@@@@@@@@@@@@@@@@@@@@@@@@@@@@@@@@@@@@@@@@@@@@@@@@@@@@@@@@@@@@@@@@@@@@@@@@@@@@@@#@@@@@@@#$%$@@@++++@@@@@@@@@@@@@@@@@+@@@@@@@@@@@@@@@@@@@####@####@###$%%$$##@@@@@@@@@@@@@@@@@@@@@@@@",
"###############################$$$###$$############$$$$$$$$$$##########$$$#$$$$$##$$#$$#####################$#$%%$$############@@################################$$$####@#$%$##@@@@@@@@@@@@@@@#@@#@##@@@@@@@@@@@#@@###@@##@@@#@@@@@@@@@@@@@@@@@@@@@@@@@@@@@@@@@@@@@++++@@@@@@@@@@@##@@@@@@@+++@@##$$$@@@++++@@@@@@@@@@@@@@@@@@@@@@@@@@@@@@@@@@@@@@@@@@@@@@@@@@@@$$$%#@##@@@@@@@@@@@@@@@@@@@@@@@@@@@@@@@@@@@@@@@@@@@@@@@@@@@@@@@@+@@@++@@@++@+@@@@@@@@@@@@@+++@++++@@@@@@@@@@@@@@@@@@#$%&%#@$$@O+@@@@#####@@@##@@@@@@@@@@@######@########@@#####@#####+O+##@@@@@@######@@@@@@@@@@@##@@@@@@@@@@@@@@@@@@@@@@@@@@@@@@@@@@@@@@@@@@@@@@@@@@@@@@@@@@@@@@@@@@@@@@@@@@@@@@@@@@@@@#%%$##@++++@@@@@@@@@@@@@@@@@+@@@@++@@@@@@@@@@@@@@@@@@@##@@###$&%$$##@+++@@@@@@##@@###@@@####",
"###############################$$$$$$$$$$$$########$$$$$$$$$$$$$$$$$$$$$$$#$$$$#$$$$$$$#####@@###########$##$##%%$$###@@@#@#$$$####$##########$$$#$$$#########@#@@@@#@@@@@#%$##@@@@@@@@@@@@@@@@@##@#@@@@@@@@@@@@@@@#########@@@@@++@@@@@@@@@@@@@@@@@@@@@@@@@@@@@@@@@@@@@@@@@@@@@++@@@@@@@@##@@@@##$%$#@@+@++@+@@@@@@@@@@@@@@@@@@@@@@@@@@@@@@@@@@@@@@@@###########$%%$##$++@@@@@@@@@@@@+@@@@@@@@@@@@@+++++@@@@@@@@@@@@@@@@@@@@@@@@@@+++++++++++++++@@@@@@@+++@@+++++@@@@@@@@@@@@@@@@@@#%&%##%&$@+@@@@@@###@@@@@@@@@@@@@@@####@#@@####@@@@###@@########@@##@@++@@@@@###@@@@@@@@@@@@###@@@@@@@@@@@@@@@@@@@@@@@@@@@@@@@@@@@@@@@@@@@@@@##@@@@@@@@@@@@@@@@@@@@@@@@@@@@@@@@@@@@$%%$##@@@@@@#############@#@@####@@@#@@@@@@@@@@@@@@@@@#@@####%&&$###@@@@@@@@@@##@####@@@####",
"################################$$$$$$$$%%%$$#######$$$$$$$$$$$$$$$$$$$$$########$$#####################$%#@$$$*%$###@@@@@#############@@#########$#############@@@@@@@##@$%$###@@@@@@@@################@@@@@@@@#$$#@###@@##############@@@@@@@@@@@@@@@@@@@+@@@@@@@@@@@@+++++++@@@@@++++@@@@@@####$%$#@@@+@@@@++@@@@@@@@@@@@@@@@@@@@@@@@@@@@@@@@@@@@@@@@@@@@@@###%%$%$##@+@@@@@@@@@@+@@@@@@@@@@@@@@@@@@@@@@@@@@@@@@@@@@@@@@@@@@@@@+++++++@@@@@@@+@+@+@@@@@@@@@@@@@@@@@@@@@@@@@@@@@@@@#%&&%%$$@++@@@#####@##@@@@#@@@@@@@@@#####@@#####@###########$%%##@++++++@@@@@@##@@@@@@@@@@@++++@#@@@@@@@@@@############@@@@@@@@@@@@@@@@@@##########@@@@@@@@@@@@@@@@@@######@@@@@@@@$%%$$$@@@@@@@@@@####@@@@@@@@@####@@@@@@@##@@@@@@@@@######$$$$%%%#####@@@@@@@@@##@@####@@####",
"#######################################$$$$#################################################$#############+O@@$=%$$##@@@@##@@############$$$###########################$$#$%$####@@@@@@@################@@@@@@@@###@@@@@@@@##@#$$$$$$$##@@@@@@@@@@@@@@@@@@@@@@@@@@@@@@@@@@@@@@@@@@@@++@@@##@@@#####%$#@@@@@@@@++@@@@@@@@@@@@@@@@@@@@@@@@@@@@@@@@@@@@@@@@@@@@@@###&&$$#+O++@@@@@@##@@@@@@@@+@@@@+@@@@@@@@@@@@@@@@@@@@@@@@@@@@@@@@@@++@@+++@@@@@@@@@@@@@@@@@@@@@@@@@@@@@@@@@@@@@@@@@#@#$&&&%$#++OO@@@@########@@@###############@@#@@@@@@@@@######$$%$@@#+OOOO+@@#######@@@@@@@+++++++++++@@@@@@@@@@@@@@@@@@@@@@@@@@@@@@@@@@@@@@@@@@@#################@@@@@@@@@@@@@@@@@@@@$%%$$$@@@@@@@@######@@@@@@@@@@@@@@@@@@@###@@@@@@@@@######$%$#$%$##$$#@@@@@@@@@##@@####@@####",
"#####################################$$###############################################$$$$$#######@@@@@@#@+o++#*%%%$#@+@###########@###@@@##@##########################$##$$$#@@@#######@#####$#########@@@@@@@@@@###########@@@@@@@@########@@@@@@@@@@@@############@@@@@@@###@@@@##@@@@##@@@@@@@#$%###@@@@@@@+@@@@@@+@@@@@@@@@@@@@@@@@@@@@@@@@@@@@@@@@@@@@@@@##%&%##@O++@@@@@@@@@@@@@@@+@++++@@@@@@@@@@@@@@@@@@@@@@@@@@@@@@@@@@+++@@@@@@@+++@@@@@@@@@@@@@@@@@@@@@@@@+@@@@@@@@@@##@#%*&$##@@#@+@@@@@##@@@@@@@@@@###################$$$$####@@@@@#$#+@#+OOOO+@@####@@@@@@@@@++++@##@@@@@@@@@###@@@@@@@@@@@@@@@@@@@####@@@@@@@@@@@@@@@@@@@@@@@@@@@@@@@@@@@@@++@@@@@@@@@@@$%%$$#@@++@@@@@@@@@@@@@@@@@@@@@@@@@@@@@##@@@@@@@@@@@#####$$#$%&&%$##@@@@@@@@@@##########@@##",
"######################################$##@@#####################################@@@###$$$$$$#######@@@@@$&%#$%%*%%$$@++@#####$############@###$########################$##$%$#@@@######@@@@###$#######@#@@@@@@@@@@@@####$$###########################@@@#########$$$##@@##@@@@@@##@@@@@@++@@##@@@@#$%###@@@@@@@@@@@@@@@@@@@@@@@@@@@@@@@@@@@@@@@@@@@@@@##########$$%%$#$@++@@@@@@@@@@@@@@@@@@@@@@@@@@@++++@@@@@@@@@@@@@@@@@@@@@@@@@++@@@@@@@@@@@@@@@@@@@+++@@@@@@@@@@@@@@@@@@@@@@@@#@+$*&$$$$#$$@@@@######@@@@@@@@@@@@@@@@####@######@@@####@@@@#@@$$@@+OOOOO+@@###@@@@@@@#@@@@@@@++@###@@@@@@@@@@@@@@@@@@@@@@@@@@@@@@@@@@@@@@@@@@@@@@@@@@@@@@@@@@@@@@@@@@@@@@@@@@@@@##@@#%%##@@@@@@@@@@@@@@@@@@@@@@@@###@@@@@@@@@@@@@@@@@@@######$$#$%*&%$##@@@@@@@@@@##########@@##",
"##########$$$$$$$$###$$###$$###$########@@##########################$############@#################@@+++$&*$$##&&%%$#@++@#@@@####$$$###$$$##$$################@@@######$$#$%%##########@@@@@#########@@@@@@#@@@@@@@@@@@@@@@@@@@@@@@@@@@@@@@@#########@@@@@@@@@####@@@@@@@@@@++++#@+++@@@@++@@@@@@@#$$###@@@@@@@@@@@@@@@@@@@@@@@@@@@@@@@@@@@@@@@@@@@@@@@##########$%%$#$$++@@@@@@@@@##@@@@##@@@@@@++@@@@@@@@@@@@@@@@+++++++++++@@@@@@@@+++@@@@+@@@@@@@@@@@@@@@@@@+@@@@@@@++@@@@+@@##@+#&**&%%#@+@@@@@@@@#@@@@@@@@@@@@@@@#####@###########@@######$$$#@++++OOO++@##@@@@@@###@@@@@@@@@@@@@@@@@@@@@@@@@@@@@@@@@@@@@@@@@@@@@###@@@######@@@@@@@@@@@@@@@@@@@@@@@@@@@##@@@@@@@@#%%$#@+@@@@@############@@@@@@@@@@@@##@@@@@@@@@@@@####@@#$$$$%%$#$$$###@@+@@@@@@########@###",
"#########$$$$$$$$$####$##################$#########################$$############@@@############$$#@+++O@#*&#O@-&&%$$#@@@##@#################################@@@@@########$&%##@#######@@+@@@########@@@@@@#@@@@#####@@@@@@@@@@@@@@@@@@@@@@@#@@@@@@@@######@@@##@@++@@@@@@@@@@@@+++@@@@@@@@@@@++@@#$$###@@@@@@@@@@@@@@@@@@@@@@@@@@@@@@@@@@@@@@@@################$$$$$@@$++@@@@@@@@@###@@@@@@@@@@@@@#######@@@@@@@@@@++@@@@++@@@@@@@@@@@@@@@@@++@@@@@@@@@@@@+++++++++++++++@@@@@@##@@@$&==%$%$+O+@@@######@@@@@@@@@@@@@##@########@@#####@@#$$##@#$$$$@+#++++++@@@@++@@@@@@++++++@##@@@@##@@@@@@@@@@@@@@@@@@@@@@@@@@@@@@###@@@######@@@@@@@@@@@@@@@@@@@@@@@@@@@@@@@@@####@%%$#@+@@@@@@@@@@@@@@@@@@@@@@@@@@@@@##@@@@@@@@++@@#######$$##$$$##$$###@@+@@@@@@@#######@###",
"###########$$$$######$$##$$$$$$$##$#####$$$$##########################@@@#####$$#@@@@##########$$#@@+++OO@$&%##$%$##$$#@@###############@@######################@#########$%%#@@####@+@$$#@@@##@@#####@@@####@@@####@@@@@@@@@@##@@@####@@@@@@@@+@@@@@#########$$#@@@@@@@@@@@@##@++@@@@@@@@@@@@@@@@@#$$###$$#@@@@@@@@@@@@@@@@@@@@@@@@@@@@@@@@@@@@@@@@@@@@@@@@####$%##$$#$+@#+++@@+@@@@@@@@@@@@@@@@@@@@@@@@@@@@@@@@@@@@@@@@@@@@@@@@@@@@@+@@@@@@@@@@@@@@@@@@@++@@@+++@@@@@@@@@@@@@@@@@@#$&=*%$%#++@@@@@#######@@@@#################################@#%&%@O+@+++++@@@@@@@@@@++OO++@@@@@@@@@@@@@@@+++@@@@@@@@@@@@@@@@@@@#@@@@@@#####@@@@@@@@@@@@############@########@@@@#####&&$$$@@@@@@@@@@@@@@@@@@@@@@@@@#@@@####@@@####@@######$$$$###$%%$$#@@@#@@@@@@@@#########&##$",
"##@@#################$$$#$$$$#$$####$$$$$$$$$$########################@@@#################@@@@@@++O++@++O+#$$#@$$######@@@@@@@######$$#########$$######################$##$%$#@@@@@@++@%%$#@+++++#$$#@@@@####@@@####$#####@@@@@++@@@##@@@@@@@@@@@@@@@@@@@@#########@@@@@@##@@@####@+@@##@@@@##@@$$@#%$$$#%%#@@@++@@@@@@@@@@@@@@@@@@@@@@@@@@@@@@@@@@@@###########$%%$##$$#@+OO+@++@@++@@@@@@@##@@@@@@@@@@@@@@@@@@@@++@@@@@@@@++@@@@@@@++++++++@@@@@@@@@@@@@@@@@@++@@@@@@@@@@@@@++++@@#$&*&&&%#@@@@@@#########@@###################$##@@@@##@@@@@###$%%#@@+++OO++@@@@@@@++++++@@###@+@@@@@@@@@@@@@@@@@@@@@@@@@@@@@@@@@@@@@@@#####@@@@@@@@@@@@@@@@@@@@@@@@@@@@@@@##@@@@####@%%$%%%&@@@@@@@#####@@@@@@@@@@@@@@######@@###########$$$$$$##%%%%$$#@###@++@@+@@@@######%#@#",
"############@@@@###@################$$$$$###$$$$$$$$$$$$$$##################@@@@@@@@@@@@@@@@++++OOO+@#@@@@#$$##$*&%$$##@@@@##$###########$$$###########################$$#$%$##@@@##@++#@@@+++++@@$$##@@@@@@#####@@##############@@#####@@@@#@@@@@@@@@@@@@@@@@@@@###@@@@####@@@@#@@+@@@@@###$#@@+@##%%$$$%%#@@@@@@@@@@@@@@@@@@@@@@@@@@@@@@@@@@@@#################&-*#@#$+OooO+@@@@@@@@@@@@+@@@@@@@@@@@##@@########@@##########@@@@@@@@@@@+++++++@@@@@@@@@@@@@@@@@@@@@@@@@@@@@##@@@##$%&&&&%%$#@@@####$##########$$$$$$$$###$$###$$$####$$$$#@#$$$####@+++OOOO++@@@@@@@@@@@@@@@@#####@@@@@@@@@@@@@@@@@@@@@@@@@@@@@@@@@@@@@@@@@@@@@@@@@@@@@@@@@@@@@@@@@@@@@@@@@@@@@@@@@@@@@$%$$$$&@@@@@##########@@@@@@@@@@########@@@@####@@@##$$%%%$$$%$$$%%$$$#@@@##@#$$$$$#####+++",
"####$###############################################################@@#####@@+++++@@@@@@#############$##$##$%%%&&&%$####$$#$$$#########$$##################$$$$$$$####$$$#$%$###++@#@oXX+@@++O++@#####@++@@@####@@@@@@@@@@########@###########@@@@@@#@@@##################################@@+Oooo#%$$$%$##@@@@@@@@@@@@@@@@@@@@@@@@@@@@@@@@@@@@##################$*==&#@@OoO++++#@@########@@@@@@@@@@@@@@@@@@@@@@@@@@@@@@@@@@@@@@@@@@#@@@@@@++@++@@@@@@#@@@@@@@###@################@@#$%*-=&&&%##$$$$$%%%$$$$$$$%%%%%%%%%$$$$$$$$$###########@@@+++@@@@@@+++OO+++@@@@@@######@++++@@@@@@@@@@@@@@@@##################@@#####@@@@@#########@@@@@@@@@@@@@@@@@@@@@@@@@@@@@@@@#%&%#@@@#@@##############@@###@@##$###$$$#@@@@######$$$$####$$%%%%%%%%$$OOO+@@#%%%$$$###@OoO",
"######################$###$$$#$$$$$$####$$$$$$$$$$$$$$$$$$$$$$$$$$$##$$$%$$$$#######@@@@#####$$$$$##$$$$$#@##$$%%$$#@@@#$#####+O##$$######@##$###########$$$$$$$$$$$$$$%$$%%%$$#@@#$#OXXoOOOoooO+@@@@@+O+@#####@@@#@@@##@@###@@########@@@#########@@##@@@@@@@@@@@######@@@@@@@###@@@@+++++O++@#$&&%$#$%#@+#$####@@@@@@@@@@@@@@@@@@@@@@@@@@@@@@@@###############$$#%*%###@@#@O+@@@@@###@#####@#####@@@@@@@@@@@@@@@@@@@@@@@@@@@@@%$$##@@+@@@+@@+++++++@@@@@##############@@@@++++++OOO@$*-;-=*%$###$$$$$$$$##$$$#@@@@@@@++++++++++ooooooXXXoOOOOoO@$$#@@@++OOoooO@@@@@@@#####@+OOOO+@###@@#################################################@@@@@@@@@@@@################@@$%**%#@@#################@@##@@@@##@@@@###@+++@@########++++@$%&&&&%%%%%+OoOOoO++++++oXOOOOO",
"++++++++++++++++@@+++@@+++@@@+@@#####@@##$$$##$$$$$$$$$$$$$$$$$$$#####$$$$$$$$####@@@+++++++@@@#$##@#$$#@+++++@$&%$#@+O++++++@+OOO+OOOO++OOO++OO++++++++++@@@@############$%$########+++XooOooooooO+OO+@@OOOOOOOoOOoooOOOO+++++@@++++++++++++++++OOOOOOOOOoooooooooOOOOOooooooXXoooOOOOOOO+#$&*=*$$&%$$%%$###@++++@@@@@@@@@@@@@@@@@@@@++++++++++OOOOOOOOOOOOOOOO+@#%%##$$#+++++++++++++++++@+@@@@++@@@@@@@@@@@@@@@@@@@@@##@@#####@@@@++++++++++OOOOOO+++++++OOOOOOOOOoooooooooooOXooo+$&*==**&$+oOOOOOO+OOOOOOOoooooooooXXXXXXXXoooooOOOOO++@@@@+$%$@+OO++OooXXoooOooooooOOOOOOOO+++++++OOOOOOO+@@@@@@@@@@@@@@@@O++@@@@+@@#$$$########@@@@@@@@@@@@@@@@@@@@@@@@##########@@$&%$##@@@@@@@#####@@@@@++++OOoOOOOOOOOOOoooooOOO++++OOOOOO@#%&&**&&&&%@@+OoooooooOOOO@@+++",
"OOOOOOOOOOO+++++++OOOOOOooOOoooO+++++++++++++++@@@@+++++++++++++@@@@@@@@+++@@@@@@++++OOOOOOOO+++##@@###@++++++@$*&%%$@+OO+OO+++++OOOOOO+++++OOOOOOOOOOOOOOOOOOOO++++@++@@@#%$###@@@@@+O+@@@@@+OOo.XooO+#+OXXXXooooooXX.......XXXX..XXXXXXXXXXXXXXooooooXXXXXXXXooooooOOOO++++OOOOO++@@@@@@######%##%%%%$&&%#+oX.oooooooooooooooooooooooooooooooOOOOOOO+++++++++++#&&$####@+OO+++++OOOOOOOOOOOOOOOOOOOOO+++++OO++++++++++++++++++OO++++@@@@++++++++++OOOOoooooooooXXXXXXXXXXoooooOooOO+#%%%&**&#++++++++++++++++++OOOOOOOOOOOOOOOOOOOOOOO+++++@@@O@#@+@@+++OOoooooXXXXXX..XXXooooO+++oooX..  ....XXXXXXXXXXXXXXXX..XXXXXXXoooooooooooooOOOOOOOOOOOOOO+++++++++++++@@@@###+O@%%$$#OOOOOOOOOOOOOOOOOOOOOoooooOooOOOooOOOOOoOO++++++++++@$%%&******&###++++++@@@@@+##@@@",
"OOOOOOOO++++++++@@+++@@+++@@+++@+++@@###@@@@@@@@@@@@@@@@@@@@@@@@@#####@@@++@#####@@@@+++++++++++####$#@@@@##@@$&&%%%%$#@@@@+OO+@@+++@@++++++++@@@++++++++O+++++OO++++++@@@$&&%$$$$$%$#++OOO+@@@++oX.o+@+++O++@@@OooO++OO++OooOoXXoooooooooooooooooooooooooOOOOOooooooooOO++++@@@@@@@@@@#$%$#@+++*&%#@%*&%&%#++OOO++++++++++++++++++++++++++++++++++++++++++++++++@#$$$$#$%%#@@@@+@++++++++O+++++@@@@@@@@++++++@@@@@@@@@@@@++@@@@@@@@@@@@@+@@@@@@@++++OOOOOooooooooOOOOOO+++OOOO++OO++O+$****&$#$++++@@@+++++++++++++++++++++++++++++OO+++@@@@@##@@@@@$$#@@++++++XooOOOooXXXooooooooooooXXXXXooOOOOOOOOOOOOOOOOOOOOooooooooXXXXXooXXXX............XXXXooooOOOOOOOOOOooooo#+@%%%$#OOOO+++++++++++++++++++++++++++++@#$$$##@###$$%%@###$%&&*=*=*==*%&%#@##@@@@###@###@@",
"@@@@@@OO+++++OO+@@+++@@@++@$##$@@@@@#####################@@#$$#@@#$$$$$$$$######$$$##@+++@@+@##@@@@@@@##$$$$##$$%%$$%%%%$#####@@+O++@@@@@@#@@@@####@@+++++@@@@@@@####@#$%&&%%%$$$$#$$#$%&#+#$##@@+@+oo+OO@@@#%$@@Oo++++##@OoooOOO++++++++++++++++++++++++++@+++++O++++OO@O+++#+@@++@##@@+##@++OO###$%&&$%$%$+OO@+++++++++O++++++++++OOOOOOOOOOOOOOOOO+@@+%=#@$@#++#%&%$$##*&$%%%$###@@###$##@+++++@@@@@+@@@##$$$##########$$$$$$$$$$$$$$$#@@@@#$$$$$#@@++OoooXoOOOo+@@+@@@@@@@@@+++@@@+#$$$%&*&%$$$$$$$$########################@@@@@@@@@######$%&&**&%%$$$$$###@@@@@@@@+++++++++O++oXXXXoooOO++++OO@oO*%%$#@+OOOOOOOOOOooooooXXXXXXXXXXXXXX... .XoXoooO+@##+O++++++OO@$%%$%&&&=&$###@@##############@@@@@@@@@@@$$%&&%$$%&&%$%%%%&&&&&&&-==**&&&%%%%%%%%%%$$$$%%%%%%",
"$$$#@++@@@+@@@+++++++++@@@@########$$$$$$$$$$$$$%%%%%%%%%%%%%%$$$$$&**&%$$$$$$$$%%$###@@##+O@$$###@@@#$$$$$###$$&&%$$&&%$#####@@@####$$$$##################@@#$$@$&&%$$$%$%**&&$$$#@++@#$%&$$$@#$#$&%#+O@##@+++++OooOOOO+++++++++++++++++++@@####@@@@@@@@@###@@#@@#$###@#@@$##%#%$#$&&%@+@@@#$$$##$&*&%$##$%#+O+#+O+@#@O#@@#@@#@@@++++++++OOOOOO+@@#@@@@@@#$##$#$$%***&%&%**%%&&&%$$$##$$%$#@+++++@####$$$$$$$$$$$$$$$$%%%%%%%%%&&&&&&&%%%%%%%%%%%&&&&&&%$###@@#@+++@$$$########@@#$%%$%&&&%&&*&&%%%%%%%%%$$$$$$$$$$$$$$$$$$$$$$$#$#####$%%%%%&*==*&&&&***&&%%$$#########$$$$$$%%%%%+OO++OoO@##+++++@@#########@@@@+++++++++++OOOOOOOOOO++ooooX.XoooO+@@#####@######@@@#%&&*==****&$$%%%%%%%%%%$$$$$$$$%%%%%%%%%$$###$&*&*==*=-======-----;;;;;;======*******&******",
"&$$$###$###########@@@##@#@#%$#$%%%%%%%%$$$%%&&&&&&&&&&&*=*&%$%%%%&&&&%%%%%%%%&&%$@@##$%%$@+@@##$%$$%%%%%$$$$%%%%&%$$%%%$$$###$$$$$$$$$%%$$$%$$$$$$$$$$%%%%$$$$%$$#$&&%$%%&&%%*&%%**&&&$##&**=*==*&&**&*$&*&$@+++OoO+@@++@@@##$$$$$$$$$$&&&%%$$$$$%%%%%%%%$$$%%$$$$$$$$$##+##+$$$$$#@$&&&&&%&**%#$*=*%%&%$%&&%$#+++++++@@@@@@@@@@@@@@@@@@@@@@@@@######@@#++%%%*%%&&&&&**&%%%#@%&&&%%%%%%$%$%$@@@@@#$##$%%%%%%%%&&&&&&&&&&&&&&&&&*********&%$$%&*%%&*==--=***&$#####@#&=*%%%%%%%%%%%%%&&&%&=;-**=********&**&*****&&&&&&&&&&&%%%%%%%%%%%%&&&&**=-;;-===---==**&&%%%%%%%%%%%%%%%%%&*=*&$#$########@@@##$%%%%%%$$##$$$$$$$$$$$$##############+O+@@++OOO++@#$$%&****&&***&&&&=--=--*=--=**&&&******&&&&&&*****======%&&&**==%*----;;;;;;;;::::::::::-=*&&*=-;;;;;;;;----",
"*&%&%$%%%%&&%$$$$$$#######$#%%$&&&&&&&&&********--------=*****&&&&&%$$$%%%&&**==%$%&%$$&%$$%$@@#*=***&&&&&&&&&%%&**&%&&&&&%$##$%%%%%%$%&&&%&&&%%%%%&==&#%%&*****=&$$&*=*&**&*=-;;;-=*&&&%$%**-:=--*%&**=&*--*$###@@%&%$$$##$$%%%%%%%&&&&&&***************&&&&&&&&&&%$%$%@OOO@@o#$%%%#@$=*=---=&$%*====*%&=*&**&$%%$$##@@#$##$##$$#########$$$$$$%$#$%&&%%##%&**&&**&&*&&*&%**%*==*****=***&&%$$###$%%$%&&*******========;;;--=====*&&*=-;;--==****==-;;;;=*&%#@@@$#+@$&&&&&&&&&&&%%%&&&&*=-=***==----------------=========*****===*&&*==-==--------;;:::========***=====&&&**=--==*&&%#%&&&&&&%%%%%%%%%%******&&&&&&%%%%%&%&%%%%%$$$$$$$$#@+@@@@+++++@##%&*=--;;=**==-----;:;--;;;:>:;;;;;;;;;;;;;;;;;;;;;;--======--;;;;;::;;::>>>>>>>>:::>>,,,;;::>>,,,,,>>::;;;;;",
"*&&*&&&&%$$%&%%$%%%%%%%$##$#$%%%&&&&&&*******=*==========******===*&&*&&&&&&&****&=-*%$%$$$%$#$&*****&%%%%&&&%$$%*-=&&&&&%%&&&&&&&&%%$$$$%%%&&&&$&&%%==*%&********=*&&=-==**--=-;==---*##*&$*--=&*&&*&&=*&&*&$#$###$$@@$$$%&&**=====----%$$%=;-=--==**&&&&*==*=--==*%$$$$%#@$$%&*=--;-*$=--==---;==-::=&*=&$%&%$=***&&%%%&%%&%%&&%%%%%%%%%%%%%%%%%$$$%%%%%%%%&&****=-=&$*&&;>;;-;-------**&&%#####$&=--=;;;;;;;;;;;;;;;;::::::::::>>>>>:-;::;-=**======-=&$@+O+@##@@$%&&&&&&&&&&%%&=---==-*&*=-------;;;;;;;;;;;;;;;;;;;-------;;;--==****=-:::;;;:>,,>>;;;;;;;;--------===-----=&%&******====************================-======********&%$#@@++#@@##@@;><<,>>>:-=-;>>,,>>,,:;>>:>,,,,<,,,,,,,,<<<<,,>>;;;;;;;;;---------;>>::>>>>::;;;:>>>>>::<<<<<<<<<<<<<<<<:>,1",
"$%$%&**%#@@#$%%%***&&&&&#$$##$%%%&&***===================--=***========****&****==-=*&%%%%%%%&*-%%%&&&&%%%&&&&%%&*--*&&&&&*=----%%%%%%%%%&&&&&&&&**&$$&-*****==--*=-*===-:-=-========*%%&%%$$$&=%&&&**=-=&%%%$@@#$$$##$&&&&&&%%%%&***===***==-----------;;;-;;;;---=:-%@$&$@#%**---:,<,;=-=&*-:,-**-:>:;=*&%%&&&&&%%$$$#&%%&%%&%%%&&&************=-=*&&***&%%%&&**=-=**=&**-;=-:>::::>>,;,:;&##$$##%->:;>>>>>>>>:::;;--=========&&&%%$$#@@@@++@@@@@+++++$#@++OO+@@#&-;;::;;:>>;=-:,<,,,>>;;;;;;;;;;;;;;::;;--;::::::::;;;;;;;;;;=========*=-;:>>>>>,>>>>::::::;;;:::::::--;::;-=&#$***=&=======--------;;;;;;;;::>:::::::::::;;;---------*&%$@++++@@@+++-:>:;-;::::;----==*&=;:;;;-**=**&&&&&&&&*=**&%%%%$#@@#$$########++@#$#@##%**%$$$########*:>*#@#@@@$$$%-::;-*",
"%%$$%&&$$$$$%&&*&-*&&$$*%$$$#$&&**=-;;:;--------------------=**&&*====-:;;--=--=-;;-*&##%%%$%==*&&***========--==-;:;=*==--===;;--==--====-----;::::::::::;;;;;;:;;-=---;;;;;;;:;=*%$$#%*##*$+@%%$%*&&&&*%$%%$#@+@####$%#@@@+++OO+++++++%&&$+oXo+++@@#####@O++OOOO+#%--$$%%#$%$*:;----:<;:>::>>:>,,>><<,>:::;-==***********=*****==---;;;;;;;;;;-;;;-=====****=-;--;=*->=--*&%&;=*==-;::;,,>-%%$$##$%&&%+#%%$@@#$Oo+@OXoXOOoo@@OoooOO+++@@@@+++@@@@+++@@@@@@@+O+OO+#$$$%->>-&**&*---===-;:;;:>,><,>::>,,,,,,,,,,,,,,,,,,>>>,,,,,>>::;;;------;;;::;;;;;;>>>>:::::;;;---=*===-;;;>=%%&&*&&&=*%%&*;;;:>>>>>>:>>>>>---===******&&&%#&&$%##&&&*&%#@@+++@++@#$#@OO+$&=-=%#@+O+++++##+@#@+O+OO+++++++++++++OOO++++++++@+OOOO+@@++++++++OO+#$#@@@@@@@@@+$%#+@$#@@@@@@@####@",
"*=-*****=--==-;;=%*=%%%#$$#$%$*=-;;:>>,,,,,,,,,,>>>,,,<<<,,,,,<<<,>>,<111<,>>>:>>,<<>;%$%%%#%;;;::;;;;:>>>>>>>>,,,<1<,>>>:::::::>>>>>>:::;::::::;;;;;;;;:>>>>>>>:,,>>:::;;::>>>:,-##&=;&O+++%$+@$oO%%@#%&%#@####@+#%%@+@@@@@@@@@@@@@@@@@@@@@@@@@@++++++++++++O++++++OO$;$#+##@=>>,,>>>>>,>:;;;;=;----;;:>>::::;;;;;;;;;;*=**=***================-*&&*==***%%=*&-2,:,,;=----&&%#$+++O+O++@@#*-&$@+++@OXXo+++++++++++++++@@@@@@@@@@@@@@@@@@@@@++@@+++++@#$$#@@++O+O+##+OO+o+@+@%&$#+oXXoOOOo+@#@#$$%$$#@@@@#%&*&&%%&&&&******=====>>>>>>>>>>;=&$#@++++++++####$$$$%#OO+@++##@@++OO%%##$#@$$#$%*=&$%=**-=%*-*&*&#@$%$$########@@@@@@@@@++OO+$&*%#@+++++@#$###@@@###%*&#+@@##@#$#++#@+@######@@@@@@@@@@@@@@@@@@@@@@@@@@@@@@@+@@@#$@O#@+++@###@@@@@@@@@@@@@@@@@@@@@@@@@@@",
"&=;;----;:;=*--=;-==&%%&$##$$$%**&&&%%$$*=--**=-;--=-;>,,,<<111211<<,,,,,,,<<<<<1,<1<>=&&$$$*:>,<,,>:::;--=****=----------------**&&&%%%$$$$%&&&@@@@+@@@#$&&%%$##%%&=&%&&&&%%%%$%*-=&***=&@Oo#&o#####$%&%%%####@@+O+@@@@@@@@@@@@@@@@@@@@@@@@@@@@@@@@@@@@@@@@@@@@+@+@#@@$$+$#O#%**&$###$$##+OoOOOoooooooooOO++++@@@@@@@++++++++++++OOOOOOOOOOOOOOOO+++++++++++++++#X#@:&#%##%&&=:*&%%%%%%@@#%%$#+O++++@##@@@@@@@+++++@@@@@@@++@@@@@@@@@@@@@@@@@@@@@@@@@@@#$#@+++++@#@@+++@@@@@#$%@@@@@@@@@@+++++++@####@++++++++++++++++OOOOOOOOOo+@$%%%%&%#@+O+++++++++++O++O+#&=O@@+@+@@+++++++%$$#@@@@$$%%%$$###@+++@@@@@@+++@@@@@@@@@@@@@@@@@@@@@@@@@@@@#$@@@@@+++++++@@+@@++@#@@@@@@@@@@@@@###@@@##@+@##@+++@@@@@@@@@@@@@@@@@@@@@@@@@@@@##$$@@@@@@@@@@@@@@@@@@@@@@@@@@@@@@@@@@@@",
"%%&**===*=-*&&%$%**==&$&%%%%%%%$##@@++OOOOOOOOO+++oooO++@#$%&&%$$$##@@@@@##$$%%&&%&=;;*%%$$$%&&&&&&%%%$##@++++++++++++++++++++++++@@@##$$##@#@@@@@@@+@@@@###@@++++++@####@@####@+$*=*&=;==;=**#+#$%$$#$$$%%$#@@@@+O+@@@@@@@@@@@@@@@@@@@@@@@@@@@@@@@@@@@@@@@@@@@@@@@@#@@$$O+###@++@@@@@@@@@@@@@@@++++++++++++++++++++++++++@@@@@@@+++++++++++++++++++++++@@@@++@@#+@++$$o++++++++#@*%$=&$@@@$%$#@@@+++++@@@@@@@++++++@@@+@@@+@@@@@@@@@@@@@@@@@@@@@@@@@@@@###@@++++O++@@++@@@@@@###@@@@@@@@@++++++@$&&$@+@@@@@@@@@@@@@@@@@@@@@@@@@@++++++++++++++@@@@@@@@@@++++@###@@++OOOO++++++@$$#@++++##$$$$$$######@@+++@@@++@@@@@@@@@@@@@@@@@@@@@@@@@@@##@@@@@+++++++@@@@@@@@@@@@#@@@@@@@@@@@#%$@+@@@@@@@@@@@@@@@@@@++++@@@@++++@@@@@@@@++@@@@@@@@@@@@@@@@@@@##############@@@@@",
"$$###$$%%%%%%%$##$$&-&@@#$#####@@@@@@@@@@@@@@@@@@@@@@@@@@@@@@@@@@@@@@@###@@@@@@@+@$&=;-*&&&%#@+++@@@@@@@@#####@@@@@@@@@@@@@@@@@@@@@@@@@@#@@@##@@@@@@@@@@@@@@@@@@@@@@++@@@++####@@+@#$%%&&*=-=%+@+@$$$#@##$$##@@@@+O+@@@@@@@@@@@@@@@@@@@@@@@@@@@@@@@@@@@@@@@@@@@@@@@@#@@$#+O@@OOO@@@@@@@@@++++++++@@@@@@@@+++++++++++++++++++++++++++++++++++++++++++++++@@@@+++@@@@@@@@@@@+++++@@@@@@@@@@##$$#@+#@@++++++@@@@@@@@@@@@@++@+++@+@@@@@@@@@@@@@@@@@@@@@@@@@@###@@+++++++@@@+@@@@@@@@@@@@@@@@@@@@@@@@@@@@@@@@@@#########@@@@@@@@@@@@@@@@@@@@@@@@@@@@@@@@@@@@@##@@@@o +++@@@@####@@@+@##@++OO+@@#$$$$#######@+@@@@@#####@@@@@@@@###@@@@@@@@@@@@@@##@@@@+++++OO+#@@@#@@@@@@@@@@@@@@@@@@##$%@O+#@@+++@@###########@#####@#####@@@@@@@@@@@@@@@@@@@@@@@@@@@@@@@@@@@@@@@@@@@@@@",
"#######$$#@###$$$$$%%$@+@@@@@@@+@@@@@@@@@@@@@@@@@@@@@@@@@@@##$$$$$##############+@$%*;:-**&$##@@+@@@@@@@@@###@@@@@@@@@@@@@@@@@@@#####@@@####@@@@@@@@@@@@@@@@@@@@+@@##@++@##@@@+++@@@#@+O#$#%%#%%$#@+@#$$$$####@+++++@@@@@@@@@@@@@@@@@@@@@@@@@@@@@@@@@@@@@@@@@@@@@@@@#++#%#++++O+@@@@@@@@++++++++++++++++++++++++++++++++@+++++++++++++++++++++++++++++++@@@@+++@@@@@@@@+@@+++@@@########@@#$%$##@++++@@@@@@@@@@@@@@@@@++@+@+@@@@@@@@@@@@@@@@@@@@@@@@@@@@###@@@++@@@@+++@@@@@@+++@@@@@@@@@@@@@@@@@@@@@@@@@@@@@@@@@@@@@@@@@@@@@@@@@@@@@@@@@@@@@@@@@@@@@@@@@@#@+O+@##@++@#$&%#@++@###@++OO+++@########@@++@@##@@@#####@@@@@@@@@@@@@@@@@@@@@@@@##@@@++++OOOO+##@##@@@@@@@@@@@@@@@@@@$@+#$@@%#@+++@+++@@@@@@@@@@@@@@@@@@@@@@@@@@@@@@@@@@@@@@@@@@@@@@@@@@@@@@@@@@@@@@@@@@@",
"###$$$#$$$###+@#%$$%%%$+@@#$#@@@@@@@@@@@@@@@@@@@@@@@@@@############################$&=-=&%$$$##@++@@@@@@@@@######@@@@@@@@@@@@@@###@@@@@@@@##@@@@@@@@@@@@@@@@@@@@@#++##@#@@##@+@@@@@@@@@+@###$%=;=&$@@@@@#@#$$#@@@++++@@@@@@@@@@@@@@@@@@@@@@@@@@@@@@@@@@@@@@@@@@@@@@@#++##@#+@$+O++++++++++++++++++++++++++@@@@@@@+++@@@@@@@@@@@@@+++++++++++++++++++++++++++++@@@@@@@@@+@@+++@@@@@@@@@@@@@#$$$##+O+++@##@+@@@@@@@@@@@@@++++@++++@@@@@@@@@@@@@@@@@@@@@@@@@##@@@++@@@@+++@@@@@@+++@@@@@@@@@@@@@@@@@@@@@@@@@@@@@@@@@@@@@@@@@@@@@@@@@@@@@@######@@++@@@@@@@@@+++++@##@@@@@@@@@@@@@@###@@++++++@@######@@+@@@@@@@@@++@@@@+++@@@@@@@@@@@@@@@@@@@@##@@@++++OOOO+##@##@@@@@@@@@@@@##@@@@##++$$@$#@@@##@++@@@@@@@@@@@@@@@@@@@@@@@@@@@@@@@@@@@@@@@@@@@@@@@@@@@@@++@@@@@@@@@@@@",
"$$$$$###$##$$#@@##@#&&#+++@#@++@@@@@@@@@@@@@@@@@@@@@@@@@@@@@@@@@@###############$$$%&*=*%$$$$@@@###@@@@@@@@@@#####################@@#######@@@@@@@@@@@@@@@##@@@@@@+++@@@@++@OO@@#@@++++#@@##@$%%&%$##@@+@+#%$#@#@++O+@@@@@@@@@@@@@@@@@@@@@@@@@@@@@@@@@@@@@@@@@@@@#@@#++#@+#++$+O#Oo+#+O+#####@@@@+++++++++++++++++++++++++++++++++++++++++++++++++++++++@+@@@@@@@@@@@@@+@@+++@@@++++++++###$#@@++++++@@@@+@@+@++@@@@@@+++++@++@+@@@@@@@@@@@@@@@@@@@@@@@@@@@@@@@@++O+@@@@@@@@@@++@@@@@@@@@@@@@@@@@@@@@@@@@@@@@@@@@@@@@@##########@@@@@@@@@@@@@@@@@@@@@@@@@@++@#@O++++++@+@@@@@@@@$$#@@+++++@@###@@@@@######@@@@@@@@#@@@@@####@@@@@@@@@@@@@@@##@@@@+++++OO+##@##@@@@@@@@@@@@@@@@@@+$#+#$@+@@#$$$##@@@@@@@@@@@@@@@@@@@@@@@@@@@@@@@@@@@@@@@@@@@@@@@@@@@@@@++@@@@@@@@@@@@",
"$$$$#####@##$$$#@#$#$$#@++++++@@@@@@@@@@@@@@@@@@@@@@@@@@@@@@@@@@@@#################%&&*&%%$%#+@####@@@@@@##@@@@@@@@@@@@@@@@@@@@########@@@@@@@@@@@@@@@@@@@@@@@@@@+@@@@++##@++@@@#@#$##@@#$$+OO+@###@@@@@#@#$%%#@@@+O+@#@@@@@@@@@@@@@@@@@@@@@@@@@@@@@@@@@@@@@@@@@@##@@++#$++OO#@O@OXo+@#@+++++++++++++++++++++++++++++++++++++++++++++++++++++++++++++++++++@@@@@+@@@@@@@@@+++@@@@@@@@@@@@@#####@@+++++@@@@@@@+++++@@@@@@++@@@@@@@@@@@@@@@@@@@@@@@@@@@@@@@@@@@@@@++O+@@@@@+@@@@@@@@@@@@@@@@@@@@@@@@@@@@@@@@@@@@@@@@@@@@@@@@@@@@@@@@@@@@@@@@@@@@@@@@@@@@@@@@@@@@@@@@@@@@@@@@@@@@@@$$#@@+++@@@###@@@@@########@@@#$####@@#####@@@@@@@@@@@@@#@@##@@@@@+++++++##@##@@@@@@@#@@@@@@@@@@+@#++##O@########@#@@@@@@@@@@@@@@@@@@@@@@@@@@@@@@@@@@@@@@@@@@@@@@@@@@@@@@@@@@@@@@@@@",
"#@@##@######@@##$$%$$%%@@#@@@@@+@@#########################$##$#################$$#%&&=&$$%&$@##@@###########@#####@@@@@@@@@@##@@@##@@###@@@####@########@@@@@@@@@@+O+@@+++@%%@#+@@@@@@###@@#@@@+@@@@@#$$#@#&*%++++O+@@@@@@@@@@@@@@@@@@@@@@@@@@@@@@@@#@@@@@@@@@@@@##@++@$@#@oO@@++++++++++++++++++++++++++++++++++++++++++++++++++@@@@@@@@@@+++@++++++++++++@@@@+@@@@@@@@@+++@@@@@@@@@@@@@@###@@@++++@@@@@@@@++++++@@@@@@@@@@@@@@@@@@@@@@@@@@@@@@@@@@@@@@@@@@@@@@@@@+@@@@++@@@@@@@@@@@@@@@@@@@@@@@%*#@$@@@@@@@@@@@@@@@@@@@@@@@@@@@@@@@@@@@@@@@@@@@@@@@@@@@@@@@@@@@@@@@@@@@@@@@@@$##@@+++@@###@@@@##@@+@@@@@@#########@#####@@@@@@@@@@@@@#@@##@@@@@@@+++++##@##@@@@@@@@@@@@@@@@@@@OO@O@$@@#@@++@@@@@@@@@@@@@@@@@@@@@@@@@@@@@@@@@@@@@@@@@@@@@@@@@@@@@@###@@@@@@@#@@@@@",
"###########@##$$$$$$%%$$@#$###@@@@@@@@@@@@@@@@@@@@@@########$$$$$###############$%$%&&==&&&%$##$###################@@@@@@@@@@@@#@@##@@####@#####@@@@@@@@@@@@@@@@@@@@@@@@@@@@@@@@@@@@@@@@@@@@@@@@@@@@@@#$$%&%%&%$+++++@@@@@@@@@@@@@@@@@@@@@@@@@@@@@@@###@@@@@@@@@#@@#@@@@##@@+oO+O+@++++++OO++++@++++++++++++++++++++++++++++++++@@@@@@@@@@@@++++@@@@++@@+@@@+++++@@@++++@@@@@@+@@@@@@@@@@@@#$$#@+++++@@@@@@@@@@@@@@@@@@@@@@@@@@@@@@@@@@@@@@@@@@@@@@@@@@@##@@#@@@@@@@@@@@@@@@@@@@@@@@@@@@###@@@@@#%-&@@@@@@@@@@@@@@@@@@@@@@@@@@@@@@@@@@@@@@@@@@@@@@@@@@@@@@++@@@+@@+++++@@@@@@@@@#$#@@++@@@@###@@@#@@@#@@+@@@@##@###########@@@@@@########@####@@@@@@@++++##@##@@@@@@@@@@@@@@@@@@#@#@++$$@O@$#@@@@@@@@@@@@@@@@@@@@@@@@@@@@@@@@@@@@@@@@@@@@@@@@@@@@@@@###@@@@@@@#@@@@@",
"#########@@@##$$$$$$$%%#@@#$#@@#@@@@@@@@@@@@@@@@@@@@###########$################$%$%%$*;:=%###@@@###############@@@@@@@@@@@@@@@@##########@#####@@@@@@@@#@@@@@@@@@@@@@@@@@@@@@@@@@@@@@@@@@@@@@@@@@@@@@+#$$%%$%&$@@@@@@@@@@@@@@@@@@@@@@@@@@@@@@@@@@@@@##@@@@@@@@@$@+@@@##@+++@+O+@+++++@@++++++++++++++++++++++++++++++++++++++++++++++++++++++++@@@@++@@+@@@@+++@@@@++++@@@@@@++@@@@+++++@@#$$#@+++++@@@@@@@@@@@@@@@@@@@@@@@@@@@@@@@@@@@@@@@@@@@@@@@@@@@$#++@@+o++++@@@@@@@@@@@@@@@@@@@@@##@@@@@&>#+@@@@@@@@@@@@@@@@@@@@@@@@@@@@@@@@@@@@@@@@@@@@@@@@@@@@@@@@@@@+@@@@+@@@@@@@@@@##$$##+++@@@@##@+@@@@@@@@@@@@@@@@@@@#########@@@@@########@####@@@@+@@++++@@@#@@@@@@@@@@@@@@@@@@@@@#$@+@#@@@@@@#@@@@@@@@@@@@@@@@@@@@@@@@@@@@@@@@@@@@@@@@@@@@@@@@@@@@@###@@@@@@@@@@@@@",
"#########@@@@#$$#$%$$&&#@@###@@#@@@@@@@@@@@@@@@@#@########@@####################$##$%#%*;=%#@@###@@@@@@@@@@@@@@@@@@@@@@@@@@@@@@@@@@@@@@@@@@@@@@@@@@@@@@@@@@@@@@@@@@@@@@@@@@@@@@@@@@@@@@@@@@@@@@@@@@@#@+#$$$%&&&%##@@@####@@@@@@@@@@@@@@@@@@@@@@@@@@@@@@@@@@@@@@@@@@##+@#@@@+++O@##@+O+++OO+@++++++++++++++++++++++++++++++++++++++++++++++++++++@@@@++@@++@@@@@+@@@@@@++++++@+++@@@@@@+++@@#$$#@++++@@@@@@@@@@@@@@@@@@@@@@@@@@@@@@@@@@@@@@@@@@@@@@@@@@@@$#+@@@@oOO+++@@@@@@@@@@@@@@@@@@@@@#@@@@@=-O#@@@@@@@@@@@@@@@@@@@@@@@@@@@@@@@@@@@@@@@@@@@@@@@@@@@@@@@@@@++@@@@@@@@@@@@@@####$$#+++@@@@##@@@@@@@@@@@##@@@@@@@@@@@@@@@@@@@@@@######@@@#$$###@@@@@@+++@##@@@@@@@@@@@@@@@@@@@@@@@##++@###@+@#@@@@@@@@@@@@@@@@@@@@@@@@@@@@@@@@@@@@@@@@@@@@@@@@@@@@@@@@@@@@@@@@@####",
"#@@@########@#####$%$&&#@##@@##@@@@@@@@@@@@@@@#@############$####################@@%&$#%%%$#++#$@@@@@@@@@@@@@@@@@@@@@@@@@#@@@@@@@@@@@@@@@@@@@@@@@@@@@@@@@@@@@@@@@@@@@@@@@@ooo@@@@@@@@@@@@o@@@@@@@@+@#@@###$%*&$%##@+@@####@@@@@@@@@@@@@@@@@@@@@@@@@@+++@@@@@@@@++@@@#@@$#@@+++O+$#@+OOOoooO+@@@@@++++++++++++++++++++++++++++++++++@+++++++++++++@@@++@@++@@@@@@@@@@@@@@++++@@++@@@@@@@++@@#$$#@++++@@@@@@@@@@@@@@@@@@@@@@@@@@@@@@@@@@@@@@@@@@@@@@@@@@@@%$O@#@+OoOO++@@@@@@@@@@@@@@@@@@@@@@@@@@@XX++@@@@@@@@@@@@@@@@@@@@@@@@@@@@@@@@@@@@@@@@@@@@@@@@@@@@@@@@@@@@@@@@@@@@@@@@@@@####$#+++@@@@##@@@@@@@@@#@@@@@@@@@@@@@@@@@@@@@@@@@@@@@@@@@@#$$###@++@@@++@@@@@@@@@@@@@@@@@@@@@@@@@@@@#@+@##@+@#@@@@@@@@@@@@@@@@@@@@@@@@@@@@@@@@@@@@@@@@@@@@@@@@@@@@@@@@@@@@@@@@@@@@@@",
"#@@@@@######@@@@$@$%$%&$@#@@@##@@@@@@@@@@@@@@@@@#########$%*&#@####################&&$#$$#@+++@@@@@@@@@@@@@@@@@@@@@@@@@@@@@@@@#@@@@@@@@@@@@@@@@@@@@@@@@@@@@@@@@@@@@@@@@@@@%%@@@@@@@@@@@@@%@@@@@@@@@++++@##$$%%$@@@+++@###@@@###@@@@@@@@@@@@@@@@@@@@@+++@@+++@@@@@#@@@@@#@+++@@++@@@@OooooO+@@@@@+++++++++++++++++++++++++++++++++++@+++++++++++@++++@@@@+@@@@@@@@@@@@@@@@@@@++@@@@@@@@@@+@@#$$#@++O++@@@@@@@@@@@@@@@@@@@@@@@@@@@@@@@@@@@@@@@@@@@@@@@@@@@$$+++@#ooOO++@@@@@@@@@@@@@@@@@@@@@@@@@@@++@@@@@@@@#@#@@@@@@@@@@@@@@@@@@@@@@@@@@@@@@@@@@@@@@@@@@@@@@@@@@@@@@@@@@@@@@@@@@######@++@@#@@@@@@++@####@@@@@@@@@@@@@@@@@@@@@@@@@######@@@#$$####@++++++@@@@@@@@@@@@@@@@@@@@@@@@@@++@#@@@@+@##@@@@@@@@@@@@@@@@@@@@@@@@@@@@@@@@@@@@@@@@@@@@@@@@@@@@@@@@@@@@@@@@@@@@@@",
"##@#@@@#####@@@@#@#%%%&$#@+@@@@@####@@##@@@#############@#&-=$@####################%%@+@$#+O+@@@@@@@@@@@@@@@@@@@#@@@@#@@@@#@@@@@@@@@@@@@@@@@@@@@@@@@@@@@@#@@@@@@@@@@@@@@@@@@@@@@@@@@@@@@@@@@@@@@+@@+@#@@##$%$%%@++++@###@@@@###@@@@@@@@@@@@@@@@@@@@@@++@@@+@@@@@@#@@#@@#@@@+++OO++@@+OOO++@@@@++++++++++++++++++++++++++++++++++++++++++++++++++++@+@+@@+@@@@@@@@@@@@@@@@@@@+@@@@@@@@@@@+@@#$$#@++O++@@@@@@@@@@@@@@@@@@@@@@@@@@@@@@@@@@@@@@@@@@@@@@@@@@@$$##@#%@OO+++@@@@@@@@@@@@@@@@@@@@@@@@@@@@@@@@@@@@@@@@@@@@@@@@@@@@@@@@@@@@@@@@@@@@@@@@@@@@@@@@@@@@@@@@@@@@@@@@@@@@@@@@@@######@@+@###@@@@@@@@@@@#@@@@@@@@@@@@@@@@@@@@@@@@@##########$$####@@@++++@##@@@@@@@@@@@@@@@@@@@@@@@@+@#@+@@@@@@@@@@@@@@@@@@@@@@@@@@@@@@@@@@@@@@@@@@@@@@@@@@@@@@@@@@@@@@@@@@@@@@@@@@@@",
"#####@@@######@@###$%&*$#@++@@@@########@@######@@@@#@##@@$*=%#####################$$#@+#@@@+@@##@@@@@@@@@@@@@@@@@@@@@@@@@@@@@@@@@@@@@@@@@@@@@@@@@@@@@@@@@@@@@@@@@@@@@@@@@@@@@@@@@@@@@@@@@@@@@@@@@@@#######$&&$#@@++@@#@@@@@##@@@@@@@@@@@@@@@@@@@@@@@@@@@@@@@#@@@#@@#@#$@@#+++OO+++++@@@@@@@@+++++++++++++++++++++++++++++++++++++++++++++++++++@@@@++++@@@@@@++@@@@++@+@@@@++@@@@+@++@@+@@#$$#@+OO++@@@@@@@@@@@@@@@@@@@@@@@@@@@@@@@@@@@@@@@@@@@@@@@@@@@%$@@+@%#++++@@@@@@@@@@@@@@@@@@@@@@@@@@@@@@@@@@@@@@@@@@@@@@@@@@@@@@@@@@@@@@@@@@@@@@@@@@@@@@@@@@@@@@@@@@@@++++@@@@@@@@@@@##$$###@@@@#@@@@@@@@#@++@@@@#@@@@@@@@@@@@@@@@@@@@@########@#$$####@@@++++@####@##@@@@@@@@@@@@@@@@@#@+@#@+@#@@@@@@@@@@@@@@@@@@@@@@@@@@@@@@@@@@@@@@@@@@@@@@@@@@@@@@@@@@@@@@@@@@@@@@@@@@",
"################@$$$%**%#@@++##@##################@@#@##@@+#&&#@#########$#########%%%#@@##$#@@@@###############@@@@@@@@@@@@@@@@@@@@@@@@@@@@@@@@##############@@@@@@@@@@@@@@@@@@@@@@%%%@@@@@@@@@@+O+@++@@@+#&%#$#@@++@####@@@@@@@@@@@@@@@@@@@@@@###@@@@@@@@@##@@@#@@####@@@++++@@++@#$$##@++++@@@+++++++++++++++++++++++++++++++++++++++++++++++@@@@+++@@@@@@@+++@@@++++@@@+++@@@@+++++++@@#$$#@+OO++@@@@@@@@@@@@@@@@@@@@@@@@@@@@@@@@@@@@@@@@@@@@@@@@@@@$$##+#*$@@@@@@@@@@@@@@@@@@@@@@@@@@@@@@@@@@@@@@@@@@@@@@@@@@@@@@@@@@@@###@@@@@@@@@@@@@@@#########@@@@@@@@@@+@@@@@@@@@@@@####$$$##@@@@@@@@@@@@@@@@@@@@@@@@#@@@@@@@@@@@@@@@@@##########$$####@@@@@+@@#@@@@##@@@@@@@@@@@@@@@@@#@+@#@+@@@@@@@@@@@@@@@@@@@@@@@@@@@@@@@@@@@@@@@@@@@@@@@@@@@@@@@@@@@@@@@@@@@@@@@@@@@@",
"################@###%**%+@#@@#####@@@#####@@@#############@@$%#@####@###$$$#####$#$%&%%%$###@@@@##@@############@@@@@@@@@@@@@@@@@@@@@@@@@@@@@@@@##@@@@##@@####@@@@@@@@@@@@@@@@@@@@@@@=%@@@@@@@@@@++OOOOO+++#$$$##@@@@@####@@@####@@@@@@@@@@@@@@@@@@########@@@##@@@@@##@#@@@++@@@++@#$$$#@++++@@@+++++++++++++++++++++++++++++++++++++@@++++++++@@@@@@@@+++@@@++++++@@@@@@++@@@@@+++@@@@+@@#$#@++OO++@@@@@@@@@@@@@@@@@@@@@@@@@@@@@@@@@@@@@@@@@@@@@@@+@@#&##@+%--$$#@@#@@@@@@@@@@@@@@@@@@@@@@@@@@@@@@@@@@@@@@@@@@@@@@@@@@@@#####@@@@@@@@@@@@@@@#########@@@@@@@@@@@@@+@@@@@@@@@####$$$##@@@@@@@@@@#@@@#@@@@@@@####@@@@@@@@@@@@@@@@@@@@@@@@##$$####@@@++++@@@@+@@@@@@@@@@@@@@@@@@@@#@+@##@@@@@@@@@@@@@@@@@@@@@@@@@@@@@@@@@@@@@@@@@@@@@@@@@@@@@@@@@@@@@@@@@@@@@@@@@@@@@",
"#@##############@@@#$&*$###@@@@@###@######@#@@#@@@@###$$$#@@$$#####@@@@#$$$$$#####$%&%%&-$$$@+@####@############@@@@@@@@@@@@@@@@@@@@@@@@@@@@@@@@##@@@@##@@@###@@@@@@@@@@@=@@@@@@@@@@@@%@@@@@@@@@%$$#@@@@@@@##%%#@@@#######@@@####@@@@@@@@@@@@@@@@@@##$###@#@@@##@+@@@###$@@#++@+++@@@@@@@@+++@@@@+++++++++++++++++++++++++++++++++++++++@+++++++@@++@@@@++@@@@++++@+@@@@@@++++@@@+++@@@@+@@#$#@++OO++@@@@@@@@@@@@@@@@@@@@@@@@@@@@@@@@@@@@@@@@@@@@@@@+@@#*#@##@$*%$@+@#@+$#@@@@@@@@@@@@@@@@@@@@@@@@@@@@@@@@@@@@@@@@@@@@@@@#####@@@@@@@@@@@@@@@@@@@@@@@@@@@@@@@@@@@@@@@@@@@@@@@@@####$##@@+@@++@@@@@@@@##@@@@@@##@@@@@@@@@@@@@@@@@@@#########$$#####@@@++++@@#@@@@@@@@@@@@@@@@@@@@@##@@##@@###@@@#@@@@@@@@@@@@@@@@@@@@@@@@@@@@@@@@@@@@@@@@@@@@@@@@@@@@@@@@@@@@@@@@@@@@",
"#@#######@@@####@@@#$&*%##+@@@####@@#@@###################@@%$#%##%&%##$$$$$$######$%%%*:&$$@@@@@@@@@@@@@@@@@@@@@@@@@@@@@@@@@@@@@@@@@@@@@@@@@@@@########@@####@@@@@@@@@@@=%@@@@@@@@@@@%@@@@@@@@@&$#$#@$#+@##%&%%@@############@@@@@@@@@@@@@@@@@@@@@@####@##@@@@##@#@@@@@$#@@++@+O+@@@+O+++++@@@@++++++++++++++++++++++++++++++++++++++++++++++++@+++++@@++@@@@@@@@@@@@++@@+++++@@@+++++++@@#$##@+OO++@@@@@##@@@@@@@@@@@@@@@@@@@@@@@@@@@@@@@@@@@@@@@@@@##&%@@#++%&$@+@#@+#@@@#$$#@@@@@@@@@@@@@@@@@@@@@@@@@@@@@@@@@@@@@@@@@#####@@@@@@@@@@@@@@@@@@@@@@@@@@@@@@@@@@@@@@@@@@@@@@@@@##@###@+++@@++@#@@##@@##@@##@@@@@@@@@@@@@@@@@@@@@@@#########$$####@@@@++++@@###@@@@@@@@@@@@@@@@@@@###@@#@@@##@+@#@@@@@@@@@@@@@@@@@@@@@@@@@@@@@@@@@@@@@@@@@@@@@@@@@@@@@@@@@@@@@@@@@@@@",
"#@#####@@@@@@@#####@$&*&$#+@#@###########################$##&&#$$#*:-%$#$$$$$######%%%%&:;$@@@#@@@@@@@@@@@@@@@@@@@@@@@@@@@@@@@@@#########################@####@@@@@@@@@@@o@@@@@@@@@@@@@%@@@@@@@@@+@@@@##@###%*&%##@@@@@#####@@@@@@@@@@@@@@@@@@@@@@@@@##@####@@@@###@@@###++@@@++O++@@+++++++@@+++@@@@@@@@@@@@@@@@@@@@@@@@@@@@@@@++++++++++++++++@++++@@@+@@@@@@@@@@@@+++@@+++++@@@@@+++++@@#$$#@++O++@@@@@###@@@@@@@@@@@@@@@@@@@@@@@@@@@@@@@@@@@@@@@@@##&*$O@@@$&%@++@@+@@@@$$$#@@@@@@@@@@@@@@@@@@@@@@@@@@@@@@@@@@@@@@@######@@@############@@@@@@@@@@@@@@@@@@@@@@@@@@@@@@@@@@@@#@@#@++O+@@@@@@@@##@@@@@#$#@@@@@@@#########################$$###@@++@@@+++++@@@@@@@@@@@@@@@@@@@@@@@@@@##@@##@@@@@@@@@@@@@@@@@@@@@@@@@@@@@@@@@@@@@@@@@@@@@@@@@@@@@@@@@@@@@@@@@@@@@@@@",
"#######@@@@@@@###$#@#%&&*$####+@###############@@@@###$$$$$#$&%@#%%*;*##$$$$$#####$%%$#$=:*#$@#@###########@@###@@@@@@@@@@@#@@@@################@@@####@#####@@@@@@@@@@@@@@@@%@@@@@@%@@@@@@@@@@@@@##@@@@##@##$$#@@+++@@#########@@@@@@@@@@@@@@@###@@@@@@#####@@@@@######$@+@+O++++++@@@++@@++++++@++@@@@++@@@@@@@@@@+++@@@++@@@@+++++++++++++++++++++++@@@@@@@@@@@@@@@++@@++++@@@@+++@@@+@@#$$#@++O+@@@@@#@###@@@@@@@@@@@@@@@@@@@@@@@@@@@@@@@@@@@@@@@@##*%#@@++#%%#+O+@@######+O@@@@@@@@@@@@@@@@@@@@@@@@@@@@@@@@@@@@@@@####@####@@@####@#############@@@@@@@@@@@@@@@@@@@@@@@@@@##@@@@++O+@#@@@@@@@@@@######@@@@@###########################$$####@@@@@@@++++@@@@@@@@@@@@@@@@@@@##@+@@@##@@@@###@@@@@@@@@@@@@@@@@@@@@@@@@@@@@@@@@@@@@@@@@@@@@@@@@@@@@@@@@@@@@@@@@@@@@",
"#######@@@@@@###@$$#$&***$%%$#+##################@########$#$&=&%$@@$&%#$$$$$###$$$%%$##$;;*#@#####################@@@@@@@@@@#@@################@@#####@######@@@@@@@@@@@@@@@@@@@@@%@@@%@@@@@@@######@@@##@#$#@#+++@@###@@@######@@@@@@@@@@@@@@###@@@@@@#####@@@#+#$####$@+@+O+@$#+++++++@@@@@@+@+++@@@@++@@@@@@@@@@+++@@@@+@@@@++@@++++++++++++++++++@@@@@@@@@@@@++@@+@@@++@+@@@@++@@@@+@@#$$#@++++@@#@@@#####@@@@@@@@@@@@@@@@@@@@@@@@@@@@@@@@@@@@@@@##&$#$@OO+$$#@++##@@###@+++@@@@@@@@@@@@@@@@@@@@@@@@@@@@@@@@@@@@@@@###@####@@#####@#################@@@@@@@@@@@@@@@@@@@@@@##$#@++@++@##@@@@@@@@####@@@@@#####################@@@######$$####$##@@@@@@@###@@@@@@@@@@@@@@@@@@#@+@#@@@@@@@##@@@@@@@@@@@@@@@@@@@@@@@@@@@@@@@@@@@@@@@@@@@@@@@@@@@@@@@@@@@@@@@@@@@@@@",
"##############@@#$###%*$&%&*&#@$########################$$$$$%==&#++O%*%$$$$$###$#$%%$###*:-$+#*####################@@@@@#@@@###################@@####@@@#####@@###@@@@@@oo@ooooo@@@@@@@@@@@@@@@@@@#@@@@@#@#%$@$@@@@#####@@#####@@@@@@@@@@@@@@@@@###@@@@@@@@####$@@#@####++@#++@#@@+++O++@@+@@@++@++@@@@++@@@@++++@@++@@@@++@@@@+++++++++@++++++@@@@@@@@@@++++@@@+++@@@@@@@+@@@@@@@+@@@@+@@#$$#@++++@@#@@@######@@@@@@@@@@@@@@@@@@@@@@@@@@@@@@@@@@@@+@#$%$$$@+++###@+@#@@@##@@##@@@@@##@@@@@@@@@@@@@@@@@@@@@@@@@@@@@@@####@@####@@####@@@###@#@########@@@@@@@@@@@@@+@@@@@@@@@@@%%$@+@#@++@###@@@@@@####@@@################################$$####$##@@@@@@@####@@@@@@@@@@@@@@@@@@@@#@+@@#@@@@@@@@@@@@@@@@@@@@@@@@@@@@@@@@@@@@@@@@@@@@@@@@@@@@@@@@@@@###@@@@@@@@@@@@@",
"#@#@@@###########@#$$%=$***=&@@#################@@@###$$**#@@@#$$$@+#$%*$%$$$###$##$$$$%@$>:%@@*######################@@@#@@#######################################@@@@@%@@@@oooo@@@@@@@%@@@@@@@+@####@+@####$$$$#@@@##$######@@@##############@@@######@+++@####@@##@@####@@+O@+++@+++@@@@+@@@++@+++@@@+@@@@@+++@@@@@@@@@+++@@@+++++++++@++++++@@@@@@@@+++++@@@@+++@@@@@@@@@@@@@@++@@@@+@@#$$#@++++@@#############@@@@@@@@@@@@@@@@@@@@@@@@@@@@@@@@@+@@$%$$$$#####@+@#####$@++#%+@@@@###@@@@@@@@@@@@@@@@@@@@@@@#####@#####@@####@#####@@@###@@@#@@@@@@@@@@@@@@@@@@@@@@@@@@@@@@@@%&$@@@$#++@###@@@#@##@@@#@###@@#######################$$$$$$$######@@@@#@@@+@###@@@@@@@@@@@@@@@@@@##@+@@@@@@@+@@@@@@@@@@@@@@@@@@@@@@@@@@@@@@@@@@@@@@@@@@@@@@@@@@@@@@###@@@@@@@#@@@@@",
"#@#&$@##########@@#$$%=;%*==%#@@##########$$$$#####%&==*%###@@@@@####$%&&%$$$###$#$$$$$$%%&=&@@$######################$$################################################$%$@@@+O++++++@+$$#@#$#+#########@#####$%%$#@@##$$$$$$$$$$###$$$$$$$$$$%%%$###$##@###$$$$#@@##$$$#@+++++++++@@@@@@@@@@@@@+++@@+O@@@@@@+@++++++++++@@@@@@@@@@@@+++++++++++++@@###@@@@@@++@@@@@@@@@@@@@@@###@@++OOO++@@###+++@@############################@@@@@@@@@@@@@@@@@######%#@#$%$@@+OO++@#####$$$#@@@@@###@@@@@@@@@#####@@######@@########@@@@@@####################@@@@@@@@@@@@####@@++@@@@@@@@@@##$@@@++@@@@##@@@@@@@@@@##$$$##@@@@###$$$$$$$$$$$$####@#$$$%%$#$$$$#$#@@@@@@@@@#@@@@@@@@@@@@@@@@@@@@@@@@@@@@@@@@@@@@@@@@@@@@@@@@@@@@@@@@@@@@@@@@@@@@@@##@##+++@@@@+O+@##@@@@@@@@####",
"##%=&@@+#@@@####@@###%&&;=%$$$$#@@@@######@@##$$$$$&=--*%$####@@@##@@##$$$$$$$####$%%$#@@$#@$#@$#########@@@@######$$##@##################$$$$$$$$$$$$$$#################@#$#@+@@@++@@@@###@@##+$$$$$$$$#@###@$%#%$+O+#@$$$$$$$$$#######$$$$$$$$$$$##$$$$$%%%$$$$$$$$$$$#@++O+++++++@@@@@+++@@@@#@#@@#++@@@@@+O+++++++@@@@@@++++@@@@@@@+@+++++++@@@@@@@@@+@@@@@@@@@@@@@@@@@@@@++++OOooXXXooOO+++++++@@##############################@@@@@@@@@@@@@@@##$$$$$$##@@@+OoooO+##@@@$$$#@@@+@@@@@@@@@@@@@@@@@@@@@@@#############@+++++@%####@@@@@@@@@@@@###@@####@@@@@######@#@@@@@@@@@#$$#@++OO+@@####@@@@@@@@@###$$$#####$$$%%$$*,&&$%%%$$%%%&&&%%%$#$%%$$$#++@@@@@@@##################@@@@@@@@@@@@@####################$$$$################$$#$$@+@##OOOOOOOO@@@@@@@+++++",
"##@#$$#$#@@@########$&%#$$$$$$$$$##@@@###$########$$$#@@@###$$#@#$#@@$$######$$$$$$$$$$$@@@@@#############@@@#####$$$$#@############$$$$$$$$$$$$$$$$$$$$$$$$############@@$&&$###@++@@@@@##@@##@@#######@@@##$%&$&&#O+######@@@@@@@###@@@@#############$$%%%$#@+@@#$$$#@@+++OoX.OOO++++++++++++@@@@@@#$$@@@+++oO+@@@@@@@@@@@@@@@@@@@@@@@@@@@@@@+$$$#@++++++@@@#@@++++++++OOOooooooooooooooOO++@@@@@@@#$$###$$%%%%$$$$$$$$$$$$$$$$$$$$$$$$$$$$$$$$$$$$$$$@@@@@@@@+++oXXO+@+@@##@@@###@+++@###@@##########################@+O++O@&#######@##@@@@####$##@@####@@@@@@@@####$$$$$$$$$%$#@+O++++##@@#$$$$$#$#$$#@@@$%&&%$#######%=+@@+@@+@@@@@@@+@@@@##$##@@++@@######################$$########################################@@++OO++@@@######@+@@@@@++OOOO++++++++oooo",
"$#@######@@@@########%%#########$$$$%%$$$$$$$$$%$$$$#@@#$$%%%%$$$%$@@$$@##$$$%%$$$$$$$$$@@$**$@@#################$%%%%%%%$$$#######$$$$$$$$$$%%%%%%%%%%%$$$$$$$$##@@+++OOO+#$$@++OOOO++OO+OOO+OOOOOOOOOOOO++@#$$$%%#+OO++++OOOOOoooOOOooooooOOooooOOOoooOOOOOoXXXXoooooXXoOOoX...XXXoooooooooooO+Oo+Oo+++@+O+@++OOOOOOOOOOOOOO++++++++O++++++OOOOOOOOOoooooooooooXXXXXXXXXXXXXXooooooooooOOO++@@@+++@#$%&&%%$$##$%&&&&%$$$$$$$$$@@@@@@@@@@@@@@@@OOOOOOOO@@@@@@@@@++o...XooOO+OoooO++OOO+####@#$$$$$$$$$$$$$#############@@+@+O@%%%$$$$$#$$$$####$$$##@@@@#$$##@@@OooO+@@###@@+++@#@@@++OooXXoooooXXXXXXooX...XoOOoXXXXXXXXXXXXooooooooooOOO+@@@####@+O++++@####@@+++++++oO++++OoO+++++++++++++++++++++OOOOOOOOOOOOOOOOOOOooooooooOOOoooooooXXXXoooooooooooooooooOOOo",
"#++$#+###@+++++++@@++#$###########$$$$###$$%%%%%%%$##@@@#$%%$###@##@+@#@@@@@###@@@@@@@@@@@#$$#@@$$##@@+++++@@@@@@@@++@@@@+++++++++++@@@@@@@@##@@@@@@@@@@@@@++++++++++@+@@+OO+#@+OoooXoOooOOooOOoooooooooOO+@@@###@+OooXooooXXXXXXXXXXXXXXXXXXXXXXXXooX.XoooooXXXXooooooOO+OOOOO+.............XXXOX.XX..X@#o  XoXXXXXXXXXoooooooOOOOOOOOOOOOOOOOooooooooooooooooXXXXXXXXXooooooOOOOOOOOOOOOOO++++#@+ooooooooooooooooooooooXXXXXXXXX....XXXXXXXXXXXXXooOOO+++++++++OoooX...XX.XXXX...XXooO+++++++@#++##++#@@@@@@@@@@@@@@@@@+++OoO@#####@@@@@@@@@@@++++++OOO+@++OOoooXXXXX.........O+@@@@+ooX  .XX.......XXXXXXXXX...XXXXooooOOOOOOOOOOOOOO++@###$$$##@+OOOoooooooooooooooooooooooooooooOOOOOOOOOOOOOOOOOOOOOOOO++++++++++++++OOOOOOOOOooXXXXXX...XoooooooooooooooOOO++",
"@@###@+@@@+++++OOO++O+#$$$$$$$$#@@+++OOOOOOOOOOOO++++OOooooOoooooo++OO+++OOOOOoO++++++++++++++++++++++++++++++++OoXXooXXXXoooOOOOOOOO++++++++@@@$@@$$@@$$$$######@@@@@@@@+OO++@@+oOOooOOO+@+++@++OOOOOOOO+@###$$=$@++OooOOOOOooooooooooooooooooooXooOoooOOOooooooOOOOOO++++OOOoooooXoXXXXXXXXXXXOXXXXX..+#o.  .XOOOOOOOOOOOOOOOOOO++++++@@@@+++++++OOOOOOOO++++++OOOOOOOOOO++++++++++++++++++@@@+OoXXXXXXXXXXXXXXXXXXXXXXXXXXXXXXXXXXXXXoooooooooooooooo++++++++++OOOooXXoXXXXXoooXXXXXXXXXXX...o++XXoo.XXXXXXXXXXoooooooOOOoXXoOOOOooooooooooooooOooXXX..XXXoooOOOOoXX.XXXXXXXXOO+@@+@+OooooXooooooooooXoooooooooooooooooooooooOOO+++@@@@@@@#####@@@+OooooooOOOOOOOOOOOOOOOOOOOOOOOOOO++++++++++++++++@@@@@@@@@@@@@@@@@@+++++++++++++OOOOOOoXoO+++++++++OOOOOOO++++",
"@##O@$@##@@@@@#@@@##@#$$$#######@@@+@@+++OOooooOooOOOOOOOoooO+++Oo++O++++++++++@@@@@@@@@@@@@@@@@@@@@@@@@@@@@@@@++OOOOOOOOOOO+++++++++@@@@@@@@####@#&&#@#$$$###########@@@@##@++++O++oO@+O@@++@@@@++++++++@@@@###$@++@+++++++OOOOOOOOO+++OOOooOOOOoOOOooOOOOOOOOOOOOOOOOOO++++OOooooOO+++++OOOooOOOOOXX...XoOooo+++++++++++++++++++@@@@@@@##@@@@@@@@@#@@@@@@@@@@@@+++++++@@@@@###@@@@@@@@@@@@@###@@++OOOOooooooooooooooooooooooooOOOOOO+++++++++++++++@@@@@@@@@@@@@#@++OOOOOooooOooOoooX..XXooXXXooO.$+oXooooooooooooooooooOOoXXXooooXXXXXXXoooooooOOOoooXXXoooOOOOOoooooooooooooOOOOOO++OOOOoooOOOOOOOOOooooOOooOO++++++++++++++++@@@##$$$$$$$$$##@@#@+O++OO++@@@@@@@@@@@++++++++++++++@+@@@@@@#################$$$$$$$$$$$$$$$$$##@@@@@++++OoO+++++@@@+++++++@@@##@",
"#$$++#####$$%%&&%%&&&&&%%%%%%%%%$$$$######@@+++++OOOOO++++++++++OO+++@@++@@@@@@@#######$$$$$$$$$$###########@@++++++OO+++++++@@@@######$$$$$%%%%%%%%%%%%%%%%%%$%%%%%%%%%%$$$##@++O++oO@++###@#$##########$#@$%%$+@##@@@@@@@@@++++++++++++++OOOOOOO++++O+++@@@@@@@@@@@###########OOO+++@@@@@@++OOOOOOOoOOXXOO+Oo@@@@@@@@@####$$$$$$$$$$$$%%%$$$$$#$$$###$$$$###############$$$$#############$$$$$$###@@+++++++++++++++++++++++++++@@@@@@@#############$$$$$$$$$$$##$$#@@@@@@@@@@+OO+++@+OOOOOOOoooooooooooXXXXXXooooooooooO+OoooXOOOOOoooooOOOOOOoooOoOooooooooOOOO+++++++++++@@@@##@@#@@##@+@#@@@@@@@@@@@@@@++OOOO++OOOO+@@@@@@@@@##@@@@##$%%&&&&******&%$######$$$$$$####@@##@######$$$$$%%%%%%%%&&&&&%%%%%%%%&&&&&&&&&&&&&&&&&&%$$$$$$##@#@+@#@@@##$$$$########@@@",
"%%%%%%%%&&&&&&&&****************&&&&&&%%$$##@@@@++++@@@+++++OOOO++##@%*$$$$$$$$$$$%%$%%$$%%%%%%$$$$$$$$$$$$$$$$$#@@+++++@@@###@##$$%%%%%%&&&&&&**********===**=-&&&*******&&%$##@+@$#+@&$$$%%&*=%%&%%%%%%%%%%%$$$$$$$$$$############@@@@@@@@@@++@@#########$$$$$$###$$%%%%%$$$$$++++++@@@@@@@+++++@@@@+OO+++@@++#$%$#@#%%%%%%%%%%%%%%%%&=**&&%%%%&&&%%%%%%%%%%%%%%&&%$$$$$#@@@##$$$%%%%$$$$$###$$$#@@###@@+@@@@@@@@@@@@@@@@@@@@@@@@######$$$$$$$$$$$$%%%%&&&&&&&&%$$$$$####@####@++@@##@@+++++++++++++++++++++++++@@@@@@@@@@@@@@@@@@@@@@@@@@@@@@+++++++@@@##$$##$$$$$$$$$%%%%$$$$$%%&&%%$$$%%%$$$$$$$$###########@+OO+@#$$$$##$$$$%%$$%%%&*=--;;;---**=*&%$$$$$$$%%%%%%$$$$#########$$%%%%%%%%&&&&&&&&&&&***********========*==***&&%&&%$$######$$$%%&&&&%$##$%%%$$$",
"&***=======================******&&**&&&&&&&%%%$$##@@@+@@@@@##$%%%%%%%&&&&&&&&&&&&&&*****************&&&&&&&&&&&%$$#####$$%&&&&&**=====*=====-----;;;;;;;;:;--;>==---;;;;;;;-*%$##@#@+@&&&%%&*=---==**&&*****************&&&&&&&%%&&&&%%%%%%%%%$%%%%%%&%%%&&*****&&&&****&&%%$##$$$#######$$$$$$$$$$###OO++@@#$@$%%&&***======************=======******&&%%&&&&&&&&*%$$$$###$$$$%%&&&*******&&&&&$%%%$$$$###$$$$$$$$$$$$$$$$$$$$$$$$$$$$$%%%%%%%%%%%%%%%%%%%%%%%%$##$%%$##@@@#$%$$###$$$$##@@@++#########$#####$$$##$$$$$$$$$$$$$$$$$$$$%%%%%%%%$$$$$$$$%%%%%%$$##$$###$$$$$$%%&&%&**&**&&**&%&&&%&&%%%%%%&&************----=--======---;;;------===*&*&&%%&&&&&&&&&&&**&*%#@###@#%&&&%%%%%%%%&&&&&&&&*****=====--------=-;;;;-===*&&*&$####$$$%%%%&&&&&*&%###$$%%$$",
"%&&*=----------;;;;--===--------********&&&&%&&&&%%%$#$%%%%$%&**********--------=*&*=---;;;;;;;;::::;;----------&%$$$$$%%&&***=--;;;;;;;;::::>>>>>>>>>>>>,,>:;:,>>>>>>>>>>>:;*%$%%###@#*==---;:>>::;;---;;;;;;;;;;;;;;;;---------============****=***==================-=*&&&&&***&&%%$%%%%%%%%%&&&%%$%#@@#$#@%*-------------;;;;;;;;;;;;;;----;;;--======********&&%$$$$#%&&&&&**======****=*&&&*&%%%%%%%%%&&%$$%%%%%%%%%%%%%%%%%%%%%%%%%%%%%%%%%%%%%%%%%%%%%%%&&&%$$$$####@@@###$$$%$$#@@@@@+++@$%%%$$%%%%%%%%%%%%%&&&&&&&&&&&&&&&&&&%%%%%&&****&&&%$#@@@@#$%%%%%%%%%%%%%%%%%&&**&&**==-=**=*&*&**&&&&&&**===-&***==---------------;----========****&&&&&&**===*****=**=&##$$$$%&&***********==***=====-------===--;;:::;--;::;;;--;-&$$###$$%$&-;=***&&&%$$##$$$%",
"*====---**==--------;;::::::::::::;-====******=======--==*********==-;;::::::::::-=-:::>>>>>>>,,,,,>>>>>>,,,,,,,;=&$##$%#%*-:>>,,,,,,,,,<<<<<11122222222221<<<,,,,,,,,,,,,,,>;=&%&%$%$$=::>>>>>>>>>>>>>>>,,,>>>>>>>>>>>>>>>>>>>>>>>::::::::::::;:::;;::::;;;;====--;;;;;;--=--;:;;;----=-=====*==;;;;=&%$##$$#$=;>,>:;:>>:::::>>>>>>>>>>>>>::::::::::;;;----=----=&%%$$$%=*&&*=*=======*****&&%%%&&&&%&&**&%&*&%%%%%%%%%%%%%%%%%%%%%%%%%%%%%%&&&&&&&&************&&&%$$$%%%$$$$$$$$$%%%$###$$$####$$%%%&&&&&&&&%%&**&&&**========***************=****&$@+++#%*===*&**=*&&****&&&&**&****===*==********======**&&==*&&*=========------======---==------=*********=====---&&%$$###$%*-;;;;;;:::>>>>>>>>>>>>>>>>>>>>>>::::::;---;>,,,<,>,>=%$#@@@#$+%;>>:::::;;--======",
";;;;----:::::::>>>>>>>>,,,,,,,,,,,,>>::;;;;;;;;;:::;-=----;--=-;::>>,,,,,,,,,,>,>:-;>>>,<,,,,,,,,,,,,,,,,>>>>>>>=&$###%%$&-:>>>>>>>>>>::::::::::---;;::>>::;:::-=**&%%$$$%&===&%#%$$&%$*::;=&%$$*-**&$--=*&%%&*===========------;;;;;;;;;;----;;;:;;-----;;::;;---;;;;;--;:::;;-;;;;;;;;;--------==*=*$#@+++@##%=-;>>>::;;;;;;;;::>>,,,,,,,,,,,>>>>>>>>>,,,>>>>>>>-&$$%&%$%*=---=**&**=--;-=*&*=*%&*==**=*&$&=-=***********&&&&&&&&&&&&*****====================*&%$%%%%%%%&&&&&&&%%%%&&%%$$$##@@@#$%&*********====-;;-->>>>>>>>::::;;;;;--==**======&#+OO+#&=----------=-==-------;----==-;===--;;;;;;;;;;;;;;;>:;-==-;;---;;;;;;;;;------;:;;:::::;;;-----==**========;-&####%%*;::::>>>>::;;--;;;;;--;;;----;;;--==**========----=--&$##@@+@@%&##*=%&&&*&*&&&&%%%",
"%%%&&&&&===================-;;;;::>>,,,>>:::;;;;;-------;;;;;;-==*&&&*===*&%%&*=*&$$$$%&--*&%&&&&%&&&***$%%$@@%*&%#@@@#$%&&&%####@@@###$++++@@@@@@@@@@@@@@@@#$#######@##@@$%&&$#+###%$#%&&%$#@##+#$$##$&###@@+++$#@+OO+@@@@+@@@@@@@@@@@@@@++++@@@@##@+++@@#$$$$$##@@@@@@@##$$#@@$$$$$$$$$$$%%%%&@O++@$$#@+@++##OX++@*%+O@@@@@@@@@@@##$$$*&&&&*--=****==-----;----,>*$%%&#+#*;:>,>>:::>>>>>:::;;---;;:>:-;-=*=-;;;---;;;;;:;;-----;;;;;;;;::::::>:::;;---::::::::>;*&*=-=*****&&*===***=--*%#++@##+#&**=:---------====-------------;-;;;;,,,,,,,,>:;;-*$+OO+#%==**===***=====-------================--;;;;;;;;::::::::>>>>>>>>>>>,,,,,,>,,>>>,>,,,,,>::>>>>>,,>>>,,,,,,,,,>=$###$@$%%#+O+++++++++++++++++++++++++++++++++++++++++++++O#$#@@@@@@++##$$$##@@@@@@@######",
"++++@@@@@@@@@@@@++@@@@++++++++++++@@@#$$%&&&&%$$#+@#$%$#@@@#$$@+OO++@@###@@@@@@@@#$##$%%#######@@@@@@###########*$$%$@+#$$$#@@#$########@@#######$$$$$$$######@@########@@#%&%$#+@@@@#@@@@##@@@###########@@########@@####@@@@###@@@@@@@@@@@@@+++@@##@@+@@++@@@@@@++++@@@@+++++++@@@@@@@@@@###$##@@##$#@+O@#@#$+@@@@@@@@#@++++@#@++++++++++@@###@+@@@###@@@#####O$-&@@@@$%$#$*==--;;-==**&*-;;=**-;;-==-;-;;-=*==*=======-==***&;;;;;;;;;;;;------=========*****=*&%&*-;;--==-;;;;;---;;;-&$@@##########@+@#@+#*######$%*&$@++++@@@#####&&&&&&&&%$$$%%#++OO+#%%$@@@@@@@@@##$###@@@+OO+O+@@++@@@+O+@##@++@@@@@@@########$$$$$%*-;;-=-;;-;:;---=**==----------=====*&*-;;==-*$$#+++++++++++++++++++++++++@@@@@@@@@@@@@@@@@@@@@@@@@@+@#@#%%@@@@@@++#$$%$###############",
"############@####@@@##@##@@#######@@@@@@@+++@@##$$$#@@++@@##@@@#@@@@@@@##########$%#@#$################$$$$$$$$$$$###@##$%%$###$$#################$$$$$$####@@@@@@@@@@@@@@#%&&$#@@@++@@@+@$$#@@@#####@##########################@@####@@@@@@@@@@++@##@@@@@@+@####@@++++@@@@@@@@@@@@@@@@@@@@@@@###%##%$#@@++#@+#%@@@@@@@@##@++@##@@@@@@@@@@@@@@@@++@@@@@@@@@++OOOO@&&&%$##@@+OoO@@++++OOOOO@$%%#@@@+OO+@@@@#%$++@+OO+#$###$$$$$$###@@@@@++++OOOOO@@o+&&+oOO++@@@@O+@+oo+%**$@@#$$$##@@@#####@@@@@@@@@+@@@++@@##$$++@@##@@$$##@@+++@@@@@@+++++++++++O+###@+Ooo+##@#@@@##@@@++@@@@@@@@@@+++OO@@++++@@@@@@@@@@@@@@@@@@@+++++@@@@+++@@@++@@+@@@+@@OoO++O+@@+O@@@@@@@@++++++++#%$@@##@@@@@@@@@@@@@@@@@@@@@@@@@@@@@@@@@@@@@@@@@@@@@@@@@@@##+@##%$@+++@@@@@@@###############",
"@@@@@@@@#@@@@#@@@@@@@@@@@@@@@@@@@@@######################################@@@##$$%*&$#%$@#######$$##$$##$$$$$$$$%*$##@@#$#######@@@@@######@@####$$##@@###########@@###@@@@#$%%$#@@++++@@##$##@#####@@@++@@#####@@###################################@@@##@@@++@@@@@@@@@@@@@@@@@@@@@@@@@@@@@@@@@@@@@@##@@@@+++O+@o++OO+##@@@@@@@@@@@@@@@@@@@@@@@@@@@@@@@@@@@@@@@@O#%%$$$#@@@++@##@@@##@#$#@+@$$$$#$$@@@@@@+#$#@$%$#@@@#@@+O#&%%%#@@@@@@@@@@@@@@@@@@@@@@@@@@@@@@@@@%**%@@@@@@@@@@@@@@@@@@##$##@+++#+O+@@@##@@###@@@@@@@#@@@@@@@@@@@@@@@@@@@@#####@@@@@@$#@@+OO++@@@@@@@@@@@@@@@@@@@@@@@@@@@@@@@@@@@@@@@@@@@@@@@@@@@@@@@@@@@@@@@@@@@@@@@@@@@@@@++++@@@@@@@@@@@@@@@@@@@@@@@+#&%@@##@@@##%$$#@+@+##O@@@@@@@@@@@@@@@@@@@@@@++++@@@@+++@@@@+#$#%@@+o+@@@##$$##@@###########",
"@@@@@@@@@@@@@@@@@@@@@@@@@@@@@@@@@#@@##############################@@########$$%%::::-*%########$$$$$$#######$$%&%$$$####@#$$###@@@@@######@@########@@################@@@@#$%%$@+++++++@@#$########@@@@@@@@########################@@@@#######@@@@@@@@@@@@@@@@@@@@@@@@@@@@@@@@@@@@@@@@@@@@@@@@@@@@##$$@+@@##@+++++@+O+@@@@@@@@@@@@@@@@@@@@@@@@@@@@@@@@@@@@@@@@@@+#$#######+oO@##@#@@@+@+@@@##$&&%%$##@@@@###+*$###@@@#@@+@@##@+#@@@@@@@@@@@@@@@@@@@@@@@@@@@@@@@@@%%*%@@@@@@@@@@@@@@@@@@@####@++++@@@+@@@@##@@####@@@@@@@@@@#@@@@@@@@@@@@@@@@@@@@@@@@@$#@@+OO++@@@@@@@@@@@@@@@@@@@@@@@@@@@@@@@@@@@@@@@@@@@@@@@@@@@@@@@@@@@@@@@@@@@++++@@@@#@@@+++@@@@@@@@@@@@@@@@@@@@@#@+$*&#@##@@@#%=&&&$##++#+@@@@@@@@@@@@@@@@@@@@@@++++@@@@@++@@##@$%$@@++#@+@#$$$################",
"@@@@@#@@@@@@@@@@@@@@#@@@@#@@@@#@@#################################@@#########$%%&=-=&##########$$##$$###$##$$$$%%$%%$#@@@#$$######@@###@##@@###########################@@@#$%%#@++++++++@####@####@#####@@@########################@@@@@###@@@@@@@@@@@##@@@@@@@@@@@@@@@@@@@@@@@@@@@@@@@@@@@@@@@@@@##$%$@@@+@++@##@@@+++@@@@@@@@@@@@@@@@@@@@@@@@@@@@@@@@@@@@@@@@@O@$%$#@@@++@@++#@@@++@@@@@@##%%$#@@@#@@@#$+#+$O+%$#@@@@@@@@@+++@@@@@@@@@@@@@@@@@@@@@@@@@@@@@@@@@@@@@@@@@@@@@@@@@@@@#@@@@###@@@@@o+@++@@@@##@+@#@@@@@@@@@@@@@@@@@@@@@@@@@@@@@@@@@@@@@@$#@@+OO++@@@@@@@@@@@@@@@@@@@@@@@@@@@@@@@@@@@@@@@@@@@@@@@@@@@@@@@@@@@@@@@@@@++++++@@###@@@@@@@@@@@@@@@@@@@@@@@@@@@@@$*&#@##@@+$%==*&&&%#+@@@+@@@@@@@@@@@@@@@@@@@@@@@@#####@@@@@@@#$#@$#@##@$$%%#@#$%############",
"@#@@@@@@@@@@@@@@@@@@@@@@@@@@@@@@@######################################@@@@@####@@@@##$$$###########$###$$$$$$$%%%%$#@@@##$###########@@##@@@@#################@########@@@$%%$@@@@+++++@###@@@@#@@##$$##@@#######################@@@@@@@@@@@@@#########@@@@####@@@@@@@@@@@@@@@@@@@@@@@@@@@@@@@@#@@@#%$#@+O+++#%#@@#@++#@@@@@@@@@@@@@@@@@@@@@@@@@@@@@@@@@@@@@@@@+@$%#@@@++#@+@@+@@@++@@######$###@@+@@@@@#O##O+#$#@@@@@@#++$%#@#@@@@@@@@@@@@@@@@@@@@@@@@@@@@@@@@@@@@$@@@@@@@@@@@@@##@@@@###@@@@@@@@@@@@###########@@@@@@@@@@@@@@@@@@@@@@@@@@@@@@@@@@@$#@@+OO++@@@@@@@@@@@@@@@@@@@@@@@@@@@@@@@@@@@@@@@@@@@@@@@@@@@@@@@@@@@@@@@@@@@@@@@@@@@@@@@@@@@@@@@@@@@@@@@@@@@@@@@@@@$*&#@@@@@O%%*=***@&=@+@+@@@@@@@@@@@@@@@@@@@@@@@@@@@@@@@@@@@@+#$#@@#@OO+@@$$$################",
"@@@@@@#@@@@@@@@@@@@@@@@@#@@@@@@@@################################################$$$$$$$#######$$$$$$#########$%%%$#@@@@#####@@@##############################@@@#######@@#$%%$#@@@@@@+@@###@@@@####$$$$##########################@@##@@@+@@###@#$$#@@@##@@@##@@@@@@@@@@@@@@@@@@@@@@@@@@@@@@@@@@#@@@#$#@@@@#@@@@$++##@@$@@@@@@@@@@@@@@@@@@@@@@@@@@@@@@++@@@@@@##$$$#@@@#$#@@@@@##@@@##@###$#@@@$#$#@@@##+$#@$+$$O+@@@@@@@#@@&%@@@@@@@@@@@@@@@@@@@@@@@@@@@@@@@@@@@@@@@@@@@@@@@@@@@@@@@@@@###@@++@@@+@#@@##@@###@@@@@@@@@@@@@@@@@@@@@@@@@@@@@@@@@@@@@@@$#@@+OO++@@@@@@@@@@@@@@@@@@@@@@@@@@@@@@@@@@@@@@@@@@@@@@@@@@@@@@@@@@@@@@@@@@@@@@@@@@@@@@@@@@@@@@@@@@@@@@@@@@@@@@@@@@$*&$@@@@@+&&%-*=*+&*@@@@+@@@@@@@@@@@@@@@@@@@@@@@@@@@@@@@@@##@$%$@+##+++O@###@@#$############",
"@@@@@@@@@@@@@#@@@@@@@@@@@@@@@@@@@@##########################################$$$$$#$$$$$$######################$%%$$######$###@@@@#############################@@@@#######@@$%&%#@@@@@@@@@###@@@######$$$$$$###########################@@@@#$$##@#%%$@@@#@@@@@@@@@@@@@@@@@@@@@@@@@@@@@@@@@@@@@@@@@@@@#%$@@++@@@##$++@#@@$@@@@@@@@@@@@@@@@@@@@@@@@@@@@@@@+@@@@@###$&%@+@@@#$##@++@#@@@@#@#@@@@@@+@@@@@###$@#$@#####$#@@@@#+#@+@#@+@@@@@@@@@@@@@@@@@@@@@@@@@@@@@@@@@@@@@@@@@@@@@@@@@@@@@@@##$##@+++@@@########@@@@@@@@@@@@@@@@@@@@@@@@@@@@@@@@@###@@@#@#$#@@+O++@@@@@@@@@@@@@@@@@@@@@@@@@@@@@@@@@@@@@@@@@@@@@@@@@@@@@@@@@@@@@@@@@@@@@@@@@@@@@@@@@@@@@@@@@@@@@@@@@@@@@@@@@@@$*&$#@@@++%&%-*==*%%%@+@@@@@@@@@@@@@@@@@@@@@@@@@@@####@@@@#@@#%$$@@@#$#@#$$#@@##############",
"@@@@@@@@@@@@@@@@@@@@@@@@@@@@@@@#@@@@##############################################$$$$$$########@@@@####$$$$$$%%%$%$$###$$$##@#####################$$#########@@@@@######@@$%&%#@@@@@@@@##$$###$$######$$%$$##########################@@@#$%%$#@#%%$@@@@##@##@@@@@@@@@@@@@@@@@@@@@@@@@@@@@@@@@@@#@@@#%$#@+O++@#$$@+@@@+@@@@@@@@@@@@@@@@@@@@@@@@@@@@@@@@@@@@@@##$%%%#@@#@+#$@+@#+@@@@@@@@@++++@@@@@@@####@O@+@@+@&%$@++@$$++@@@#@@@@@@@@@@@@@@@@@@@@@@@@@@@@@@@@@@@@@@@@@@@@@@@@@@@@@@@@##$$#@+++@###@@#@@##@@@@##@@@@@@@@@@@@@@@@@@@@@@@@@#####@@@#@#$#@@+OO+@@@@@@@@@@@@@@@@@@@@@@@@@@@@@@@@@@@@@@@@@@@@@@@@@@@@@@@@@@@@@@@@@@@@@@++@@@@@@@@@@@@@@@@@@@@@@@@@@@@@@@@@@#%**%$#@@+@$%%=&*=&&-%+@+@@@@@@@@@@@@@@@@@@@@@@@@@@###@@@@@@@+#$#$#+O+@@###$$$#@@@###########",
"#@@@@@@@@@#@@@@@@@@@#@@@@@@@@@@@@@#@@###################################@#####@######$#$$$####$##@@@#@@###$$$$%&&%%$####$$$###$$##################$$$#########@@@@#######@#$%&%#@@@@@@@@#$$$$#$$$$#####$$$$###########################@@##$%%$#@#$$#@@@@@@####@@@@@@@@@@@@@@@@@@@@@@@@@@@@@@@@@@@@@@#$$##++++OOO$#+@@++++@@@@@@@@@@@@@@@@@@@@@@@@@@@@@@@@@@@@##$%%$###@@@@@+++@@@@###$#@@@@++@##$$$#@@@@$@#@@O+O++@@@@@####+#**#@@@@@@@@@@@@@@@@@@@@@@@@@@@@@@@@@@@@@@@@@@@@@@@@@@@@@@@##$##@+++@@@@@@##@####@@@@@@@@@@@@@@@@@@@@@@@@@@@@@@@@##@@@#@#$#@@+O++@@@@@@@@@@@@@@@@@@@@@@@@@@@@@@@@@@@@@@@@@@@@@@@@@@@@@@@@@@@@@@@@@@@@@+++++@@@@@@@@@@@@@@@@@@@@@@@@@@@@@@@@#%**%$#@@O@@%%&$%%*&$#+@#@@@@@@@@@@@@@@@@@@@@@@@@@+++++@@@@@@@#%$###@OO+###@@@##$############",
"@@@@#@@@@@@@@@@@@@@@@@@@@@@@@@@@@@####@##############################################$#@$######$$#############$&*&%$#@@@@@#$$$$###################$$$####################@#$&&%$######@@##$$##$$$$####$$$$#################################$$$######@@@@@@@###@@@@@@@@@@@@@@@@@@@@@@@@@@@@@@@@@@++@#$&$#@+O++Ooo%#OO+@@++@@@@@@@@@@@@@@@@@@@@@@@@@@@@@@@@@@@@@##$&%####+@@@@+++@@@@@#$$###@@@@++@#@#O@@$@@@@@@@@@@@@@@@@###@@###@@@@@@@@@@@@@@@@@@@@@@@@@@@@@@@@@@@@@@@@@@@@@@@@@@@@@@@@####@++@@@++@@######$$#@@@@@@@@@@@@@@@@@@@@@@@@@@@@@@@@@@@###$$@@+O++@@@@@@@@@@@@@@@@@@@@@@@@@@@@@@@@@@@@@@@@@@@@@@@@@@@@@@@@@@@@@@@@@@@@@@@@@++++@@@###@@@@@@@@@@@@@@@@@++@@@@#%**%$#@@O@$%%%%%%&%$#@@#@@@@@@@@@@@@@@@@@++++@@@+++O++++@@@@@#$##@@@+@@@@@##################",
"@@@@@@@@@@@@@@@@@@@@@@@@@@@@@@@@@@####@@##########################$$$$########@@@#$################$$##########$*%%%#@@@@#$%$$$@#########################################@#$&&%$######@@#######$$####$$$#################################@@@#####@@@@#@@++@####@@@@@@@@@@@@@@@@@@@@@@@#@@@@@@@@@@@##$%%##@+++OOo$#+O+@#@@@@@@+@@@@@@@@@@@@@@@@@@@@@@@@@@@@@@@@##&%%%#@##@@@@++++@@@@@+@@@@+@@++O+@+$#$@+@@@@@@@@@@@@@@@@@@@++@@@@@@@@@@@@@@@@@@@@@@@@@@@@@@@@@@@@@@@@@@@@@@@@@@@@@@@@@@@####@+++++O++@@+@@@@###@@@@@@@@@@@@@@@@@@@@@@@@@@@@@@@@@@@@##$$@@+OO+@#@@@@@@@@@@@@@@@@@@@@@@@@@@@@@@@@@@@@@@@@@@@@@@@@@@@@@@@@@@@@@@@@@@@@@@@@@++@@@@#@@@@@@@@@@@@@@@@@@++@@@@@$&&%$@@@+@$%$%$$%%$#@+@@@@@@@@@@@@@@@@@++@++@@@@@@++++@@@@@@+#$#@@@@++OO+@@@#@@@############",
"@@@@@@@@#@@@@#@@@@@#@@@@@@@#@@@@@@#####@@###################################@@@@@@$##$#%@@####@@###########$$$%&&%%&$$$$#$%%$$$@#########################################@#$&*&%######@@######$$$####$$###@@#######################@#####@+@@@###@@@##@@+@@###@@@@@@@@@@@@@@@@@@@@@@@@@@@@@@@@@####@#$$#$#@@@+Oo##@@@+++++++@@@@@@@@@@@@@@@@@@@@@@@@@@@@@@@@@@@@%%%%$$###@++++@@##@#@O+@@#@##@@+O@#$+@@$@@@@@@@@@@@@@@@@@@++++@@@@@@@@@@@@@@@@@@@@@@@@@@@@@@@@@@@@@@@@@@@@@@@@@@@@@@@@@#####@+++OOO++@@@@+@@@@@#@#@@#@@@#@@@@@@@@@@@@@@@@@@@@@@@@@###$$@@++++@#@@@@@@@@@@@@@@@@@@@@@@@@@@@@@@@@@@@@@@@@@@@@@@@@@@@@@@@@@@@@@@@@@@@@@@@@@@@@@@+@@@@@@@@@@@@@@@@@@@+@@@@@#$&&%$@@@+@$%$$$$$$##@+@@@@@@@@@@@@@@@@@@@@@@@@@@@@@@@@@@@@@@+#$#$##@+++++@##################",
"@@@@@@@@@@@@@@@@@@@@@@@@@@@@@#@@@@@#####@@#######################################@##$%$$###@@#########@####$$$%&&%$$$$&&$$%$$$$@#############################$$$#########@#$&*&%######@@@#####$$$$$$$######@@######################@@###$@@@@@###@@@##@@@@@###@@@@@@@@@@@@@@@@@@@@@@@@@@@@@@@@@@@@###$###@@#@++O+#@#@+@+@++++@@+@@@@@@@@@@@@@@@@@@@@@@@@@@@@@@@@@%&%%%$#++++++@##@@@@@#####$$@@++OXOO@+@@@@@@@@@@@@@@@@@@@@++@@@@@@@@@@@@@@@@@@@@@@@@@@@@@@@@@@@@@@@@@@@@@@@@@@@@@@@@@@##$$#@++++++@@@@@@+@#@@@##@@@@@@@@@@@@@@@@@@@@@@@@@@@@@@@@@###$$@@++++@#@@@@@@@@@@@@@@@@@@@@@@@@@@@@@@@@@@@@@@@@@@@@@@@@@@@@@@@@@@@@@@@++@@@@@@@@@@@+++++++@@@@@@@@@@@@@@@@@#@@@#$&&%$#@#+@$%$$$$$$#@@+@@@@@@@@@@@@@@@@@@@@@@@@@@@@@@@@@@@@@@+#$#%$#+++@@####################",
"@@@@@@@@@@@@@@@@@@##@@@@@@@@@@@@@@@@#@@@@####@@#@####################$$$$######$#@##$%$$$$####$$####$###$$#$##$%*%$$#$%%$$$$$$###############################$$$#########@#$&**%$######@@######$$$$$$#@#####@@#####################@@@#$$#@@#@@######@@@@@#####@#@@@@@@@@@@@@@@@@@@@@@@@@@@@@@@@@@###$#@@@+@####O#O++O%%#@+++@@@@@@@@@@@@@@@@@@@@@@@@@@@@@@@@@++@$%%$$##@@+++@@@@@##@@@@@#@@@@@++@@#@#@#@@@@@@@@@@@@@@@@@@@++@@@@@@@@@@@@@@@@@@@@@@@@@@@@@@@@@@@@@@@@@@@@@@@@@@+@@++@@@#$$$#@+++@@@@@++@####@@@@@@@@@#@@#@@@@@@@@@@@@@@@@@######@@###$$#@++++@#@@@@@@@@@@@@@@@@@@@@@@@@@@@@@@@@@@@@@@@@@@@@@@@@@@@@@@@@@@@@@@@@@@+++++++@@++++++@@@@@@@@@@@@@@@@@@@@@@@@#%&%$@@@+@$$#$$$###@@@@@+@@@@@@@@@@@@@@@@@@@@@@@@@@@@@@@@@@@+#$#$#+OO+@@#@##$$$$############",
"@@@@#@@@@@@@@@@@@@@@@@@@@@@@@@@@##@@#@@@@###@@######################$$$$##@@@@##@@$##$#$$#$$$$##$##$$###$##$#$%&&&%%#@@##$%$##########################$$$####$$$#########@@$&**%$$$#$##@#######$$$$$$#@#####@@###################$#@###$$#@##@@######@@@@@######@@@@@@@@@@@@#@@@@@@@@@@@@@@@@@@@@@###$$##@+@@#$$O#O@@O%$#@++@@@@@@@@@@@@@@@@@@@@@@@@@@@#@@@@@+++#%%#@####$@OO@@@+@##@#@@@@@@@@@@+++@@@+++@@@@@@@@@@@@@@@@@++++@@@@@@@@@@@@@@@@@@@@@@@@@@@@@@@@@@@@@@@@@@@@@@@@@+@+++@@@#$$$#@+++@#$##@@@$&%#@##@@@@@@@@@@@@@@@@@@@@@@@@@@@@#####@@###$$#@++++@#@@@@@@@@@@@@@@@@@@@@@@@@@@@@@@@@@@@@@@@@@@@@@@@@@@@@@@@@@@@@@@@@@@@@+@+@@@@@@@@@@@@@@@@@@@@@@@@@@@@@@@@@@#%%$#@+@+@$$#$$####@@@@@@@@@@@@@@@@@@@@@@@@@@@@@@@@@@@@@@@@@+#$##@@@@@@@@@##$$$$############",
"@@@@@@@@@@@@@@@@@@@@@@@@@@@@@@@@##@@##@@####@@@###@##################$$$##@@@@@###$########$$###$$$$$######$$$%&&&&%$@@@#$%$#########################$$$$$##$$$$$$$$######@$&**%$$$$$#####$##$$$$$$$$############################$########@@#@@#####@@#@@@@#####@@@@@@@@@@@@@@@@@@#@@@@@@@#@@@@@@@##$%$$$#@@@@#@@@@#@+@@@#@@@@###@@@@@@@@@@@@@@@@@@@@@@#@@@@@+++#$%%#@#$###@++@@@@++@##@@@$###@##@++@@+++@@@@@@@@@@@@@@@@@@++@@@@@@@@@@@@@@@@@@@@@@@@@@@@@@@@@@@@@@@@@@@@@@@@@@@@@@@@@@##$$#@+++@@@@@@@@@##@@##@@@@@@@@@@@@@@@@@@@@@@@@@@@@@@@@@@@###$$#@++++@#@@@@@@@@@@@@@@@@@@@@@@@@@@@@@@@@@@@@@@@@@@@@@@@@@@@@@@@@@@@@@@@@@@@@@@@@##@#@@@@@@@@@@@@@@@@@@@@@@@@@@@@@@%%$#@+@+@$$##$#####@@@@@@@@@@@@@@@@@@@@@@@@@@@@@@@@@@@@@@@@@#$##$####@@@###$###############",
"@@@@@@@@@@@@@@@@@@@@@@@@@@@###@@###@##############@##############@####$$$#####$$#####$@####@@###$$#$$##$$$####$%%%%%$$$$##$$$$#######################$$$$$$$$$$$$$$$$#####@$%&&%$$$######$$$$$$$$$$$$####################################@@@@@@####@#@#@@@+@#################@#@@###@@#############$$%$$$#@@@@@@@@#@@@+@##@@@@#$@@@@@@@@@@@@@@@@@@@@@@@@@@@@@++++$%&%$#@##@@#@@@@+@@@++@@@$$##@#$##@@@@+@@@@++@@@@@@@@@@###@@@##@@@@@@@@@@@@@@@@@@@@@@@@@@@@@@@@@@@@@@@@@@@@@@@@@@@@@@@@####@+++++O@@#$$@OO@#@@@@@@@@@@@@@@@@@@@@@@@@@@@@@@@@@@@@@###$$#@@+++@#@@@@@@@@@@@@@@@@@@@@@@@@@@@@@@@@@@@@@@@@@@@@@@@@@@@@@@@@@@@@@@@@@@@@@@@######@@@@@@@@@@@@@@@@@@@@@@@@@@@@#%%$#@@@+@$$##$####@@@@@@@@@@@@@@@@@@@@@@@@@@@@@@@@@@@++@@@@@#$#$$#@@+++@#####@@@###########",
"@@@##@@@@@@#@@@@@@@@@@@@@@@@##@##################################$###########$$$######@########$$######$$$$##$$%%%&%$##%###$$$#############$$####$%$$$$$$#$$$$$$$$$$#######$%&%%$$$$######$$$$$$$$$%$####$$##############################@@@#@@###$$#@##@@#$#########@@########@##@#@@#############$$%$$$#@@@@@@@+@@@@@@###@@@##@@@@@@@@@@@@@@@@@@@@@@@@@@@@@+++#$%$$$###@@@@@@@@@@@@@@@@@+@@@@#@#@@@@@@@@@@@@@@@@@@@@@@@@##@@@@@@@@@@@@@@@@@@@@@@@@@@@@@@@@@@@@@@@@@@@@@@@@@@@@@@@@@@@@#$####@++@@@####@@@@#@@#@@@@@@@@@@@@@@###@@@@@@@@@@@@@@@@@###$$##@+O+@####@@@@@@@@@@@@@@@@@@@@@@@@@@@@@@@@@@@@@@@@@@@@@@@@@@@@@@@@@@@@@@@@@@@@@@###@@@@@@@@@@@@@@@@@@@@@@@@@@@@@#%&%$#@@@@@#$$#####@@@@@@@@@@@@@@@@@@@@@@@@@@@+@@@@@@@@@@@@@@#$#&#@+++++@#$$$#@@############",
"@#####@@@@###@@@@######@@@@@@@@@########@@####@@%$@@#$$#####@@#$#######@@@##@@@@##$###@@##$$$$$$$#####$$$$$##$%%%%&&$#$$$##$##################$$###$$$$$$##$$$#############$%%%%$$$$$$#+########%%$&&####$$##$################################@###@@@@##@@@@@@@######@@@@@@@@##@####@@#####@###@@@@#$$$###@@@@++@@@@@@@@@@@@@@@@@@@@@@@@@@@@@@@@@@@@@@@@@@@+++++#%%$$$###@@@@@@##@@@@@@@@@@@@@@@@@@@@@+++++++++++@@@@@@++@@@@@@+@@@@@@@@+++++++++@@@@@@@@@@@@@@@@@####@@@@@@@@@@@++++++@#%%%%%$@@@@@####@@@@####@@#@@@@@@@@@@@@#######@@@@@@@@@@@@###$%##@+O+@#####@@@@@@@@@@@@@@@@@@@@@@@@@@@++@@@@@@@@@@@@@@@@@@@@@@@@@@@@@@@@@@@@@@@@@@@@@@@@@@@@@@@@@+++@@@@@@@@@@@@#%&%$#@@@@#$$$#####@@@@@@@@@@@@@@@@@@@@@@@@@@@@@@@@@@@@@@@@@@#$###@++@+o+@#$$$##############",
"@@#####@@@###@@@@###############################$#######@@#$$####@@######@##@@+@##$###@@######$$########$$$###$%%%%%$$$$$######$$$$$##########$$#@#$$$$$$##$$$#############$%%%$$$$#############%%#%%$%$@$$##$###########################@####@@##@##@##@@@@@##@@@@@@@@@@#####@@@@##@@@@@@@@@@@@@@@#$$$$##@@++@@@@@@@@@@@@@@@@@@@@@@@@@@@@@@@@@@@@@@@@@@@@@@@+++#%%$$$###@@@@@@@@@@@@@@@@####@@@@@@@@@@@@@@@@@@@@@@@@@@@@@@@@@@@@@@@@@@@@@@@@@@@@@@@@@@@@@@@@@@@@@@+++++++++++++@@+++@@@#$%%%$$#@@@@@###########@##@@@@@@@@@@#@@@##########@@@@@@####$%$#@+O+@#####@@@@@@@@@@@@@@@@@@@@@@@@@@@@@@@@@@@@@@@@@@@@@@@@@@@@@@@@@@@@@@@@@@@@@@@@@@@##@@@@@@@@@+++@@@#@@@@@@@@#%&%$###@@###@@@####@@@@@@@@@@@@@@@@@@@@@@@@@@@@@@@@@@@@@@@@#$%%$$#@@##@+++@@###############",
"@############@@@@##########@@@###############@#####$$$######$$#########$$########$$######$##############$$$##$$%%%%%%$$$#########$$$$$###@@@@########$$$$$$%$$$$$##########$%%%$$$$#@@##########%%#$$#$$@#$$$$#@###################@####@@#####@###$$#@@@##@@##@@@@@@@@@@@####@@@###@@@@@@@@@@@@@@#$%%%$$#@@@@@@@@@@@@@@@@@@@@@@@@@@@@@@@@@@@@@@@@@@@@@@@@@@@+++#%%$$$###@@@@@@@@@@+@@@@@@@@@@@@@@@@@@+@@@@@@@@@@@@@@@@@@@@@@@@@@@@@@@@@@@@@@@@@@@@@@@@@@@@@@@@@@@@+++++++++++++@##@@@@@##$##@@+@@@@@##########@@##@@@@@@@@@@#@@@@################$##$%$##+++@######@@@@@@@@@@@@@@@@@@++@@@@@@@@@@@@@@@@@@@@@@@@@@@@@@@++++@+@@@@@@@@@@@@@@@@@@@@++++@@@@@+++@@@@@@@@@@@#%&%$###@@+++++@@##@@@@@@@@@@@@@@@@@@@@@@@@@@@@@@@@@@@@@@++@#$&&&$#@#@##@+@#@###############",
"@###########@@@@@##$######@@@@##########$$#######$$$$$####@++###@##@@@#######$$$###########@@@#########$$$$##$%%%%%%%$$############$$$$$##$$$$$#######$$$#$$##$$$#########$$%%%$$$#$$$@@########$$@#$@#$#$$$#%$@##################@@@###@@@####@###$#@@@@@#@@@@@@###@@@@@@@####@@@#@@@@@@@@@@@@@@@@#$%%$$##@@@@@+@@@@@@@@@@@@@@@@@@@@@@@@@@@@@@########@@@@@++++#%%$$$####@@++@@@@+++@@@@@@@@@@@@@@@@++@@@@@@@@@@@@@@@@++@@@@@@+@@@@@@@@@@@@@@@@@@@@@@@@@@@@##@@@@@@@@@@@@@@@@@@@@@@+@@@#$$$#@@@@@@@@@@@########@##@@@@@@@@@@#@@@@@#######@#@@####$$#%%$##@++@#####@@###@@@@@@@@@@@@@@++@@@@@@@@@++@@@@@@@@@@@@@+@@@@@+++++++@@@@@@@@@@@@@@@+++@@@+++@@@@@@@@@@@@@@@@@@@#%&%%$##@+OOOO+@@#@@@@@@@@@@@@@@@@@@@@@@@@@@@@@@@@@@@@@@@@@@#$%%$$#$$@+O++#$$$$#############",
"@@@###@@@@@@@@@@@@@@@@@@#@@@@@@#######@##$$##@###&=&$##$#@###@@@#######@@#$$#$$$##@@@#####@@@@#$########$$$###$%%$%%%$$###################$$$$$$$#####$$$#@@@##$$##$######$$%%%$$$$$##@@#######$##@#$$$%$$$$#$$#################$########@#####@@@@@@@##@@#########@@@@@@@##@@@####@@@@@@@@@@@@@@@#$%%%%$$##@@@@@@@@@@@@@@@@@@@@@@@@@@@@@@@@@@@@#########@@@@@@@#%%$$$####@@++++++++@@@@@@@@@@@@@@@@@@@@@@@@@+++++@@@@@@@@@@@@@+@@@@@@@@@@@@@@@@@@@@@@@@@#######++++++++++++++++@@@+++@#$$%%$#@#@@@@@@#@#@######@###@@@@@@@@##@@@@@@@@@@##########$$#%&$##@++@@@@@@@@###@@@@@@@@@@@@@+++@@@@@@@@@@@@@@@@@@@@@@@@@@@@@@@@@@@@@@@@@@@@@@@@@@@@@@@@@@@@@@@@@@@@@@@@@@@@@@@@#%&&%$###@+++++@@@@@@@@@@@@@@@@@@@@@@@@@@@@@@@@@@@@@@@@@@@@#####$$$$##+oOO@#################",
"@@@@@@@@@@@@@@@@@@@@#############################$%%$##$$$$%$#@########@@############$$$$$#@@##$####$$$$$$$$#$%%$$%&%$#$############@@########$$###$$$$%%$####$$$#########$$%%%$$$$#@@##$#######$$##$%&%$@#%$$%#################$$####$##@@####@OOOOO+@@@@@#@@#######@@@@#@@#######@@@@@@@@@#####@#$%&&%$$##@@@@@@@@@@@@@@@@@@@@@@@@@@@@@@@@@@@@@@@@@@@@@@@@@@@@#%%$$$####@@+++++++++@@@@@@@@@@@@@@@@@@@@@++++++++@@@@@@@@@@@@@@@@@@@@@@@@@@@@@@@@@@@@#############@##@@@@@@@@@@@@@@@@@###$$#@@#@@@@####@@@@########@@@@@@@@#############$$#@#%=##$$$%&$$#@++@@@@@@@@@@@@@@@@@@@@@@@@@@@@@@@@@@@@@@@@@@@@@@@########@@@@@@@@@@@@@@@@@@@@@@@@@@@@@@@@@@@@@@@@@@@@@@@@@@@@#%&%%$$$$#####@++++@@#@@@@@@@@@@@@@@@@@@@@@@@@@@@@@@@@@@@@##@###&%$@@##@+O@@@@###########$$$",
"@@@@@@@@@@@#############@@@@############@@@###$$#+O@$$@@#$#############$$#@###@####$$$$$$$####$$$$$$$$$$$$$$$$%%$$%&%$#$################$$#####$$$$$$$$$$#$$###$$#########$$%%%$$$$$$###############$%%%#O+##%&$$$$$$$$$$$$$$$$$%%$$$$$$###$$$#@@+@#@@@@@@##@@@@@@###@@@@@@@@@##@@@@@@@@@@@#####++@#$$$$$$###@@@@@@@@@@@@@@@@@@@@@@@@@@@####################@@@@#%%$$$####@@+++++@+++@+++++++@@@@@@@@@++@@@+++@@@@@@@@@@@@@@@@@@@@@@@@@@@@@@@@@@@@@@@@#######$$$&$@+@#@+++++++++@@@@++@@@##$#@@@#@@#####@@@@##########@@@@####$$$$$$$$$##@#$#O+%##$$$%&$$#@++@@@@@@@@@@@@@@@@@@@@@@@@@@@@#@@@@@@@@@@@@@@@@@@@@@@@@@@@@@@@@@@@@@@@@++++++++++@@@@@@+++@@@@@@@++++++@@@@@@#%&%%$$$%%%%$$#@++@#############@@######@################@@@##$$&#++++@#++@#@##########$$$$$",
"##@@@@@@@@#######@@@@##@@@@#####@@@@@@@@@@##################$%$#######$$$$#$$####$$###@@######$$$$$$$$$$$$$$#$$%%$%&&%$$####$$$$$$$$$$$$$$$$$$$#$$%%%%%%$$%%%%%%%$$$$$$$$#$$$*=#$$$$$##@%%%$$$$##@@@@##%$+O++#%%%$$$%%$##*%@$%$$$$$#$$$$####$$$##@#$########@@@@@@@@@@@@###########@##@@@@@@############$$##@++++@@##$$$$$$$$$$$$$####################$#####@@@@#########@@@+++++@@@@@+++++++@@@@@@@@@@@@@@@@@@#######@@@@######@@#############@@##@@+OOOOOOO+++#$%$@++@#@@@@@@@@@@@++@###$$$#@@#++###$$$$$$$$$$$$$$########$$$$$$$$$$$$$$######&%$##$%%$##@@@@@@@@@@@@@+++@@###@@@@@@@#######@@@@@@@@@###############@@####@@@@@@@@@++++++++@@@@@@@@@####@@@@@@+@@@@@@+#%%*&%$$*&%%$$##@@@#############$$$$$$$$$$$$$$$$$$$$$$$$$####@@@#$$$@+@#@O+#%%$#$%%%%%%%%%$$",
"@@@@@@@@@@@####$#####$$##########@@@@@####$$$##@+@##$$%$$$$%$$$####$$$####$$$#$##$$###@@@####$$$$$$$$$$$%%%%$%%&%%%%%%$###$$$$$$$####$$$$%%&&&%%%%&&&%%&&%$$$%%&&%$#@@#$$@$%##%#$$$$##@@@@@@@@@@@@@+O+@#$#@+oO@$$$$$%%%$$$$$$$$$$$$$$$$$$#$$%%$$#@@############@@@+@@@@######$$####@@@@+@+++++++++++@#$%$#@@+OoO++@@##$$####$$$$&&%$$%&&&%%%%%%%%&&&%%%%&%%$$#@@@@++@+++++++++++++++@+@@@@@@@@@@@@@@@@@@@@@@@@@@@@@@@@@@@@@@@@@@@@@@@@+++++++++++++OOoXXX..XXXoo.O@#@++@@@@@@@@@@++++++@@@#$$##@@OO@$$$$$$$$$#######################$$$$$$$$$$%%&%$$$$%&$#@OoooOOOOOOOOO+@@#@+OoO++++++@@@@@@@++@@@@###################################@@@@@@@@@@@########@@#########@@@$%%**%%$%%$$$$$##@@@@@@@@@@@@@@@########$$####$#@@@@@@@@@@@@@#$%&%%%%$#$#OoO++OO+++@@@@@#$$$",
"@++++++++++@@@@##########@@@@@@@@@@@@#########@@+@#$$%%&%####$$%%%%$$%$##$$$$$$##$$$$$#####$$$$$$$$$$$$$$$$$$$$%&&%$$$$########$#@@+++@@############@@@##@@++++++$%+ooooO+++@@#######@+OXXXXXXXXoOOoXXoOOOOo..XOOOOO+++OOOOOOOOOOOOO++++OOO++++@@@@@@@@@@++++++OOOOOOooooooooOOOOOOoOOOOOOOOOOoOOO+@#$%%$##@++OooXXXXXXXXXXXXoooXXXXXXXXooooooooOOOOOOOO@@@@+++OOOO++@@@@@@@++OOOOOOOOOOOOOOOOOOOOOOOoOOOOOOOOOOOOOOOOOOOOOOOOOOOOOOooOOOooooooooXXXXoooooXXXXoXXXXXooOOOO+++@@@+OOOOooOO+@#$$##@@o .XoOOOoooooooooooooooooooooooooOOOOOOOO+++++OoooO@$%$$@oXXXXX.XXXXXXXXXXXooooooXXXXoooOOOOOOO+++++++++@@@@@@@@@@@@@@@@@@@@@@@@@@@@@@@@+++OOOO+++++++++++++@@@++++OOO@##%%$##$$$$%%$$#@+++++++++++++++OOOOOOO+++OO++++OOOOOOOOOOO+@@$*&%%%%$#+oXXXXXXXX...XXXXXXo",
"OOOOOOOOOOOOO+++++OOOO+++@++++++++++@@@@@++@@@@@+@##@+@#@OO+@@@@@##@@@@@@@+++@@+++@@+@++@@@@############$$$###$$*&%%%%$@@@@@@@@@@++OOOOO++OOOOOOOOOOooOOOO++OoooOO+@@+OOoOOO+@@@@@@@@++OOooXXX...XXoX.XoooooXXXXooXXoOoooOOOOOOOOOOOOOOOOooOO+++++@@@+++OOOOooooooXXXXXXXXXXXXXXooooOOOO++++@@+@@@@#$%%%%%%$$@@+OOooXoooooOOoooooooXoooXXXXXXXXXXXXXXXooooooooooOOO++@@@@@@@@+++++++++++++OOOOOOOoooXXXXXoooooOOoOOOOOOOOOOOOOOooooooooooooXXXXXXXXXXooooooooXXXXXXXXXXXXXooooooOOOOOooOO+@@####@+OoXXX......     ............   ...........   .....XO@#$$@+OooooooooooooooooooooXXX.XXXooOOO+++++++++++++++++OO++++++OOOOOOOOOOOOOOOOOOOOoOoooooooooooOOOOOOOooO++OOOOO@##%%$$$%%%&&&&%$$##@@@@@@@@@@@@@@@@@@@@##@@@@##@@@@@@@@###@#$#@$%$#$&%@@+Oooooooooooooooooo",
"OoooooooooooooOOOOOoooooooooXoooOOOOOOOOooOOO+++OoXXooooOOooooX.oooooooOOoooooooOooooOOOOO++@@@####$$$$$%%%%%%%&&&&&&%$#@@@@@@@@@@@@@@@@@+++++++++++++++++@@@+++@@@@@@+@@@@@@@@@@@@@@@@++OOOOOOOOooOOooO+@@@+OoooOOO+@@++++@+@++++++@@@++OO+++@@##$$####@@##@@@@++OOOOOOoOOOO+++@@@@####$$$%%%%%%$#$%&*=*&&&&%$##@@@@@@@@@@@+++OOOOOOOOOOOOOOOOOOOOOOOOO+++++@@@######$$$$$$$$$$$###@@@@@+++OOOOOooooooooOOOOO+OOOO++++OO++++OOOOOOOOOOoooooooooooooooXXXooooXXXXooooooooooOOOOO+++@@@@@@@@@@@+++OOOoXooooooooooXXXXooooooooXXXXXXXoooooooooooOOOOOOOOOO@@@+OOOOO++++OOOOOooooooOOOOOO++@##$$$$$############@@@@@@@@@@@@@@@@@@+++++++OOOOOOOOOOO++++++@@@##@@+++@@@@@@@#$%%&&%%&**&&&&&&&&%%$$$$$$$$$$$$$$$$$$$$$$####$$$%%%%$@@@$##$*&%&**%%&%###@++++@@+++++++++++",
"OOOOOOOOOOOoooOOOOOOOOOOOOOOOOOO+++OOoooOOOOOOOOOoXXoOOooOOooOOOoooOOOOOOOO+OOoO+O+++++@@@@##$$$$$%%%%&&&**********==*%$$$$$$$$###$$$$##@@@#####@+@@###@@++@#####$$$$$$#####$$%$$#######@@@@@@+++OOO+OO++@@+OOOO+@@@@#$#####$$####$$$$$######$$$$$$$#$$$##$$#$$$##@@+++++O+++@@#$%%%%&%%&&%%&%%&%%%%&&*=====***&&%%$$%%%%%%$$$$$$$$$$$$$$$$$$$$$$$$$$$$$$%%%%%%%%&&&&****&&&&&&&&%%%$$$##@@+++OO+++++@@@@@@#####@@############@@@@@@@@@@@@++++++++++++++++++++OO@@@@@@@@@###$$$$##$$$$$$$$$####@@@@++OO+OOOOOOOOoooOOOOOOOOOOooooooOOOOOOOO+++++++++++++@@@@@@+@@@@@@@@@@@@@@@@@@@@@##$$%&&&&&&&&&&%&&&&%&%%%%%%%%%%%%%%%%$$$$$$%%$$$##########$######$$$$$$$$#$$%%%%&&&***==***==**&&&*****&&&&&&&%%%%%&&&&%%%%%%%$$%%%%%$##$%&&*&&*=**===*&%%&%$####$$$#####@#####",
"@@+++@@@@@+++O++OOOOOOOO++@@@++++@@++++++++++OOOO++OO++OooOOO+#%OOOOOOOOOO+++OOO++@@#####$$%&&**********============-=**&*&&&&&&&&&&&&%%$$$%%%%%$$$%%%%%%$$%%&&&%%%%%%%$$$%%&&**&%%%$%%%%%%$$#####@@##@@++@+O+##$%%$%&&&%%%%%%%%%%%&&&&%%%%%&&****&&&&&&&%%%%&&%%$###########$$$%&&%&&&&*&&&*&&&*****===---=====&&%%%%%&&&&&&&&&&&&%%%%%%%%%&&&&&&&&&&&&&&&&&&&&&**===----====*=********&&&%%%$$$$$$$$%%%%%%%%%%%%%%%%%%%%%%%%%%%%%%%%$$$$$$$$########$$$#######$$$$$$$$$$$$$$$$%&%%%%%%%&&%%%%%%$$$$$#@####@@@@@@@@@######@@@@@@@@@@@@@@######$$$$$$$$$%%%%%%%%%%%$$$$$$$$##########$$%&**========*=*==*****************&&&&&&&***&&&&&%%%%%%%%$$#$$%&&&&&&%&&&&*******===--*==-----===---=========**===========***********==------=******==**-=*&&&&&&**&&%%$$$%%%",
"#######$##@@@@@+++++++++++@@@@++@@##$#####@@++@@#@@#$#####@@+@$&@@@+++@@@@+++@@@@@@@#####$%&*==----;;--;;;;;;;;;;-==---====****&*********&&&&&&*&&&&&&&&&&&***==******************&&&&&&&&%%%%%%%%%%%$#@@++@@$%#$&&&&*==***********=====***==------;-===========*&&%%$$$$$$$$%&&&**&*===----;-------;;:::;-==--;&&&&&&*******==*&&&&&&&&&&&&&&&&********&&&&&***====-------==**&*******&&&&&%%%%%%%%%%&&&**************&&*************&&&&&%&%%%%%%$$$$$$####$$$%%%%%%%%%%%%%%%%%&&%&****==*&*&&&&&&&&$#&&%%%$$$$$$$$%%%%%%$$$$$$$$$$$$$$$$$$$$$$%%&&****&&%%&&&&&%%%%%%%%$$$$$$$#####$%*=-;;;;;;;--------------==---=------============***&&&%%$#@#$%*====**&&&--------;;;::;;;;:>>>>:;;;;;;;;;;;;;--;;;;;;;;;;;;----;;;;;::>>>:-;;-==;;;;--=******=****=**&%%%%&&*",
"-=**%$###$$$$$#@$$$#####++@$#@@$$$$$%%$##$%%$$$$$$$$$$$$$$#@+@@++@##$%%$####@++@#@+++@###$&=;::;---;;:::::::::>>>:::::::::;;---====---=========================*=--===**==========*************&&&*&%$$$###$%&**&&&*======--;;::;;;;;;----;;::::>>>>>>>::::;;;;:-;-&#@#@+@##@%;,::::::>>>>,,,,,,,,,,,,,,,,,>:::;;;;-==;>::::::::;;--===*==---========******&&&&&----------====**********=&%%%$###$$$$%%&===---------=================*****&******&&&%%%%#$%%#@#$%%&&*===------==--;;;;;;;---=====----=*&&&&&&&&&&&&&&&&&&&&&&&&&************====;;--==**=========-----*%%%%&*&&&&$$$@+@$;,,,,,,,,,,,,,,,>>>>>>>>>>:::::>>>::;;---=-;::;---&%$%%##++@$&;<<,>-====>>>>>>>>>>>,<<,,>>>>>>>>>>>>>>>>>>>>>>>>>>,,,,>>>>>>>>>>::::::::::::::::>,<,>;--;;;-----------------",
"=====**&&&*===&$%$###@@@@#######&&%%%%%%%$$$$%%%%%%%%$$$%$$%%$%%%%%%%%%%$$$###@@++OO+@#$$&=;>,,>>>>,,<<<<<<<<<11111<<,,,>>>>>>>>>::::;;;--------;;;;;;;;;;;;--;--;;;:;-*;;;;;;;;;;;;;;;;;;;------===--*#$%**%%&*--;::>,,,>;--;><<<<<<<<,,,,,,<111111<<<11<<<<<<<1<,:=$@@@@@@#%-:,,,>>::;;--=============--;;:::>:>,:=**=&&&&&&&&*==--;;;;;--;;;;:::;==;>>>::;---;;:::>>>::;;;----------====*&%$$%%%$%=;;::::::::::::::::::::::::::::;---------=======*&%%&&%$#@#$$%&&*-:;;;;;;;;;;;;;:::::::::>>-==----========------------------========*******-------;;;;;;;;;;;:::>;*&&&&-;--=&$##++@*-;:>>>>::>>,,<<<<<<<<<<<<<<<<,,,,,,,,,,,>>>:;;-=**&#@+@@+@###%*;:-*%&**;;;::>>>>>>>,,>:>>,,,,,,,,,,,>,,,,,,,,,,,,<<<<<<<1<>;;><<<<<<,,,,,,>>>>>>,<<<,,,,,,>>::::::::;;;::::",
"**&&&*====**=-=*$#@@@@@@##%&&&&&**==**=--=**===*-----======------===**&***&&&&&%@@@@@@@@$=:,<<,,,,,,,<<<<<<<<11<,,<<1121111111111<<<<<<<,,,,,,,,,,,,,,,,,,,,,,,,<,,,,,:-:>,<<,>>>>>>>>>>;;;;;;;;:::;::*@#&=*%#%*-;>>>:::;>>--;;=---;;;;;-==*******&%%&&&&&***==&=&&-=%#$$#@@@@@$==**&%$$#@++OOOoOOOOOOOOooOO++@+@##@$%#oooOOooooOO++@@@#@++++@@#@#&==*%$#=;-=-;====--;;;::::>>>>::;;;--=*-;=%$##$$$$$&*=%*==**-;;;;;;;;;;::>>>,,,,>>>>,,,,,,,,,>>::::;==$###@@++#$%&*=*&#$$$%%%%%%$$$$$$$$%%%&&&@@@@@@@@@@##$$%%%%%%%%%%$$$$$$$$########@@@@@@@@@@@##$$$%&&*&%##@@#$$&=-&&%$*:;=%#+@#$$#@++@#@@@##$$%%%&&*&&********====;;;;;;--;::;-===&*=&%$@+@#@@##@O@$$###$#####$$%%&**%%%&=*&&%%%%%&&**====&*=--=*&&%%%%%%%---;;:::::::::::->;-:=%&=*&&&***&&&&&&&%%%%%$%%%%%%%",
"--===--;*&&*=;:>*%###@@#@#%=---=*=--======****&&&&&&&&&&&&&&&&&&%%$$###$$$$$$$$###$$$$#@$&===*&&-=*%%%&&&&%%$$$#@@#$%&**---=;,>---;;;;;;;::::;-*-&%&&%&--=======&&%&**&$@#$%&&%$$-=$##@@#@##$$%%$$$##%%##$%%$$%&***&$+OoO$==$++@++@@###@@++OOOOOOOooO+OXXoOooO+O+OO#%$##$#@@@+++++@@@++++++++++++++++++++++++++++@#$$#@++++++++++++++++++++++++++O+##+O+oo++o@$+oOOO+++@#$%&=--;;::>>>>>;>>;&$@O@@#$@X.o++++++++OOOoooXX+++@@##$##@@#$%%%%&&&**=--=---;;&$##@##+O+$&*%##@@@@@@@@@@@@+++++@@@@@@@@@@@@@@@@@@@@@++++++++++++@@@@@@@@##############@@####@@@@@@@@@@@#####&-%%$#@$%$$@O+#$$#@+@@@@@@@@@@@@@@@+++++++++++++++++++++++++#$$#+O@@@@@$$+@@@+@#@++@#$%$$$+@@@##$$$%$#@@#$$###@@@++++++++++++@@@++@@@@@@@@+%%&=&@#@@@@@@@@@%%&=*%*&%$#@+@@++@@@@@@@@@@@@@@@@@@",
"%%&**&&%$%&&&*=--*%$$#@###$&=-*%%$##$$#@@###@@##$$###$$#@##@###@$$$#############$$$$$%$$##@@+++@@@@@@@@@@@@@@@@@@@@++OOO++++++++++++++++@@@@@@@@@@@@@@@@@++++++@@@++#$%%$$$$$$$$$%$$###@@@@@@@@@@@#@@@$$#@@@@#$%&%#@@@@@@@@@@@@@@@@@@@@@@@+@##$##@@##@@#@++@@++@@@##$$@+++++++OO+++++++++++++@@@@+++++++++++++++@+@%%@+@+++++++++++++++++@@@@@+++++++++++++++++++@@@@@@@@@++++++###$%&=;:::;=%@+O+%=*#+@+++++++++++++++++++++++++OOO+@@#OOOOOOOOoooX+%&$%$#@##++o+#$%*=*%%%$$##############@@@@@#######@##@@@@@@@@@@@@@@@@@@@@@@@@@@@@@@@@@@@@@@@@@@@@@@@@@@@@@@#$@@##%*%%%%@O@#$#+O++++@+@@@+@@@@@@@@@@@@@@@@@@@@@@@@@@@@@@@@@@@@@#$%&&&$+#+O#$#+++OO+##@#%&%$##########@@@@@@@@@############@@@@@@@@@@@@@@@@@@################@@@@##$##$%%#+@#@@@@@@@#############",
"@@#$$$$#%&%$@+@#=%###@@##$%%%$$$$$############$$$$###$$$#########$$$$$$$##$$###$%$#@@#$$#@@@@@##############################@@@####@@@@@@@@@@@@@@@@@@@@@@@@@###$$###$&**$$$##@@@@######@########@####%%%$#@@@@$%&$@@@@#@@@@@@@@@@@@@##@#@@@@@###+#@#$++##@#@++++@$%$$$@+++++OO++++++++++++++++++@++++++++++++++++@#$$#@+++++++++++++++++++++++++++++++++++++++++@@@@@@@@@@@@@@@@++++++++$$%**%@+O@$&*&$++++++++++@@@@@@@@@@@@@@@@@@@@@@@@@##@###$@@#+@$###+++@+++oo+#$$%%$$$$$$#$#########@@@@@@#################@@@@@@@@@@++@@@@@@@@@@@@@@@@@@@@@@@@@@@@@@@@@@@##++##$$**&&$@#$##@OOO++++@@++@@@@@@@@@@@@@@@@@@@@@@@@@@@@@@@@@@@@@++#&=-:&@##@@@O+++@#$$$#$%$$$$$##@@@+@@@@###$#@@@@@@@@@@@@@@@@@@@@@@@@@@@@@@@@@@@@@@@@@@@@@@@@@@@@@@@@#$$$$$$##@@@@@@@###########",
"@@@@@#$$%%%#@@@#*%#@@@@@@#%&$@@#@#$$######@@##@@+++@@@@##@@##@@@###$$$$#######$$%$#+++@@@@###############################@@@@@@@@@@#############$#@@@@#$$##@@#####@@$%%$@@@@@@@@@@@@@@@@@@@@@@@@@@@@#%%$%$#@@@##@++@@@@@@@@@@@@@@@@@######@@@@@@+#++@+O@#@#@O++++#$$##@++++++O+$@@@@@@@@@+++++++@+++++++++++++++++++++++++@@++++++++++++++++++++++++++++++++++++++++++++++++++++++@@@@@@@@#$&%#+O+@#%*%@+++++++++@@@@@@@@@@@@@@@@###@@@@@@@@@@@@@@@#####@+++O+@++@@@++++@@@@@#######@@@############@#############@@@@@@@@@@@@@@@@@@@@@@@@@@@@@@@@@@@@@@@@@@@@@@@######$#&&%$$#@#$$#+O+++++@@++@@@@@@@@@@@@@@@@@@@@@@@@@@@@@@@@@@@@@@@++O#--#%%O+@++++@@+$$$$#$$$########@+@@##@++@@@@@@@@@@@@@@@@@@@@@@@@@@@@@@@@@@@@@@@@@@@@@@@@@@@@@@@@@@@##$$######@@@@@@###@@@@@",
"@@@@##$$##$$##@@-&$##+++@+#$#@@@@@@####@#$$$##$$$##########$$$$$##$$$$#######$$#@@@@@@@@@@@##$##########################@@@@@@@@@@@@@########@#####@@###@@@@@####@@@##@++@@@@@@@@@@@@@@############@#%&%$#@@@##@@@@@++@@@@@@@@@@@@@@@#@#########@+@@++@@#@+##@@@@@@$$#@@@++@+O+###$#####@@@@@+++@@@@@@@@@@@@@@@@@@+++++++++@+++++++++++++++++++++++++++++++++++++++++++++++++@@@@@@@@@+++@#$%%#@+OO+#$#@+++++++++++++++++@@@@@@@@@@@@@@@++++++++@@@@####@@+OOOo+OO+@@@@@@@@@@@@@@@@@@@@@@@@@@###@################@@@@@@@@@@@@@@@@@@@@@@@@@@@@@@@@@@@@@@@@@@@@@@@@@$#+@####$#@#@#$$@++@#+++@@@+@@@@@@@@@@@@@@@@@@@@@@@@@@@@@@@@@@@@@+++@#O#=&&&@@@@++OO+++#$#@#############@@@@@@@@@@+@@@@@@@@@@@@@@+++@@@@@@@@@@@@@++++++++++++@@@@@@@@@@@#@+++@###########@####@@@@",
"@@@@@@##########&;&##@++@@@@####$#@@#$$###$########################$$###$$##$$$###@@@@@@@@@@@####@@@@@@####################@#######@############@##########@####%$#########@@@########@@#############$%%##@@@@@@@@@@@@@@@@@@@@@@@+@@@@@@@@@@####$+$$+&*+@#+@@##@#@#$$#@@+++++O++@@@#####@@@@@@@@@@@@@@++@@++@@@@@@@+@@+++++++++++++++++++++++++++++++++++++++++++++++++++++++@@@@@@+++++#@#%&$##+++@+@@@@+++++++++@++++++@@@@@@@@@@@@@@@@@@@@@@@@@@@@@####@+@++++++@@@@@@@@@@@@@@@@@@@@@@@@@@@@@@@@@@@#@@#####@@@@@@@@@@@@@@@@@@@@@@@@@@@@@@@@@@@@@@@@@@@@@@@@@@@@@@@@@@####@#@###@++@@@+@@@@@@@@@@@+@@@@+@@@+@+@@@+++@@@@@@++++@@@@@@@@@@%**%###@@++++++@@@#$$#@@@@@@@@@@@@@@@@@@++@@@@@@@@@@@@@@@+++@@@@@@@@@@@@+++++++++++@@@@@@@@@@@@@@@@@@@@@@@@@##########@@@@",
"@@@@@@@@########%*%$$#++@@@@####@###@@#$$#@@###@##$######$#@@@@@@#####$$$%%%%%%$$##@@@@@@@@@@###@@@++@@@@@@@@@@@##########@@######@@######@@####################%$#####################@#############$$$##@@@@@@@@@@@@@@@@@@@@@@++@@@##@@@@@@@@@$@##+%%+@#@@+@@+@@#$$@++OO++OO+++++@@@@@@@@@@@@@@@@@@@++@@++@@@@@@++++++++++++++++++++++++++++++++++++++++++++++++++++++++++++++@@@@++++@+@%&$@#+++@@@@@@@@@@+@+@+@@@@@@@@@@@@@@@@@@@@@@@@@@@@@@@@@@@@#$##@@++++++++@@@@@@@@@@@@@@@@@@##########@@@@@@@@@@@@@@@@@@@@@@@@@@@@@@@@@@@@@@@@@@@@@@@@@@@@@@@@@@@@@@@@@@@@@@@@@@#@@#####@++++++@@@@@@@@@@@+@@@@@@@@+++@@@+++@@+@@@++++@@@@@@@@@@$&*%##@@@++++@@#@#$%$#@@@@@@@@@@@@@@@@@@@@@@@@@@@@+++@@@@@++@@@@@@+++@@@++++@@++++@@@@@@@@@@@@@@@@@@@@+@@@@@@@########@@@@",
"@@@@#@@@@@@@@@@@#$%#@@++@@@@@@#@@#$$#@@#####$$$$$%%%%$$$$$$$$$$$$#####$$$$%$$##$$$######@@@@@####@####@@@@@@@@@@@@######@@@@@#######@###@@@@####@###############$$#########################################@@@+@@@@@@@@@@@@@@@@@++@@@##@@@++@@@@@@@@+OO@$@@$#@@+++@$$#@@+@@+OO+++++@@@@@@@@@@@@@@@@@@@@@@@@@@@@@@@@@@@++++++++++++++++++++++++++++++++++++++++++++++++++++++++++@@@@@@+@@+@$%#@@+++@@@@@@@@@@@@@@+++@@@@@@@@@@@@@@@@@@@@@@@@@@@@@@@@+@#$##@++++++++++@@@@@@@@@@@@@@@@@@@@@@@@@@@@@@@@@@@@@@@@@@@@@@@@@@@@@@@@@@@@@@@@@@@@@@@@@@@@@@@@@@@@@@@@@@@@@@@@@@@@@@@@#####@++++++@@@@@@+@@@@++@@++@@@@++@@@@+@@@++@@@@++@@@@@@@@@@#%%$##@@++++++%%%$##@@@@@@@@@@@@@@@@@@@@++++@@@@@+@@+@@@@@++@@@@@@++@@@@@+@@@@@@@@@@@@@@++++++++++++@@+@@@@@@@@@@######@@@",
"@@@@@@@@@@@@@@#@$$&%##@+@@@@####$#####@@@@##@@##$$$%$##$$$$$$$%%%$$##$$$$$$$##$$$$$$$$###@@@@######$$###########@@@@@@@@@@@@@@@@@@@@@@@@@@@@@@@@@@@@@@@@#@@@@###$$#########################################@@@+@@@@@@@@@@@@@@@@@@@@######@@@@@@@#####+++@+@@+@@#@@#%%$##@@@++O+++@@@@@@@@@@@+@@@@@@@@@@@@@@@@@@@@@@@@@@@@@@@@@@@@@@@@@@@@@@@@@@@@@@@@@@@@@@@@++++++++++++++++++++@@@@@@@@+@$%$@@+++@@@@@@@@@@@@@++++@@@@@@@@@@@@@@@@@@@@@@@@@@@@@@@@++#$$#@++++++++++@@@@@@@@@@@@@@@@@@@@@@@@@@@@@@@@@@@@@@@@@@@@@@@@@@@@@@@@@@@@@@@@@@@@@@@@@@@@@@@@@@@@@@@@@@@@@@@@@@@@@@@@#####@++++++@@@@@@+@@++++@@@@@@@+++@@@@+@@@++@@@@@@@@@@@@@@@@#$$$##@@@+++++#$%$@++@@@@@@@@@@@@@@@@@@@++++@@++@@@@@@@@@+++@@+@@@++@@@@@+@@@@@@@@@@@@++++++++++++++++++++@@@@++@@@@@@#@@@",
"@@@@@@@@@@@@@@@@#@%%##@+@@@@#####@@@@#$######@@@@@#####$$$$#################$%%%$$$####@@@@@@###################@@@@@@@@@@@@@@@@@@@@@@@@@@@@@@@@@@@@@@@@##@@@@###$#########################################@+++@@@@@@@@@@@@@@@@@@###$$$$###@@@@@@###@@@+@++++@@####$%##@@@@+O+@@@+@@@@@@@@@@+@@@@@@@@@@@@@@@@@@@@@@@@@@@@@@@@@@@@@++@@@@+++@@@++@@@@@@@@@@@@@@@@@@@@@@++@@@@@@@@@@@@@@@@@@#%%%#@+++@@@@@@@@@@@@@@@@@+@@@@@@@@@@@@@@@@@@@@@@@@@@@+@@@@@####@++++OOO+++@@@@@@@@@@@@@@@@#@@@@@@@@@@@@@@@@@@@@@@@@@@@@@@@@@@@@@@@@@@@@@@@@@@@@@@@@@@@@@@@@@@@@@@@@@@@@@@@@@@@@@@@@####@+++++++@@@@++@++++@@@@@@@@@@@+++@@@+++@@@@@@@@@@@@@@@@@@#$$#@@@@++++++@@@+++@@@@@@@@@@@@@@@@@@@+@+++@@@@@@@@@@+++++++++@@@@@@@@@@@@@+@@@@@@@@++++++++++++++++++++++++++@@+@@@@@@@",
"@@@@@@@@@@@@@@@@$@$%$$$#@@@@#########$###$$$####@####$$$$$$##$##########$###$%%%$$##@@@@@@@@@#####@@@@##########@@@@@@@@@@@@@@@@@@@@@@@@@@@@@@@@@@@@@@@@##@@@@###$#########################################@+++@@@@@@@@@@@@@@@@@@@@@@@@@@@@@@@@@@@+@+@@@#+@#++++@@#$$$#@@@@OOO+++++@@@@@@@@@@@##@@@@@@@@@@@@@@@@@@@@@@@@++@@@@@@@@++@@@@++@@@@@+@@@@@@@@@++@@@@@@@@@@@@+@@@@+@@@@@@@@@@@@##%%%$@+++@@@@@@@@@@@++@@@@+@@@@@@@@@@@@@@@@@@@@@@@@@@@+@@@@@####@@+++++++++@@@@@@@@@@@@@@@@@@@@@@@@@@@@@@@@@@@@@@@@@@@@@@@@@@@@@@@@@@@@@@@@@@@@@@@@@@@@@@@@@@@@@@@@@@@@@@@@@@@@@@@@@####@@++++++@@@@++++++++@@@@@@@@@@++++@@+++@@@@@@@@@@@@@@@@@@#$%#@@@+++++++@@@@@@@@@@@@@@@@@@@@@@@@@++++@@@@@@@@@@@@++++++++@@@@@@@@@@@@++@+@@@@@@++++++++++++++++++++++++@@@@@++++@@@",
"@@@@@@@@@@@@@@@@$@+#$##@@@@@##########@@@#$$##$$$##########$$$$$$$$$$######$$$$$$$##@@@@@@@@@#@##@@@@@@@@@@@@@@@@###################@#########@@@@@@@@@@####@###@$##@######################################@@@@@@@@@@@@@@@@@@@@@@@@@@@@@@@@@@@@@##@@#$#@#@##+@@@@@##$$#@@+++OOO+@@@@@@@@@+@@@@#@@@@@@@@@@@@@@@@@@@++@@@@++@@@@++@@++@@@@++@@@@+++@@@@@+@@@@@@@@@++@@@@++@@@@+@@@@@@@++++@@#$%%#@+++@+@@@@@@@++++@@@@++@@@@@@@@@@@@@@@@@@@@@@@@@@@@@@@@#$##@@@++++++++@@@@@@@@@@@@@@+++++++@@@@@@@@@@@@@@@@@@@@@@@@@@@@@@@@@@@@@@@@@@@@@@@@@@@@@@@@@@@@@@@@@@@@@@@@@@@@@@@@@@@@####@@@@+++++@@@++@@+@++@@@@++++@@@+@@@@++@@@@@@@+@@@@@@@@@###%%$+@@@++++@@@@@@#@@+@@@@@@@@@@@@@@@@@++++@@@@++++++@@@@@@@+@@@@+@++@+@@@@++++++@@@+++++++++++++++++++++++++@@@@@+++@@@#",
"@@@@#@@@@@@@@@@@%#+##@@O@@@########@@@#######$$#$######$$#$$%$$$$$$$$$$##$$$$$$$$$#####@@@@@@#@#@@###@@@@@@@@@@@####@###############@###########################@$@########################################@@@@@@@@@@@@@@@@@@@@@#@@@@@@@@@@@@@++@@@@++@@#@@@@@@+@@@####@+++@#++@@@@@@@@@@@@@@###@@@@@@@@@@@@@@@@@@++@@@@+++@@@++@@+++@@@@@@@@@+++@@@@++++++++@@@@@@@@@+++@@@+@@@++@@@++++@#$%$#@+++@+@+@+@@@++@@@@@@++@@@@@@@@@@@@@@@@@@@@@@@@++@@@@@@#$$##@@@+@+++++@@@@@@@@@@@@@@@++++++@@@@@@@@@@@@@@@@@@@@@@@@@@@@@@@@@@@@@@@@@@@@@@@@@@@@@@@@@@@@@@@@@@@@@@@@@@@@@@@@@@@##$##@@@@@@@@@@@@+++@@@+++@@@++++@@@@@@@@+@@@@@@@@+@@@@@@@@@###$&$+@@@++++++@@@@@@@@@@@@@@@@@@@@@@@@@@@@@@@@@@@@@@@@@@@@@@@@@@@++++@@@++++++++@+@@+@+++++++++++++++++@@@@++++++++@@@@@#",
"@@@@@@@@@@@@@@@@&=%@####+O+#$################$########$$$$$$$$$$$$$$$$$#$$$$$$$%%$$#####@@@@@########@@@#@##$#@#####@@##############@@############@@##########@@#########################@######@@#########@++@@@@@@@@@@@@#######@@###@@@@@@++++@#@@###@#@@@@@@@@@@@###@@+++@@+@@@@@@@@@@@@@@@@@@@@@@@@@@@@@@@@@@++@@@++++++++++@@@@++@@@@+++@@@@@@@++@@@@@@+++@@@@@++++++@@@+++++++@@+@+@#$%%$@+++@@@@@@@@@@@@@@@@@@@@@@@@@@@@@@@@@@@@@@@@@@@@@@@@@@@#$$#@@@@+@@+++@@@@@@@@@@@@@@@@@@@++@@@@@@@@@@@@@@##########@@@@@@@@@@@@@@@@@@@@@@@@@@@@@@@@@@@@@@@@@@@@@@@@@@###@@@@@@####$##@+++@@@@@@++++@@@@@@@@@@@@+@@@@@@@@@@@@@@@@@@@@@@@@@@@###$#$$@@@+++@++@#@+@@+@@@@@@@@@@@@@@@@@@@@@@@@@@@@@@@@@@@@@@@@@++++++++++++++++++++++@@+++@@++++++++++++@@@@++++++++@@@@@@",
"@@@#@@@@@@@@@@@@#%&$@#%#+@####@@##############################$$$$$$$$#$$$$#$$%%%$$###@@@@@@@########@@@@@#$$$######@@@#####@#######@@@#####@######@###########@####@@@@@###@@##########@@######@@#@#######@+++@@@@@@@@@@@######@@@@@@@@@@@@@@@@@@@@@@@@@@@@@@@@@@@#$$$#@++++++@+++@@@@@@@@+++++@@@@@@@@@+++++++++++@@@@++@@@@++@@+@++@@@@++++@@@@@@++@@@@+@++@@@@@@@@++@@@@++++++@@@@+@+@$%%%%#+OO+@@@@@@@@@@@@@@@@@+@@@@@@@@@@@@@@@@@@@@@@@@@@@@@@@@#$$@@@@@+++++++@@@@@@@@@@@@+@@@@@@@@@@@++++@@@@@@@@@@@@@@@@@@@@@@@@@@@@@@@@@@@@@@@@@@@@@@@@@@@@@@@@@@@@@@@@@@@@@@@@@@@@@####@++O+++@@@++++@@@@@@@@@@@@@@@+@@++++@@@@@@@@@@#@@@@@######$$$#@+++++@@@@@###@++@@@@@@@@@++@@@@@@@@@@@@@@@@@@@@@@@@@@@@@@++@+++++++++++++++++++++@@+++++++++++++++++++++++++++@+@@@",
"@@@@@@@#@@@@@@@@@#%%$$$@@######@@##################################$###$$$###$$%%%$##@@@@@@@###@###@@@@@@###########@@####@@@@######@@####@@@@###@@@@##########@@@@@@@@@@@@@@@@#@@#####@@@@#@@#@@@#########@@@@@@@@@@@@@@@@@@@@@@@@@@@@###@@#@@@@@@@@@@@@@@@@@@@@@@#$$$#@++++++++++@@@@@@@@@@+++@@@#####@@@@@@@@++@@@@@@@@@@@@@@@+++++@@@@@+@@@@@@@@++@@++++++@@++@@@@@@@@@@@@+@++@@@@@@+@#$%$$@+OOO+@@@@@@@@@@@+++++@@#@@@@@@@@@@@@@@@@@@@++@@@@@@@@@#$$@@@@@+++++++++@+++@@@@@@@@@@@@@@@@@@@@@@@@@@@@@@@@@@@@@@@@@@@@@@@@@@@@@@@@@@@@@@@######@@@@@@@@@@@@##@@@@@@@@@@@@@@@@####@+OOOO+++++++@@@@+++@@@@@@@+++++@@@@@@@#########@########$$$###@++++++@@@##@@@@@@@@@@@@@@@@@@@@@@@@@@@@@@@@@@@@@@@@@@@@@@@@+++++++++++++++++++++@@+++@++++++++++++++++++++@@@@@@@@",
"@@@@@@@@@@@#@@@@#$#%&#+@@@@#############$$$$$$##########$$$$$$$$$#####$$$$$###$$%%$####$#@@@@@#@@##@+@@@#$#@@@#####@@@####@@@@#####@@@####@@@@###@@@@#########@@#@@@##$$#@@####@@@@####@@@@#@@@@###########@@@+@@@@@@@@@@@@@@@@@@@@@@@####@@@@@@++@@@@@@@@@@@@@@@@@#$%$#@@@@@@@@@@@@@@@@@@@@@@@@@@#######@@@@@@@@@@@@@@@@@@@@@@@@+++++@@@@@@@@@@@@@+++@@@++++@@@++@@@@@@@@@@@@@@@@@@@@@++@##$$#@+OOO+@#@@++@@@@@+++@@@@@@@@@@@@@@@@@@@@@@@@@+@@@@@@@@@#$$#@@@@+++++++++@@@+++@@@@@@@@@++@@@@@@@@@@@@@@@@@@@@@@@@@@@@@@@@@@@@@@@@@@@@@@@@@@@@@@@@@@@@@@@@@@@@@@@@@@@@@@@@@@@@@@@###@@++++++++++@@++++++++++++++++@@@@@@######$$$$$$$$######$$$$###@++++OO++@@@+@##@@@@@@@@@@@@@@@@@@@@@@@@@@@@@@@@@@@@@@+@@@+++++++++++++++++++++++@+++++++++++++++++++++++++@@@@@@@@",
"@@@#@@@@@@@@@@@##$#$$#++@++@######################################$$$$$$$$$##$$%&%$#$#$$#@@@@##@@@@@@##@###@@@@@@@@@#####@@@@@##@@@@#####@@@@@######@@@@@@@@######@@@@########@@@@####@@####@##############@@@@@@@#@@@@@@@@@@@@@###@@@@###@@@@+@@@@@@@@@@@@@@@@@####$%$#@@##@@+@@@@@@@++++@@@@@@@@####@@@@@@@@@@@@@@@@@@@@@@@@@@@@++++@@++@@@+++++++@+++@@++++@@++@@@@@@@@@@@@@@@@@@+@@@+@#$$$#@@+OO+@##@@+@@#@@@@@##@+++@@@@@@@@@@@@@@@@@@@@@@@@##@@@#$$###@@++++++++@@@@@@@@@@@@@@@@@@@@@@@@@@@@@@@@@@@@@@@@@@@@@@@@@@@@@@@@@@@@@@@@@@@@@@@@@@++@@@+++@@@++++@@@@@@@@@@@@@@@@####@@@+++++++@@@++++++++++++++@@+@@@@@@@@@#####$$$#####$###$$%$##@@+@@++++@@@@@@@@@@@@@@@@@@@@@@@@@@@@@@++@@@@@@@@@@@@++@@++++@@@@@@@@+++++++++++++++++++++++++++++++++++++++++++@@@",
"@@@@@@@@#@@@@@@@@#%$@@#@@@@@###########################$$$$$$$$$$$$$$$$$$$$$$$%%%%###@@@@@##@#$#@@#####@@@@@@@@@@@@@######@@@###@@#@######@@@#####@#@#@@@@@@#######@@@@######@@@@###########################@@@@@@@@@@@@@@@@@@@@@@@@@@@@##@@@@@@@@@@@@@@@@@@@@@@@@##$%$#@@@@@+++@@@@@+++++++@@@@@@@@@@@@@@@@@@@@@@@@@+++++++@@@@@@+@++@@+@@@@++++@++@+++@@@@++@@++@@+@@@@@@@@@@@@@@@@@@@+@#$%%$#@+OO+@##@@@@@@@@@#@@@@@+@@@@@@@@@@###@@@@####@@@@##@@@#$$$$##@@+++++++@@@@@@@@@@@@@@@@@@@@@@@@@@@@@@@@@@@@@@@@@@@@@@@@@@@@@@@@@@@@@@@@@@@@@@@@@@@@@@@@@@@@@@@@@@@@@@@@@@@@+@@@#####@@@+++++++@@@@++@++@@@@@@@+@@++++++++++@@@@@########$####$$$#@@@+OO++++O++@+O++++++++++++++++@@@@@@@@++@@+@@++@@@@@++@+++@@@@@@@@@@@@@+++++++++O++@++++++++++++++++++++++++++@@##",
"@@@@@@#@@@@@@@@@@#%$##$####@#@@###################@@##########$$$$$$$$$$$$$$$$%%%$#$$#@@+@$#@#####@@@@##@++@@@@@@@@@@@@@@@@@@@@@@@@@@@@@@@@@@@@@@#@@######@@########$%%%$###$###########################$###@@@@@@@@@######@@@@@##@@@@@@@@#########@@@@@@@@@@@@@@@#$$%$#@+@@++++@@@@@@@@@@@@@@@@@@@@@@@+++++++++++++++++++++++++@@@@+@@@++@@@@++@@@@@@++@@@@+@@@@@@@+++@@@@@+++@@@@@@@@@+@##$$##@++++@@@@#@@++++#$#++@@@@@@@@@@@@@#################@@@#$%%$$#@@@+++++++@+@@@@@@@@@@@@@@@@@@@@@@@@@@@@@@@@@@@@@@@@@@@@@@@@@@@@@@@@@@@@@@@@@@@@@@@@@@@@@@@@@@@@@@@+@@@@@@@+++@@@#####@@+++++++@@@@@+@@@@@@@@++@+@@@@++++++++@@@@###$$$$$##$$$$$%%$###@OoO+++++@#@++@@@@+@@++@@@@@@@@++++@@@@@@++++@@+@@++++++++@@@@@@@@@@@@@@++++++++++++++++++++++++++++++++@@@@@@@##",
"@@@@@@@@@@@@@@@##$$%%$@@@###@@###########$$$####################$$$$$##$$$$#$$%%%$#$%%#@@@#@@@##$###@@@##@@@@@#############@###############@####@##@#############@##$%%$$##############################$$$###@@@@@@@#######@@@@@##@@#@@++@##########@@@@@@@@@@#####$$%$#@+@@++++@@@@@@@@@@@@@@@@@@@##@@@@@@+++++@@@@@+++++++@@@@@@@@@@@@++@@@@@@@@@@@@@@@@@@+@@@@@@@++++@@@++++++++@@@@@@@####@@+++@@#@@@@@@@@@@$*$+++@++@@@@@@@@@@@@@@@@@@++@@@@#@@@@#$%%%$#@+@+++++++++@@@@@@++++@@@@@@@@@@@@@@@@@@@@@@@@@@@@@@@@@@@@@@@@@@@@@@@@@@@@@@@@@@@@@@@@@@@@@@@@@@@@@@@@@@@@@@@@@@######@@++++++@@@@@@+@@@@@@@@@+++@@@@@@@@@@@@@###$$%%$#$$$#$$#$$%%%$@@@++OOO+@@@@@@@@@@@@@@@@@@@@@@@@++++@@@@@@++++++@@@@++++++@@@@@@@@@@@@@@@+++++++++O++++++++++++++++++++@@@######@@",
"@@@@@@@@@@@#@@@@#$#$%#++++##@@###################$$$$$$$$$$$$$$$$$$$#########$%%%$$#$$#@+@@##########@@######@@####@@######@@@#####@@@@####@@@##@###@@@######@#######@@##$$#@@@#######################$$$$####@@@@@@#####@@@@@@@@@@##@@++@@##########@@@@@##########$$$#@@@@@@@@@@@@@@@@@@@@@@@@@@@###@@@@@@@@@@@@@@@@@@@@@@@@@@@@@@++@@+@@@++++@+++++@@++@@@@++@@@@@@@@++@@@@@@@@+++@@@+@##$##@@@@@@#@++@@@@@@@$%$@@@@+@#@@@@@@@@@@@####@@@@@@#@#@@@@@#&$##@++@@+++++@@@@@@@@@@@@@@@@@@@@@@@@@@@@@@@@@@@@@@@@@@@@@@@@@@@@@@@@@@@@@@#########@@@@@@@@@@@@@@++++@@@@@@@@@@@@@@@######@@@@@@@@@@@@@@@@@@@@@@@@@@@@@@@@@@@@@###$$$$%%$#$$####$$%%$%%$@@@@+++++@@+@@@@@@@@@@@@@@@@@@@@@@@@@@@@++@@@@@+++@@@@@+++++++@@@@@@+++++++++++++++++++++++++++++++++++@@@@@@####@",
"@@@@@@#@@@@@@@@@@####@+OO+#$#@@############################$$$$$$############$$%%%$#@##@@@@#$###$$$#################@@@@####@@######@@@@####@@######@@@@####@@#@#####@##$$$###########################$$$$####@@@@@@######@@@@++@@@##@@+++@@######@#@@@@@############$$##@##@@@@@@@@@@####@@@@@@@@@@@@@++++++++++++++@@@@@@+@@@@@@@@++@@@@@@++++@@++@+@@+++@@@++@@@@@@@@++@@@@+@@@@@@@@++@#$%%%$##@+@@@@@@@@##@++O@####@$%%#@@@@@@@@@@@@@@@@@@@@@#@@++@#$$$%%#++++++++@@@@@@@@@@@@@@@@++@@@@@@###@@@@@@@@@@@@@@@@@@@@@##@@@@@@@@@@@@@@@@@@@@@@@@@@@@@@@@@@@@++@@@@@@@@@@@@@@@####$###@@@@@@@@@@@@@@@@@@@@@@@@@@@@@@@@@@@@@###$$$$%$$#@@@@@@#$$#$$$#@@++++++@@++@@@@@@@@@@@@@@@@@@@@@@@@+@+++@@@@@@@@@@@@@@@+++++++++++++++++++++++++++++++++++++++++++++++++++@@@@@@",
"@@@@@@@@@@@@@@@@#$%#@#@O+@@#$#@#########$$$$$$#########################$$$$##$$%%%$$##$##@@@####$$%$$######@@#########@#####@@@#############@@@#############@@@@@@@##$$$$#############################$$$$####@@@@@@######@@@++++@####@@@@@@@@@@@@@@@@@@@@@@@##@@#####$##@@@@++@@@@@@@@@@@@@@@@@@@@@@@+++++@@@@@++++@@@@@@@@+++++@@@++@@@@@@@@@@@@@@@@@@++@@@@++@@++++@@++@@+++@@@@@@@@@+@#$%%%%$#@@@##@@##$$$#@@+@#@+@#$$#@##@@@@#@@@@@@@###@@@@#@@@@###@$%%#@@++++++@@@@@@@@@@@@@@@@@@@@@@@@@@@@@@@@@@@@@@@@#@@@@@@######@@@@@@@@@@@@@@@######@@@@@@@@@@@@@@@@@@@@@@@@@@@@@###$$###@@@@@@@@@@@@@@@@@@@++@@@+@@@@@@@+@@@@@####$$%%$####@@@@$%%$$$$#@@++@++@#@@@++++++++++++++++@@++++++@@++@@@@@@@@@@@@@@@@@+++++++++++++++++@@@@@+++++++++++++@@@@+@@+++++++++++++",
"@#@@@@@@@@@@@@@@#%&%$#@++@@@#$############$$$$$$$$$$$#############$$$$$$$$$$#$$%%&%$###$#@@@@@###$&&%$#@@##@@@############################################@@@@@@@@##$##$$$####$$#######################$$$####@@@@@#######@@@@@@@#$$$####@@@@@@@@@@@@@@@@@@@@@@@@#####$$#@@@+++@@@@@@@++++@@@@@@@@@@@@@@@@@@@@@@@+@@@@@##@@@@@++@@@+++@@@@@@@@@@@@@@@@@@@@@@@@++@@++++@@++@@+++++++++@@@@#$$%$$###@@##@@@@@##$#@@##%%$#$#@+@@##@@@#@#@######$#$$#####$$%&&&%$#@@@++++@@@@@###@@@@@@@@@@@###@@@@@@@@@@@@@@@######@@@@#######@@@@@@@@@@@##########@@@@@@@@@++@@@@@@@@@@@@@++@@@@@@####@@@+@@@@#@@@@@@@@@@@@@@@@@@@@@@@@@@@@@@@@######$$##@@@@@#$%%$$#@@+OO+@@@@@++++++++++++++++++++++++++@@+++@@@@@@@@@@@@@@@@@@@++++++++++++@@@+++++++++++++++++@@@@@@@@+++++++++@@@",
"@@@@@@@@@@@@@@@@#%%&%@+@++++@#$@#######################$$$$$$$$$$$$$$$$$$$$$$$$%%%%##+@@@@@#@@#$@$&&&%$@@###@##@##########################################@@@@@@#####@@##$$$##$$########################$#####@@@#####@@@#########$$$$$$$#####@@@@@@@@@@@@@@@@@@@#$$$$%$$#@@+++@###@@@@@@@@@@########@@@@+++++++@@@@@@###@@@@@@@++++@@@@@@@@@@@@++@@@@@@@@@@@@@+@++++++@@@@+@@@@@++++@@@@@$$$$$###@#$$#@@@@@@##@@#@#%%@++@##@@@@@@@@@@@@@@@######@@@@##%$$$#####@@@@@@@@########@@@@@@@@@@@######################@@@######@@@@@@@@@@@@@@@@@@@@@@##############################$#####@@@+@@@######@@@@@@@@@@@@@#######@@###@@########$$#@+@##@#$$$##@+++OO@@@+++++++++++++++++@@@@@@@@@@@@@@@@@@@@@@@@@@@@@@@@@@@@@@@@@@@@@@+++++++++++++++@@@@@@@@@@@@@@+++++++++++@",
"#@@@@@@@@@@#@@@@##$%%+O@@+++@###############$$$$$$$$$$$$$$$$$$$$$$$$$$$$$$$$$$%%%$$#@@@@@@@@@@#%##$$%%%$$#####@@######################################@###@@@@@@@@@@@#####$$$$###############################@@@@######@###$$$$$$######$$#################@#@@@@#$$$$$%%$##@++++@@@@@@@@@@@@@@@@@@@@@@@@@@@@@@@@@@@@@@@@@@@@@@@@@@@@@+@@@@@@@@+@++@@@@@+@@@@@@@+@@++++@@@@@+@@@@@@@@@@@+++#$$%%$$###$%$$%%%%$$$$##$#@#$#@@#$%%&*&&%%%%%%%$$$$%%%%$$$$$%$$%%$$$$#@@@++@@@@################$$$$$$$$$$$$###$$$$$$$##########################@@@@@@@@@###@@#######################$######@@+++@@@@@@@@@@@@@@@@@@##############@@####%$$$$$##@@@####$$###@@@+O+@@@@#@@@@@@@@@@@@@@@@@@@@@@@@@@@@@@@@@@@@@@@@@@@@@@@@@@@@@@@++++++++++++++OOoo@@@@@@@@@@@@@@@+++++++++OOOO",
"@@@@@@#@@@@@@@@@@#$%$@+++++@#########$$$$$$$$$$$$$$$$$$$$$$$$$$$$$$$$$#$$$###$%%$$$$#$$#@@@####$$#@@#$%&%###$#########################################@@##@@@@@@@@@@#$$$###$$$$$#############################@@+@@@@##$$$%%%%%%$$##@@######@@@@@@@###############$$###$%$$#@++OOOO++++++++++++OOO+++++++++++@@@@@@@@@@+++++@@@@@@@@@++++@@@@++++++@@@@++++@@@@@@@@++++@@@@++@@@@@@@@@@@+++##$$$$##@+@@##$$$$$$$$O+$%$$%%%$%**%#@@@@@@@@####$$$$$%%%%%$$$+####$#@+++++++++++++++++@@@@############################@###################@@@@@++++++########$$$$$$$$OOO+++OOOOOO+++@#####@+OOOOOOOOOO+++++++++++O++++++++O++++OO++++++++OOOOOooO++@@@@@#@+++OOO+++@@@@@@@@@@@@@@@@@@@@@@@@@@@@@@@@@@@@@@@@@@@@@@@@@@@@@+++++++++++++++OOooXX++++++++++++++++++++++++++++",
"@@@@@@@@@@@@@@@@@#$%$$@OO+++#$$$########$$$$$$$$########$$$$$$$$$$$$#########$%%$$%$$%$#@@#$%#@$$@++@#$%%$#$$$########################################@@##@@@@@@@@@@@@@@@@###################################@+++++@#$%&&&&&%%$$$$#@@@@@@@@+OO++@@@@@##########@###@@@#$$$#@+OOoooooooooooooooooooooooXXXXXooooO++++OOOOOOOO++++++++++++++++@+++++@@@@+++@@@@@@@@@@++@@@@@+++@@@@@++@@@@@@$$$####@OoXoXXXXXXoOOOoX.XOOoOOO+@+OoooooooXXXXoooooooOO+++O@@#$$###@++OOOooooooooooooooooooooooooOOOOOOOOOOOOO+++++++++@@@@@@@@######OOOOOOooooXXXXXXoooooOOOooOOOOOOOOOOOOOOOOOOO+++####@+OoXXXXooooooooooooooooXXXXXXXXXXXXXXXXXXXX...XX..XXXXoooO+@@@@++OOOoooXooO++++++++++++++++@@@@@@@@@@@@@@@@@@@@@@@@@@@@@@@@@@@+++++++++OOOOOOOoooooOOOOOOOOO+++++++++@@@@++++++",
"@@#@@@@+OooO+@#$#@@@@@@+OoO++OOOOOOOOOOOooooooooOOOOOOooooOoooO++OooO+OO+++++@@#$$%%$$##@OXXoO+++++@@##$*&&&%%$$$$$###@@########$$$%%%%%%$############@@@@+++++++++++++++OOOOO++++@@#$$$$########@@@@@@@@###@@##OOOOOOOOOOOOOOOOOOOOOOOOOOOOOOOooooooooooooooooooOO+@@###@@@++++++++OOOOOOOOOOOOooooooXooOooXXooooooooooooooooooOOOOOOOOOOOOOOOOOooooooooooooXXXXX..XoOOOOoooOOOOOOOOOOO+++@@@###@@+OOOOOooooooooooooooXXXXooOOOoooOOOOOOOOOooXXoOO+O++@$%&&&&%$$#@@@++++++++++++++++OXoXooooooo+oXOOoO@OOOOOOOOOOOOOOooOoooooOOooooooooooOOoooo.  . .......Xoo++++@@#############@@@@@@+@+++++++++OOOO+++OooO++OOOOOOOOOOooooooooooOO++O++++@@####@@@@+++OOOOOOO+OOOOoXooooooooOO++O++@@@@@@@@@@@@@@@@@+@+++++++++++@@@+OOO++OOO++++OOoooooooooO+++@+++++++++++++++",
"###@+++OooXXXXoooOOOoO++O..XXXXXXXXXXXXXXXXXXXXXXXooooOOOoXXooooOO+++@@@++#$#@@#$$$$$#@@@+OOoXXXoooooooo@@@++OOOoOOOO+++OOOOOOO+++@@@@##@@@@@@@#######@@@@@@@@@@@@@+++++++++OOooooooOO++@@@++OOOOO++@##$###@@+++OOOoooooXXXXooooooooooooooooooooXXXOOOOOOOOOOOOOO++@#######@@+++@@@@@@@@@@+++++++OOooOOOOOOOOO++OOOOOOOOO++++++++++++++++++++++++++OOOOOOOOOOoooXX...XXoooooO++++++++++++++@@@###@@++OOOOOOOOOOOOOOOOOOoooOOO+++++++++++@@@@@++++@@@@@#$%&***&%%$$$##################@+OoooOOOOO@OooOO+$@@@@@@@@@@@@@+++@@@@@@@@++++++++++++++++++OOOooOOoooOO+@@@##$$%%%%%%%%%%%%%%%%%%##########@@+++@@@@@@@@@@@@@@@@@@@@++++@++@@@##$#####$$$$$$#####@@@@##@@@@@++++OOO++OOO+++@@@@@##########$$$####@@@@@@@@@##@####@+++@@@+++++++OOoooooooo@##$$$##############",
"OOoooooOOOoooXXXXoo+OO+@@O..XooXXXoooXXXXooOOOoXXoooOO++OOOOOOOo@@+++@@@++@##@+@@@##@@+++++OOooooooooooooooooooooooooOoOOOOOO+++++@@@@######$$$$$$$$$$$$$$$$$$$$$$$####@@+OOO+++++@@@@##$$$$$$$$$%%&&&&&&%%%$##@@@@+++++OOOOOOOOOOOOOOOOOOOOOOO++++++++++++++++++@@############@@@@@@@@@@@@######++O+OOOOOOO+++++++++++++@@@@@@@@@@@@@@@@@@@@@@###@@@@@@@@@@@+++OooooOOOO++@@################$$$$####@@@@@@@@@+@@+++++++++@@#########$$$$$%%$$###$%%%%%&***&&%%%%%%$$$$$$$$$$$$$$$$$$$$##@+++OO++++++@#########$%%%%%$$$$$$$$$$$$##################@@++++O+@#$%%$$%%&&**********&&&&&&&&%%%%%%%%%%$$$###$$$$$$$$$$$$$$$$$$$#######$%$#$%%%%%%%%%$%&%%%%%%$$#$$$$###########@++@@##$$###$$$$$$$$$$%&&&&%%%%%%$$$$$%%%%%%%$$#$$$##@@@#@@++++++++++#$$%%%%%%$%%%%%%%%%%",
"X...XXXoO++OOOooOO+#$#++++OOOOooO+++OOOOOOOO+OOO++++@@++O+@##@++%$@@########$&&$$$$$##@+@@@@++OOOOOOOOOOOOOOOOOooOOO+@@#######@@###$$$$$$%%%%&&&&&&&&&&&%%%%%%%%%%%%$$$$$##@@@####$$$%%%%%%%%%%%%&&&%%&&&%%%%%%%######@@@@@@@@@@@@@@@@@@@@@@@@@@@@@@@####@@######$$%%%$$$%%%&&&&$$$$$$$$$$$%%%%%%$####@+++++@@@@@#############################$$$$$$$########@@@@+OOO++++@@###$$$$$$$$$$#$$$$$%%$$$$$$##$$$$$$$$$$$#####$$$$%%%%$$$%%%%%%&&&%%$$$%&&&&*============****&&&&&&%&&$%&*&&$+#@+Ooooo+@###$$$%%%%%%%%&&&&&&&&&&&&&&&&&&&%%%%%%%%$$$$$$$$$$$###@###%*&&&**====*********=-=&%&&***********&&&&&**&&&&&&&&&&&&&&*&&&&&%%%%%%%$%&&*********===****&%%%%%$$$%&%$%&&&$######$%%%%%%&&&&&&&&&*===******=========****&&%%%%%$$$%%%$$##@@@@@@#$%%&&&&&&&&&&&&&&&&&",
"oooooooO+++++++O++@#%%%#@#%&$@+++@@@@@@+++++@@@@$$#####@##$$$$$%%&%&&&&&&%%&*==*&&&&&%$$$#@@@+++++++++++@@@@@@@@@+++@##$%%$$$$$$%%%&&&&&**************************&&&&%%%&&%%$###$$%%&**************&*&**&&&&%%%%%%%%%%%%%$$$$$$$$$$$$$$$$$$$$$$$$$$$$$####$$$$$$%%&&&&&****&&&&***********&**&*&%%%%%$$####$$##$$%%%%%%%%%%%%%%%%%%%%%%%%%%%%%&&&&&%%%%%%%%%$$$#@@+@@@@##$$%%%&&&&&&&&&&&&******&*****&&&**&&&&&&&&&&&&&&&&&&&&&&&&&********&&&*=====-;::;;---=---------------==*----=$#@+OO+@@$%&%%*==*=-=*&*-=====---********=========**&&%%%$$%%$$###@@+#%=:--;;:::>>>>::;;-;;:>>:;;;;;;;;;;;;;;;;--------========**=====*****&&&&&&**=--==--=-;;---==******&*==*&&&*&%#####$%&******=======--;;;-----------;;;;;;;;;-==*&&%%%%&%%$$$$$##$$%&&*=================",
"++++@++++@@@########$%&%$#$&*%#+################$$$$##$$%$$#$%&&**&&*---**-;;===**===***&$#@##$$$################@@+#$$&&&&&&&&&&&****====-------------------==-----==****&&&%%%%%%&&*=---------====--=====****&&&&&&&&&&&&&%%%%%%%%&&%%&&&%%%%%%%%%%%%%%%%&&&&&&******==---==**================*%$$$$$$####$$%%%%%%&&&&&&&&&*************=====-======*******&&&%$######$%&&*******===========----------===========***===================----===-;;:;::>::::::::::::::;;;;;-;;;;;;::;:;&#####$%%#%****===-;;==-;;;;;:::;;;;;;;;;;;;;;;;;;-==***&&&&&%$#@#@O+@%=>::;-=*&&---;;:::::::::::>>>>>>>>>>>>>>>>>>>>>>>>>>,,,,>>>>>>>::;;::;;;--;;::::;::::::::>>:::::::::::;--=;:;=%#$%%&=----;;;;;;;;;:>,,,>>>>>>>>>>>>>>>>:::::;--===***=**&&&&%%%%&&*==-;;;;;;;;;;;;----",
"##########$$$$$$$$%%%$%%%##$&*&$&&&&&%&&***&%%%%%%&&&&&&&%%%%&**======-;;-;:::-====--====*&&%%%%%%%$$$$$$$$$$$$$#@@@#%%*==========----;;;;:::::;;;;;;;;;;;;;;;;;;;;;;----==**&%%%%%&*=;;:-==--=&%%&=;::;:;;;--==============*******************************=====--;;;;;;;;;;;;----------;;;;;;;;-&#@@@@@@++@#$&***=======--------------------;;;;;;;--------===**%$$$$$$%&*=-----;;;;;;;:::::::::::;;;;;;;;;--;;;-------;;;;;;:::::>>>>>>,,,>>:::>,,,,,<<<<<<<<<<<<<<<<<<<,,>>>>>><,>>;$%%%$$$##%=:>::::>,<,:;;>,,,,,,,,,,,,,,,,:::::::::;;;;;;---==&$@O+@@++OO+*%$@++++o+OO#@+#&$@+#$$###########$$$$%%**==--;;;;;;;;;-;;:::;-==;;-----;;;;;:;;::;;:::>>,,,>>>>,,,,,,>>,<<>=%%%&=;:>>>,>,>,,,,>,<1111<<<<111111<<<<<,,,,,>:;;--==--==****&&&&*=-;;:>>>>>>>>>>>>::::",
"&**&&%%%%%&*&&&&&&&&******%$$%****===**==-======***=--==******==-;:>:--:>>-=-;::;;;:;;;--=**&&%%%%%%&%%%%&**&%$#@###&-;>>>>:::::::>>>>,,,,<<,,,,,,,,,>>>>:::::::>>:::::;;;-=*&%%%%&=;><11,;*%%&*&&*;,11<<<<,>>:::>>>::::::::::::::::>>>:::>::::::>:>>:::>>>>>,,,,>>>>>>,,,<<<,,,,,,,,,,,,,<<<<<<,-%@++@+++++#&=;:::::>>>>>,,,,,,,,,,,,,,;::::>>>,,,,,,>>>>>>:::;-=&%%$$$%=-:>>>,,,,,<<<<<<<<<,,,<<,,>>>,,,,,,,,,,,,>>>>>>>>>>>>::;;:::::::::;;-===----;;::;;-==============--;;:*&&%%=-%%%%%$@+O&=;::;:>;=*:>;===*****&&&--&#$$##$$$$$$$$$$$$%%%%%%%$@+OooO+O++O#######@@@@@@@@@@+++++++++++++++++++++++oooOO+++++++OOOOO+@@@+Oo+@@+++@@@@@+@@@+@@@+@@##########$%%%&***&&**&%#@*-:,,<<<<<<<<<<<<<11<<,,,,>>>>>>>>>>>>,,,<,>>::::::>::;;-=*&&*==>>,<111111111111<<<<",
"*======*&&&****===*******==&$#%&==--==***=****==--==-------==****=-;;--;:::-*=;>::;---=========--=*&&*=--;;--===&&&&*;::::>>>,,,<<<<<<<<<<<<<<111111111111<<<<<<<1<<,,>>>:=%&*&&&&*-;>,<,1<;=-;;;;;---*$%&**=-;:==***********===*************************&%%**&%%&&*&&&%%%%&*=--=***************=&#@@@@+++#%&=;>>>>>>>>>>,,,,,,,,,,,,,,,,,>>>>>>>>>>>>>>::::::::*&$#@@#$&-:>,,,,>>>>>>>>>>>:::::===========*****$%=--=&$########$**#++@+o+$$#@#$@. XOO++++@##@++OOOOOOOOOOOOOOO++++++$&%%$##@@+O+++++@@@OO@%**$+OO++++OO@@@@@@@@@@@@@@@@@@@@@@@@++++@@+OOOO+++++++@@@@@@@@@@@@@@@@@@@@@@@@@@@@@@@@@@@@@@@@+@@@@@@@@@@@@++O+@#$%%$$####@@@@#@@@@@@@@++++@@@++@++@@@##$$$%%$$%$@@+%=:,,,<<<,,,,,,,:;--;;-=*$@$%$@@@##@@+++$;<<<1<<,>,<,,,:;=&&&&*-;><12211222222222222",
"*=-;;;;;-=======--;----==-;-=*&&=----=**==============---==--=*&*=--==----;;;=***=----==========;;-==-;;;;;:>:;-=*%$@++#=$+#=;*#########%%%%%%%%*=-;:>>,,>>>>:::---;;::>::=&**%%$%%%%$@++=,>-=*&--*$+O@##@@@@@###@@@+++++++++++++++++OOOOO++OOOOO+@++@%*$@+@#$#+++++@@@##@@+OOooOOOOOOOOOOOOOOOO@$%%$#@@@@#$=-@@@@@@@@@@@@@@@@#@+@++@O+*;::=$@+@OOOOOOOOoooOO+++&%#@+@@#==$*--%o@@@@@@@@@@@@@@@@OOOOOOOOOOOOoooOOOOOOOO+++++++++###@@+++@++#%*&%%#@$#+O@@@@@@@@@@@@@@@@@+@@@@@@@@@@++$&%$@@+@++++++++@@@+++#%%#+@######@@@@@@@@@@@@@@@@@@@@@@@@@@@@@##@++OO++@@@@@@@@@@@@@@@@@@@@@@@@@@@@@@@@@@@@@@@@@@@@@+@@@@@@@@@@@@@#@@+@#%%%####@@++@@@+@@#@@@@@@+@@@@+@@@############$#++O+@&=;:>>>>>>>>>>&@X .oOO+O+##+O+OOOOOO++o@:<<,,<,:>,,<<>-&#%*&*=-;::>>:;=====-------",
"==---;;;:::::;--:::>>,:-----===&;;::;;--;::>>:::::::>>>>>>>,,,,:::>>:;:>>>>>,,>>>>>,,,,,;;;:::>>>>>>>>>>>>>,,>;==*%$@#@OO+@+OoO@@@@@@@@@++++++++OOO++@@@@@++++++++++++++$%$#&&$$$$$$$$$$#@$:>*&-;-&$$############################################################@@@######@@@@++++++@+@@@@@@@@@@%%%$@+@#$$$$#@+++++++++++@@@+@@@@@@@@@@@@@@@+@@@@@@@@@@@@@@@@@@@$##@++++&&O#@@@++++++++++++@@@@@@@@@@@@@@@@@@@@@+@@@@@@@@@@@@@@@@@@@@@@@@++@%&&%&%%$#@+++@@@@@@@++++++++++++++++@@+++$%%$@+++++++++++@@@@++@###@@#######@@@@@@@@@@@@@@@@@@@@@@@@@@@###@@+OO++@@@@@@@@@@@@@@@@@@@@@@@@@@@@@@@@@@@@@@@@@@@@@+@@@@@@@@@@@@@@@@@@@@@######@@@@@@@@@##@@@#@@+@@@@@++@###########$#@@+Oo  O@@@#+O@#@#&++OOOOOoO+@##@+O+++++@@@o.@&*-;---*&=;;-=&$&&&*%%%%$$$#@@++++++++++O",
"=*****&*=====-====***==*&&&%%%%%%&&**&&%%&&&&&%%****===***==--;:&&%&&%%&&*&%%&=-=*%$$$%%%*--=&&*---==****&%%&*--&&&&#@@@#@###########@##########@@#######@@@@@@@########$&%$&*$$########@#@#=;=-*$$##############################@@@@@@@@@@@@@@@@@@@@@@@@$$@@$$@@#######@@++++++++++@@@@@@@@@@@#=&$#@++@###@@@@@@+@@@@@@@@@@@@@@@@@@@@@@@@@@@@@@@@@@@@@@@@@@@@@###@@++OO+@#@++@+@@@@@@@@@@@@@@@@@@@@@@@@@@@@@@@@@@@@@@@@@@@@@@@@@@@@@@@@@@@@@@@@%%#@+@@#@@@@@@@@@@@@@@@@@@@@@@@@@@@@+$%$#@++++OO+++++@@@@@@@@@@@@@@@@@@@@@@@@@@@@@@@@@@@@@@@@@@@@@@###@@++OOO++@@@@@@@@@@@@@@@@@@@@@@@@@@@@@@@@@@@@@@@@@@@+@@@@@@@@@@@@@@@@@@@@@@######@@@@##@@@##@@@@@@@@##@@@##########@#%#@@@+++OX ..........OOOO+++@#@+OO+@@@@@@+++O+oXXo+@o@$@O@#$%%%&&#@$$$#@++@+++@@@@@@@@@##",
"==*==*&%%$$$%&&&@@@@@#$$$$%%$@+O++@####@@@@@@@+++@+++++++++++@#$@@###@@++@##@@@@@@@@@@@@@@&&@+#+++++++++@@##$%%%%%%%#@@@############@@@####@########@###################$&%%*&#@#######$$$$$$$$$$$########################@#@@@@@########################++##++##@@@@@@@@@+@@@@@@@@@@@@@@@@@@@@@&%$#$#@+O+++++++++++++++@@@@@@@@@@@++@@@@@@@@@@@@@@@@@@@@@@@@@#####@++OOO++++++++@@@@@@@@@@@@@++@@@@@@@@@@@@@@@@@@@@@@@@@@@@@@@@@@@@@@@@@@@@@@@@@@@@@@@@@@@@@@@@@@@@@@@@@@@@@@@@@@@@@$%$#@@@++OO++++++@@@@@@+++@@@####@@@@@@@@@@@@@@@@@@@@@@@@@@@@@@##@+++OOoO+@@@@@@@@@@@@@@@@@@@@@@@@@@@@@@@@@@@@@@@@@@@+@@@@@@@@@@@@@@@@@@@@@@@#@@#@@@#@###@@###@@@@@@@@@@@@@@@@@@@@@@@#$#@@+@+++ooooooooooOOO++++++++++++@@@@@@@@@##@OooooO@$*&#@@##$#%*&##%$#@+@@@@@@@@@@@@@@@@",
"****&&&%%%$$$%%%$$$##$$$$$$%%$#@@@@@#######$$#@@+@@@@@@@@@++++@@@####@@@@@#$$##@@@@@@@@##$$$$#####@@@@@@##$$%&%$$###################@@#####@########@###################$&%$&%############$$$$$$################################@##@@@@@@@@@@@@@@@@@@@@@@@@@@@@@@@@@@@@@@@@@@@@@@@@@@@@@@@@@@@@@%%$####@++OO+O+++++++++++@@@@@@@@@@@@@@@@@@@@@@@@@@++++++++++++@###@+++O+++++++++++++++++++@@@@+@@@@@@@@@@@@@@@@@+O+#$#@@@@@@@@@@+++++++++++++++++++++++++++++++++++++++++++++++@@#@@$$###@@++OO++++++@@@@@@@@@@@@@##@@@@@@@@@@@@@@@@@@@@@@@@@@@@@@@##@++++OOO+@@@@@@@@@@@@@@@@@@@@@@@@@@@@@@@@@@@@@@@@@@@+@@@@@@@@@@@@@@@@@@@@++@@@@@########@@@@##@@@@@@@++@@+@@@@@@@@@@#$#@@@@@+++OOOOOOOOOOO+++@@@@@@@@@@@@@@@@@@@@@@+Oo++O@#$$@OO@@#@+#&%$&$@++@@@@@@@@@@@@@@@@",
"###@@@##$$$$$$$$%%$$$$$$##$&****##@@@###@@####@@@@###########@@+$#@@@#####@@+@####@@@@@############@@@@@#$##$%%%$@@@@####@#####@@@#@@@####@@###@##@@@@####@@@###########$%$@$%###########################################@@##@@@@#@@@@@@@@@@@@@@@@@@@@@@@@@@@@@@@@@@@@@@@@@@@@++@++@@@@@@@@@@@@#%%%$#@@+++++OOOO++++++++@+@+@@@@@@@@@+@@@@@@+@@@@@@@+@@@@@@@@@@@##@@++OO+++++++++++++++++@@@@@@@@@++++++++++++++$@++@;$@@@@@@@@@@@@@@@@@@++++++++++++++++++++++++@@@@@@@@@@@@@@@@@##@#$###@+++++++++@@@@@@@@@@@@++@@@@++@@@@@@@@@@@@@@@@@@@@@@@@@@@###@@++++++++@@@@@@@@@@@@@@@@@@@@@@@@@@@@@@@@@@@@@@@@@@@@@@@@@@@@@@@@@@@@@@@@+++@@+@#########@####@####@@@@@@@@@@@@@@#@#%$@@@@@@++++++++++++++@@@@@@@@@@@@@@@@@@@@@@@@#+OOooO+++OOO@#$#oX@$$*%++@@@@@@@@@@@@@@@@@",
"##@@++@@@@@######@######@@#%&&&%$##@####@@@##$##@@@@###@@@######@@@@###@@@#######@@@@@@@@@@@@@#############$&&%@$##@@###@@@##@@@@@@@@#####@@@################@@@@#######$%$@$$##@@@###$#########$$$$$$$$$###$########@@@@@@########@@@@@@@@@@@@@@@@@@@@@@@@@@@@@@@@@@@@@@@@@@@@@@++@++@@@@@@@@@#&%$##@@@+++++OoO+++@++++@+@@@@@++@@@@+@@@@@@+@@@@@@@++@@@@@@@@@@##@++OOOO++++++++++++++++++@@@@@@@@@@@@@@@@@@@@+@@@@@@@@@@@@@@@@@@@@@@@@@@@@@@@@@@@@@@@@@@@@@@@@@@@@@@@@@@@@@@@@@@##@#$##@@++++++++@@@@@@@++@@#@@@@@@@@@@@@###@@@@@@@@@@++@@@@@@@@##$##@@+++++++@@@@+@@@@@@@@+@@@@@@@@@@@@@@@@@@@@@@@@@@@@@@@@@@@@@@@@@@@@@@@@@@@@@#@@@#@####@##@#@@@@@@@@@@@@@@@@@@@@@@@@#$#@@+++++++++++++++++@@@@@@@@@@@@@@@@@@@@@@@@##++OOOO++OO+@#$#@OX+%&-%++@@+O+++++++++++++",
"##@+#$#@######@@@@@@@@@@@@@@@@@@@#@@###@@@@@@@##@@@@@##@@@@#@#@@#@@@###@@@#########@@@#@@##@##@######@#$###$%&%$$$#@@@@@####@@@@@@@@@@@@@@@@@##############@@@##@#@@####$%$#$#@##@############@@#$$$##$$$#@#$#######@@@@@@@##########@@@@@@@@@@@@@@@@@@@@@@@@@@@@@@@@@@@@@@@@@@@@+@@++@@@@@@@+@#&%$###@@++O+++oO+@@@@@@@@@@@@@@@++@@@@+++@@@@+++++++@@@@@@@@@@@@@#@+O++OO++++@@@@@@@@@@@@@@@@@@@@@@@@@@@@@@@@@@@@@@@@@@++++@@@@@@@@@@@@@@@@@@@@@@@@@@@@@@@@@@@@@@@@@@@@@@@@@@@@@@@@@@#$@#@+++++++++@@@@@@@++@@@@@@@@@@@@##@#@@@@@##@@##@@+@@@@@@@@##$#+@@@+++oO+@@@@@@@@++@@@@@@@@@+++@@@+++@@@@@@@@@@@@@@+@@@@@@@@@@@@@@@@@####&@#%#@@+@####@@@@@@@@@@@+++@@@@@@@@@@@@@@@#%$@@++++++++++++++++++@@@++@@@@@@++++&@@@++@@@@@@@@+++++++@###++O+#$*@@@@@@@@+@++++++++++",
"@@@@##@@####$###@@@@@@@@@@@@@@@@@#@@@#@@@@@@@@@@@@@@@@@@@@@@@@@@###@###############@@@####@@@@###@@#######$$%%%%$$#@@@@#######@@@@@@@@@@@@@@@@@@####@@@@##@@@@##########$%%$$#@@@@@#########@@@@##$####$$#@#$#@@#####@@@@########@###@@@@@@@@@@@@@@@@@@@@@@@@@@@@@@@@@@@@@@@@@@@@+@@++@@@@@@@+@#%$$#$#@++@Oo+@OO@@@@@@@@@@@@@@@@@@@@@@@@@@@@@@@@@@@@@@@@@@@@@@@@@##++++OO++++@@@@@@@@@@@@@@@@@@@+@@@@@@@@@@@+@@@@@@@@@@@+++@@@@@@@@@@@+@@@@@@@@@@@+@+++++@++++@@@@@@@@@@@@@@@@@@@@@@@#$###@+++++O++@@@@@@@@@@@@@@@@@@@##########@#@@@@@@+@@@@@++@@##$#+@@@++OO++@@@@@@@@++@@@@@@@@@@++@@@@++++@@@@@@@@@@@@@@@@@@@@@@@@@@@@@@++++%$$$$@@+@@###@@@@@@@@@@@@@@@@@@@@++@@@@@@@#&%##@+++@@++++++++++++@@@++@@+@@@++++$@@@++@@++@@@@+++++++@####$#++O@@@@@@@@@@@+@@@@@@@@@",
"@@#%%@@@@@@####@@@@@#@@@@@@@@@@@@@@@@@@@@@@@@@#@@@@@@@@@@@@@@@@@######@@#@@#@@#@####@#####@@@@@##@@#####@#$$%%$%$$#@@@@#######@@@@@@@@@@@@@@@@@@######@@################$%$###@@@@######################$$#####################@@@@@#@@@@@@@@@@@@@@@@@@@@@@@@@@@@@@@@@@@@@@@@@@@@+@@@@@@@@@@@+@#%$$###@@@@++O@@O##@@@@@@@@@@++@@@@@@@@@@@@@@@@@@@@@@@@@@@@@@@@@@@#@+++++O++++@@@@@++@@@@+@@@@@@@+++@@@@+@@++++++++++@@@@@++@@@@@@@@@@+++@@@@@@@@+@@@@@++@@@@+@@@@@@@@@@@@@@@@@@@@@@@@$$###@@@++++++@@@@@@@@@@@@@@@@#@#############@@@@@@@@@@+@+@@@@#$$@@+++++++++@@@@@@@+@@@@@@@@@@@@@@@@@+++++@@@@@@@@@@@@@@@@@@@@@@@@@+@++++++#$$#$@+@@@##@@@@@@@@@@@@@@@@@@@@@++@###@@@#&%##@+++@@@@@@+++++++@@@@++@@++@@@@++@@@@++@@++@@+@@++++++@####$$+OXO@@@@@@@@@+@@@@@@@@@@",
"@@%=&#@@@@##@##@@@@@@@@@@@@@#@@@@@@@@@@@@@@@@@@@@@@@@@@@@@@@@@@@####@@@@#@@#@@@@####@######@@@@######@######%%%$$##@@@@@@@###@@@@@@@@@@@@@#@@@@@#######@################$%$###@@@#####$$$$$$$$$$#######@######$################@@#@@#@@@@@@@@@@@@@@@@@@@@@@@@@@@@@@@@@@@@@@@@@@@@+@@@@@@@@@@@+@$$$$##@@@@@##@@@@##@@@@@@@@@@+++@@@@@@@@@@@@@@@@@@@@@@@@@@@@@@@@@@#@+++++++@++@@@@@++@@@@@@++@@@@++@@@+++@@++++@++++@@@@@@+@+++++++++@+++@@@@@@@@@@@@@@@@@@@@@@@@@@++@@@@@@@@@@@@@@@@@$$###@@@@++O++@@@@@@@+@@@@@@###@@@@###@@@@###@@@#@@@##@+@@@#@@#$$#@++++++@@@@@@@++++@@@@@@@@@@@@@@@@@+++++@@@@@@@@@@@@@@@@@@@@@@@+@@@@@@@@@O$#@#@+@@@######@@@@@@@@@@@@@@@@@@@@###@@@#%$##@+++@@@@@@++++++++@@@++@@++@@@@@@@@@@++@@++@@@@@+++++@@##@+@++Oo++@@@+@@@+@@@@@@@@@@@",
"@@%=&#@@@@##+@##@@@@@@@@@@@@@@@@@@@@@@#@@@@@@#@@@@@@@@@@@@@@@@@@##@@###@##@@@###@@@###@@##@@@@######@@######%&%$$#@@@@@@@@@@@@@@@###########@@##########@@##############$%$#$#######@####$$$####$######@@####$$$###########@#######@@@@@@@@@@@@@@@@@@@@@@@@@@@@@@@@@@@@@@@@@@@@@@+@@@@@@@@@@@+@$%%$$#@@@@$@@&%@@@@@@@@@@@@+++++@@@@@@@@@@@@@@@@@@@@@@@@@@@@@@@@@@@@+++++++@+++++$++++++++++++$++@@@+@@@@@++++++++++@@@@@@@@@+++++++++++@@@@@@@++@@@@@@@@@@@@@@@@@@@@@@@@@@@@@@++@+@@@$$###@@++++OO++@@@@@@+++@@@@@@#@@@@@@@@######@@###@###@+@######%%#@+@@++@#@@@@@@+++@@@@@@@@++++@@++@@++++@@@@@@@@@@@@@@@@@@@@@+++@@@@@@++++o#$@@@@@@@##@@##@@@@@@@@@@@@@@@@@@@@@@@@@@#%$##@+++@@@@@@@@@+++++++@@@@@+@@@@@@@++@@@@@@+@@@++@@@+++@@##@OOOO+O++++++++@@@@@@@@@@@@+",
"@+@$#@@@@@#@+@$#@@@@@@@@@@@@@@@@@@@@@@@@@@@@@@@@@@@#@@@@@@@#@@@@##@@#####@@@@@##@@@@##@@##@@#@###@@##@######%%%%$##@@@###@@@@###@@##########@@##########@@############$$$%$$$$$$###@@@@######@@@#######@@$$###$$###########@#########@@@@@@@@@@@@@@@@@@@@@@@@@@@@@@@@@@@@@@@@@@@@+@@@@@@@@@@@+@$%%$$$##@@$@+&=$@O+@@####@@++@@+@@@@@@@@@@@@@@@@@@@@@@@@@@@@@@@@@@@@@++++++++++++++++++++++++++++@@@+@@@@@@++++@++++@@@@@@+@++++++++++++++@@+@@++@@@@@@@@++@@@@@@@@@+@@+@@@@@@@++++@@@$$###@@+++OOO++@@@@@@++@@@@@@@@@@@@@@@######@@@#$#@@##@@@######%%#@+@@++@$####@@+++@@@@@+@@++++@+++@@++@+@@@@@@@@@@@@@@@@@@@@@@@@@@@@@@@@@@O@$#@##@@@@@@@@@@@@@@@@@@@@@@@@@@@@@@@+@@@#%$##@+++@@@@@@@@@@@++++@@@+@@+@@@@@@@++@@@+@@+@@@++@@@@@@@##$@OoO++OO++++++++@@@@@@@@@@@@",
"@+OO+@##@@@@+@##@@@@@@@@@@@@@@@@@#@@@@@@@@@@@@@@@@@@@@@@@@@@@#@@#@@@######@@#####@####@@###@#####@@####@@##$%%$$$##@@####@@#####@@@###@#####@@####@#@@##@@@###@########$$%$$%$$$$########################$%$@#$$#######@@@@@@########@@@@@@@@@@@@@@+@@@@@@++++@@@@@@@@@@@@@@@@@@@+@@@@@@+@@@@+@$&&%$$$#@@#++$=*#O+@@####@@++@@@@+@@@@@@@@@@@@@@@@@@@@@@@@@@@@@@@@#@@++++++++++++++++++++++++++++@@++++@@@@@@@@++@@@@@++@++++@@@@++++++++++@+@@@@@@@@++@+++@@@@++++++++++++++++++@+@@@#$###@+++++++@@@@@@@@@@@@@@@@@@@@@@@########@@@###@@@###@@####$&%#@+@@++@$$####@@@@@@@@@++@@@@@@@++@@@+@@@@@@@@@@@@@@@@@@@@@@@@@@@@@@@@####++#$@##@@@@+@@@@@@@@@@@@@@@@@@@@@#@@@@@@###%###++++@@@@@@@@@@@@@@@@@++++@@@@@@++@@@@++++@@@@++@@@@@@@##$@OOO++O+++++++++++@@@@@@++@@",
"#@OO+@@#@@@@@@@@@@@@@@@@@@##@@@@@@@@@@@@@@@@@@@@@@@@@@@@@@@@@@@@##@@##################@@###@######@@@###@@##%%$$###@@@##@@@@####@@@###@@####@@####@@@@@@@@@###@@#######$$$$$$$$$###$$$$$##############$###$$@@#$######@@@@@@#########@@@@@@@@@@@@@@@@@@@@@@+++@@@@@@@@@@@@@@@@@@@+@@@@@@+@@@@+@$*%%$$$#@+@++@%&&+@@@@@@@@@@@@@@@@@@@@@@@@@@@@@@@@@@@@@@@@@@@@@@@###@+++++++@@+@@%@@@@@@@@@@@@@@@@@++++@@@@@@@@@@@@@@++@+++++@@@@+++++++++++@@@@@@@+++++++++@@@+++++++++++++++++@@@@@@##@@@@@@@@@@@@#######################@@############@@#$$#@####$&%#@+@@++@$%$$$#@@@@@@@#@+++@@@@@@+@@@@@@@@@@@@@@@@@@@@@@@@@@@@@@@@@@@@@@@@++O@#@@#@@@@@@#@@@@@@@@@@@@@@@@@@@@@@##@@###$##@++++@@@@@@@@@@@@@@@@@+++@@@@@@@@+@@@@+++@@@@@++@@@@@@@##$#++OOOO+++++++++++++++++@++@",
"@@@@@@@@#@@##@+@@@#@@@@#@@@@@@@@@@@@@@@@@@@@@@@@@@@#@@@@@@@@@@#@@@########@@####@@@@@###@@@@###@####@@####@#$%$$$##@@@##@@@@@###@#####@@@@@@###########################$$%$$$$$#@@###$$##@@@@###$#####$#@@#$########@@@@@@###########@@@@@@@@@@@@@@+@@@@@+++@@@@@@@@@@@@@@@@@@@@@+@@@@@@+@@@@+@$&%$$$$#@@@++#$%%##@@@@@@+@@@++@@@@@@@@@@@@@@@@@@@@@@@@@@@@@@@@@@###@+++++++@@+@@o@%%@@@@@@o@@@@@@@@+@@@@@@@@@@@@@@+@@@@+++++@@@++++++++++++@++@@@+++@@@@@@@@++++++++++++++++++++@@@@@$$###@@@@@@+@@####################################$#@#$$#@##@##&%##@++++@$%$$$#@@@@@@@#@@++@+++++@@++++@@@@@@@@@@@@@@@@@@+@+++++@@@@@@@@@@@@++@#@@@@@@@@#@@+@@@@@@@@@@@@@@@@@@@@#@@###$###++++@@@@@@@@@@@@@@@@@@@@@@@@@@@@@@@@@@@@@@@@+++@@@@+@@@###@@+++OO++++++++++++++++++@@",
"+@@##++@#@#%%#@@@@@@@@@@@@@@##@@@@@@@@@@@@@@@@@@@@@@@#@@@@@@@@@@@##@#@@###@@####@#@@####@@@####@#@@##@@#####$%$$$##@@####@@@####@@####@@#@@@############################$$%$$##@@@@######@@@@#####@####$@@@####@####@@@@@############@@@@@@@@@@@@@@+@@@@@@++@@@@@@@@@@@@@@@@@@@@@+@@@@@@+@@@@+@$&%$$$$##@@@+@#$%$#@@+++++@@@++@@@@@@@@@@@@@@@@@@@@@@@@@@@@@@@@@####@+++++O++@+@@@oo%%@@@@@@@@@@@@@@+@+@@@@@@@@@@@+++@@@@++++@@@+++++++++++@@+@+@++++@@@@@@++@@++++++++++++++++++@+@@@$%$$$#@@@@+++@@@#@@@@@########################$###$$@@$$####@@#%%##@+++++#$$$##@@@@@@@##@@++@++@@@@++++@@@+@@@@@@@@@@@@@@@+@@@@+++@@@@@@###@@O@#@@#@@@@@@@+@@@@@@@@@@@@@@@@@@++@@@@@##$###@+++@@@@@@@@@@@@@@@@@@@@@@@@@@@@@+@@+@@@@@@++++@@@+++++@###@@@++O+@@@@@++++++++++++++",
"@+@@@++@@@#$%###@@@@@@@@@@@@@@@@@@@@@@@@@@@@@@@@@@@@@@@@@@@#@@@@@#@@######@@##################@@#@@#####@###$%$%$$#@@################################################@##$$$$##@@@@###############@@######@@#@@@@@####@###########@@@##@@@@@@@@@@@@@@@@@@@@@@@@@@@@@@@@@@@@@@@@@@@+@@++@@+@@@@+@$&%$$######@++@$$$#@@+++++@@@@+@@@@@@@@@@@@@@@@@@@@@@@@@@@@@@@@@####@@++++O+@@+@@@@oo@@@@@@@@@@@@@@@+++++++++@+@+++++@@@@@@@++++++++++++++@@@++@@@@+@+@++@+++@@@@+@@@@@+@@@@@@@@@@+@@@$%$$$#@@@@++++@@@@@@@@@@@@@@@@#@#########$##@#$#@#$$#@@#####@@#%$##@@++++#$$##@##@@##@###@@@@@@@@@@+@@@@@++@@@@@@@@@@@@@@@@@@@@@@@@@@@@@@@@@@O+#@@#@@@##@@@@@@@@@@@@@@@@@@@@@++@@@@@@#$#@#@+++@@@@@@@@@@@@@@@@@@@@@@@@@@@@@++++++@@@@@@+@@@@+++++@#$#@@@@+++@@@@@@@++++++++++++",
"#@+++@##++@####@@@@@@@@@@@@@@@@@@#@@#@@@@@@#@@@@@@@@@@@@@@@@@@@@######@@##@@@#################@@#@@@##$#@@#$%%$$$$##################################################@@###$$$#@++@@##############@@@##@@#$#@@@@@+@@@##############@@@##@@@@@@@@@@@@@@@@@@@@@@@@@@@@@@@@@@@@@@@@@@@+@@++@@+@@@@+@$&%$#######@@@@###@@@@@@@@@@@@@@@@@@@@@@@@@@@@@@@@@@@@@@@@@@@@@@####@@++++O+@@++@@@@oo@@o@@@@@@@@@@@++++@++++@@@++++@@@@@@@@@+++++++++++@@@++++@@@@@@++++@+++@@@@@@@@@@@+@@@@@@@@@+@@@#$###@@@@@@+++@@@@@@@@@@@@@@@@#@@#######$$$###$#@@#$#@@@####@#$%$@#@@++OO#$$#@@#@@@##@@###@@@@@@@@@@@@@@@++@@@@@@@@@@@@@@@@@@@@@@@@@@@@@@+@@+OO@@@@#@@$#@@@@@@@@@@@@@@@@@@@@@@@++@@@@#$#@@@+++@@@@@@@@@@@@@@@@@@@@@@@@@@@@@++++++@@@@@@@@@@+++@@@#$$#@@@+OO+@@@@@@@@+++++++@@@@",
"$#@@@@##++@@+@@@@@@@@@@@@@@@@@@@@@@@@@@@@@@@@@@@@@@@@@@@@@@@@@@@#######@@@@#@@@@##############@@##@##@#####$%%%$$$#@@@########@@########################################$$$$#@@+@@@##############@@##@@###@@##@@@##################@##@@@@@@@@@@@@@@@@@@@@@@@@@@@@@@@@@@@@@@@@@@@+@@+@@@@@@@@+@$&%$####@@@@@@@@@+@@@@@@@@@@@@@@@+@@@@@@@@@@@@@@@@@@@@@@@@@@@@@@####@@++++++@@++@@@@@@@@@@@@@@@@@@@++++@@@@@+++@++++@@@@@@@@@++++++++@@@@@@@@@@@@@@+@@@++@@++++@@@@@@++++@@++@@@@@+@@@#$###@@@@@++++@@@@@@@@@@########################@@#$$#@########%$@##@@+OO@##@@@#@@@##@@###@++@@@@@@@@@@+@@+@@@@@@@@@@@@@@@@@@@@@@@@#####$$$@++++@@@#@@$#@@@@@@@@@@@@@@@@@@@@@@@++++@@#%#@@@+++@@@@@@@@@@@@@@@@@@@@@@@@@@@@@@@+++@@@+++@@@@+@@@#@@#$#@++++Oo@@@@@@@@@@@@@@@@@@@@",
"$###@@##@@#@++@@@@@@@@@@@@@@@@@@@@@@@@@@#@@@@@@@@@@@@@@@@@@@@@@@#######@@@@#@@#@@@############@@#@###@@##$##%%%%%$#@@@#################################################$$$$$$#@@@@@@###############@##@@@@@@##########################@@@@@@@@@@@@@@@@@@@@@@@@@@@@@@@@@@@@@@@@@@@+@@+@@@@@@@@+@$&%$####@@@@##@@+++@@@@@@@@@@@@@@@@@@@@@@@@@@@@@@@@@@@@@@@@@@@@@@####@++++++@@++@@@@@@@@@@@@@@@@@@@++@@@@@@@@++@++++@@@@@@@@@@@@@@@@@@@@@@@@@@@@@@@++@@@@@@+@@+@@@@@@@@@@@@@@@@@@+++@@$%$$$#@@@++++@@##@#@@###########@##########$$$#####$$#####@####$$@###@+OO@@#@@@@@@@@@@@@##@++@@@@@@@@@@@+@@@@@@@@@@@@@@@@@@@@@@@@@@######$$#@@@+@#@@@@##@@@@@@@@@@@@@@@@@@@@@@@+OO+++#&%##@+++@@@@@@@@@@@@@@@@@@@@@@@@@@@@@@@++++@@+++@@@@+@@@###$%@@++OOoo@@@@@@+@+@@@@@@@++++",
"####@@##@@##@@@@@@@@@@@@@@##@@@@@@@@@@#@@@@@@@@@@@@@@#@@@@@@@@@#@@######@@######@@@###@#@@#######@@##@###$#$%%%%%$#@@@#################################################$$$$$##@@@@+++@@@##$$$#######@##@################@@@#@########@@@@@@@@@@@@@@@@@@@@@@@@@@@@@@@@@@@@@@@@@@@@++@@@@@@@@@@@@#&%$####@@@@@@@@@@@@@@@@@@@@@@@@@@@@@@@@@@@@@@@@@@@@@@@@@@@@@@@@@####@++@+++@@++@++@@@@@@++++@@@@@@@+@@@@@@@@+@@@@@@@@+@@++++@@@@++++@+@@@@@@@@@@@@++@@@@@@@@@@@@@@@@@@@@@@@@@@@@@+@@@$$$$$#@@@@+++@@####@###########@@###########$$##$$#@######@####$$##@@@+++@@@@@@@@+@@@@@@@@@++@@@@++++@@@@@@@@@@@@@@@@@@@@@@@@@@@@@@####@@@@@##@@@##@@@@@@@@@@@@@@@@@@@@@@@@@@@@+OO+++$*&##@+++@@@@@@@@@@@@@@@@@@@@@@@@@@@@@@@@@@@@@++@@@@@@@+@#@@#%#@+++Ooo@@@@++@@+@@@@@@@++++",
"#@@@@@###@@##@@@@@@@@@@@@@@@@@@@@@#@@@@@@@@@@@@@@#@@@@@@@@@#@@@@################@@@###@@@@@################$%&%%$$##@###################################@@@###################@@++OOOO+@@#######@$$######$$####$$$###@@#@@@@@########@@@@@@@@@@@@@@@@@@@@@@@@@@@@@@@@@@@@@@@@@@@@@@@@@@@@@@@@@@#&%$$###@@@+@@@@###@@@@@@@@@@++@@@@@@@@@@@@@@@@@@@@@@@@@@@@@@@@######@@@++++@@+++++@@@@@@@@@@@@@@@@@@@@@@@@@@++@@@@@@@+@+++++++@+++++@@@@@@@@@@@@@@@+@@@@@@+++++++@@@@@@@@@+@@@@@@@#@@#$###@@###@@@@#############@@@@#@##########@$$##$$@+@#@@##@###@$$##@@++++@+@@@@@@+@@@@@+@@@@++@@@++++@@@@@@@@@@@@@@@@@@@@@@@@@@@@@@@@@########@@@##@@#+@#@@@@@@@@@@@@@@@@@@@@@#@O+++@$=&$@@+++@@@@@@@@@@@@@#@@@@@@@@@@@@@@@@@@@@@@@+@@@@@@@@+@#@@#$#@@+++OO+@@+@++++@@@@@@@@@@@",
"@@@@@@###@####@@###@@@@@@@@@@@@@#@@@@@@@@@@@@@@@@@########################@@@@#####################@#####@#%%&&%$########@@###########################################$$$$######@@@@@@@@@########$$#$###$$$#####$$#########@@####@@@@@@@@@@@@@@@@#@&&@#@@@@@@@@@@@@@@@@@@@@@@@@@@@@@@@@@+++@@@#$%$$$%%#@@##@@@@####@@@@@@@@@@@@@@@@@@@@@@@@@@@@@@@@@@@@@@@######&&%$#@@++++@#@@@@+++@##@++@@@@@@@@@@@@@@@@@@@@@@@@@@@@@@+++++++++@@@@@@@@@######@@@@@@@@@@@++++++@@@@@@@@@@@@@@@@@@@#$#@#$#@#%$@@@#$$###$####$##@@@#@#######$$##@#$#@+##$#@@#####$##@@##@@++OOoooXo+#$#@@@@####@++O++++++@@@@@@@@@@@######@@####@@@@++@@@@#####$#$##@@@@@+@@##@@@#@@@@@@@#@@@@@@@###$%#+O+$&%@@@+++@@#@@@@@@@++###@@#$#@@@@+@@@@@@@@@@@@@@@@@@@@@######$$#@@@++O+@+++++@@@@@@@+@@@@@",
"@@@@@@@@@@@@@@@@@@@@@###@@@@@@@@@@#######@@@@@@@@@########################@####################@@##@##@@#@#$$%%%$$$$##################################################$$$####@@@@#$$#@@##$$$$##############################@############@@#@###@@@#$$#@@+++@@@@@++@@++++++@@@@@@@@@@@@@@########$%$$###$$##@@@@@@@@@@@@@@@@@@@@@@@@@@@@@@@@@@@@@@@@@@@@@@@@@@###%%%$$#@+OO+@##@@+@@@@@@@@+++@##@@@@@@@@@@@@@@@@@@@@@@@@@@@@@@@@@@@@@++@@@@@##$$$$#######@@@@@@@@@@@@@@@@@@@@@@@@@@+@$%#O#%$@@##@++#%$###%%$$%&%#####$$#####$####@++#$@#%%$###$###@##$$$###@+OoXX...oO+++++@@@@@@+ooO+++OO++@@@@@@@@@######@@####@@#@@@@@@#$$$$###$$#@@@@@@@@++++@@@@++@@@++@@#@@@###%&%@@+XXO@@OOO+@@#@@@@@+@@#@#$$##@@@@@###@@@@@@@#@##@@@@@@@@@@@######$#OoO+o@@++++@@@@@++@+@@@++",
"@@@@@@@@@@@@@@@@@@@@@@@@@@@@@@@@@@@@@@@@@@@@@@@@@@@####################@########################$$##$$####$#$%$%%%&%$###$$$$$##@@#####################################$######$$$+@$%$@#$$$$$############@@######################################@@######@#@#######@@@@@@@@@@@###########@@@@@@@@$$$$$$##&%$##@@++@@@@@@@@@@@@@@@@@@@@@@@@@@@++++++@@@@@@++@#######$$##@+OO++@@@@@#########@####@@@@@@+@@@++++++@@+++@@@@@@@@@@@@@@@+++@@@@@@@####################################@+@$%#+@#$#@++@+@$%$###$%$%&*%#####$$#$##$%$$$$$$$$$$$$$$#@@##@@##$$$##$##@+OooXXXXXoooooOOOOOOo..XoooXooOOOO++########$$$$$$$$$$$$$$$$$$####@@###@++++++OoooO++@@@@@@########@@+ooO@%&+OOOOO+#@++@#######@@$$@#$$$#@@#@@@$$@@###############@@++@###$#@##+ooOo+@++@+@@@@@+@@@@@@@@",
"@@@@@@@@@@@@@@@@@@@@@@@@@@@@@@@@@@#######@@@@@@@@@@@@@@@@@@@@@@@@@#####@########################$#@@#$##@#$#$%#%%%%%$#@@@@@####@@@@##############################@####$$$$$$$$##++#$&&%$$$$$$$$$$$$$$$#########$$$$$$###@@@#######################################@@@@@#@@@@@#######@#@@@@@@@@@@$##$%%#@%$#@###@@@@@@@@@@@@@@@@@@@@@@@@@+++++@@@@@@@@@@@@#%&&%$@@@####@+OoooOOOO+++@@++@@########@@@@@@@@@+++++++++++++++++++@@@@##@@@##@+++++++###################@@@@@@@@@@@@+@+++@##@@+@@@@####%&$$$##$$%%$@@@@@@@##$$#$$$$%$############@@@@#$%%%$##@@++OOOoooX...XX...XXXXX.. .... ...X...XXX...oO++++@@#####@@#$#@@@+OO++++@+OoooooooXXXXoOO+@#$$$@OO@$$#@+OOo..O#O++++@@+OO+@####$$###$$#@$$@@###@@@+@@################@@@@$$##$#+O++++Oo+@+@@@@@+@#@##@#@@@@",
"@@@@@@@@@@@@@@@@@@@@@@@@@@@@@@@@@@################################@@@@@@@@###########################$###$$$%%#$$$$$###$$################################$$$$#######$$$$$$##@@+++++@%*%@$$$$$$$$$$$$$$$$$$$########$$##########@@@@@@###@@@@@@@@@@@@@@@@@@@@@@@@@@@@@###########################%#@@#$$#+OO+@$$$$$$$$$############@@@@@@@@@@@##$%%$$####$&&$@@@@@+@@@@+OoX...XXXXXooOOoooOOOooOOOOOOOOOOOoooooooooooooOOO+++++++++++OO++++++++OOOOOOOoooOOOOOOOOOOOOooOoooooooooooooOO+@@@##+OO+OO@+OOOXXXoOOo.X..XXXoooooooOOooooooooooXoOOoXXXXXo+@@+++@++OOoooooX..XXX.XXXXXXooXX.....XXXXX........................   ..  ...XXXXXXXXXXoooX...XXoO+++OXXXOO+OOoO+oXXoO+@##++++OooOoooOOOO+OO@OOOoooooooXXXooOOOOoooooooooOOOOooooXXO+++@@##O.O++@@@+++@@@##@@@@++",
"@@@@@##############################@@@@@##########################################################$$#$###$#$$$$$#####$%&&&%%%%%%%%%%%%%%%%%%%%%%%%$$$$$$$$$$$$$$%%%%%%%%$$##@@@++++OO+++++++@@@@@@@@@@@@@@@@++++++@@@@############$$$$$$$$$$$$$$$$$$$$##########@@@@@@@++@@#####$$#@@#$$@@@@@@@@@#####$##@@@@##$$#########################$$##@@OOO@$$#++@+oXXoOO+++@@+OoX......XXooooXX.....XXooXXXXXXXXXXXoooooooooooo...............      . ..................XXXXXXXXXXXXXXXXoOOOO+#@@#$$@OoX.X...X   ... .XX.XXoooXXoooooXXXXXXXXXXXooOoXXooooO+@###@@++OOOOOooXXXoooooooOOO+OOooooooOOOooooooooooXXXoOOoXX.XooXXXooooOOoXXXoooOOOOooooOOoooXXooooXo+OX..XOOooooOOOO+@@+++++oX......X..X .O+XXoOX..X.XoooXX.XX.......XXXXoooXXXoXXo+++@@+OO...XXXXX.XXXXXXXXXXX",
"@@##$$$$###########################################$$$$$$$$$$$$$$$$$$$$$$$######################@@##@##@##@$%%%$###@@#$%%$$$%%$$$$$$#############$$$$$$$$$$$$$$$###$$$$$$$$##@@@+++o..XOooooooOOOOOOOOOOOOOoooooooooooOOOOOOO+++OO++@@##$#@@@@#$#@@@@@@@@++++++++OOOOoooXooOO+O+++++++++++++++++@@#$$$##$$$#@++@++OOOoooOOOOOOOOOOOOOOOOOOOOOoXX.X  O+XoXXXoOOOOO+++@@@+OooXXXXXXooXXXXXXXXooOOOOooooooooooOOOOOOOOOOOoooooXXXXXXXXXXXX...............XXXXXXXXXXoooOOOOOOO+O++++++@++OO+@$$#$%%#+OoooOOooooXXXXooXXXooooooooooooooooooOOOOOOO++++O+#$$#@@@@@@@@@@@+OOOOOOooooOO++++OoooooOOOooXXooooooooooooooooooOOoooOOooOOooooooO+++++OooOO+++OOOOOOOOOOoooO+++OOOOOO##@@@@@@+OooXoooooXXX.XoOOoooOoXoOOXXooXXooOOOOOooooooOOOOXXooXXO+OoXo+@XXXXXXXXXX...XXXXXXX",
"oO+@@+OoOOOOOOOOOO+++@@@@+++++++@@@@###@@@@@@@@@@@@###############@@@@@@@@@#########################@@#+++O@###########@+OOOOOOoooooXXXXXXXXXXXXXooooOOOoooOOOOOooooOOOOO+++++++++OOoXooOOOOOooooooooooooooOOOOOOoooooOOOOOOOOOOOOOOOOO+++++++++++++++++OOOOOOOOOooooXXXXXXXXooo@@@@@@@@@@@@@@@##@@@#$$#@@@+OoOOOOOOOooooooXXXXXXXXXXXXXX...XXooXXXXXXXXXoOO+++++++@@@@@@+OooooOOOooooooOOOOOOOOOoooooooooOOOO+++++++OOOOOOOOOOOOoooOooXOOOooXXXXXXooooooooooooooO+++@@@@@@@#####$%%%$$#$%&&%$##%#@+++++@@+oooooOOOOOO+++OO++++++++++++++OOO+@@@++@@##############@@@++OOoooooO+OOOOoooooOOOOOOOOOOOOOOOOOOOOOOOOOOOOOoXoOOooOOOoooO+++++@++OoooO+++OOO++++OOO++++@#@+++@@+++++OOOOoooO+OooXXOOXooOOooOoooOX.XoOooOOO++OOOoooooOO+Ooo+@Oo++o.o+@+OOOOOO+OOOooOOOOOOO",
"XX........XXXX..ooX. .........XXXXXXXXXXXoooOOOOOOOXo++OO++++@@@+OoOOooO+++OOX.oOOoo+@@@@@@@@@@@@#@+@++++@++##%&$$%%%$$##@@@@@+OOOOOooooooooooooooooooooX.XXoooXoooooooOOO+++@@@+OoOOOooXoooOOOOOOOOO+++OOO+++O++++++@@@@@@@+@@@@@@@##@@@@###$$$$$##@@@@@@@@@@@@@++++OOOOOooOO+@#########################@@@@@@@@@@@++++++OOOOOOOOOOOOOOOOOOOOOOOOOOOO++++++@@@@@@@@@#####@@@@@@+OOOOOOOOOOOOOOOOOOoooOOOO+@@@@@#########@@@@@@+++++++++OO+++++++OOOO+++++OO++O+OOO+@#$$$$$$$$$$$%%%%&&&&&&=***%$#@@++++@#@++++++@+@@@@@@@@####@@####@@@@@@@@@@@$+O#%$$$$##$$$#############@@+++++++++++O+o$$o+OOOO++@@@+++++++++++O++++++++++++++++++OO+++@@@@@o++O+OoO@@@+OO+@+++@@##$$$$##@@@@@++OoooooO+ooO++OO@+oOOOXoOOoOOOOOooooOOO++OOOOO+@++#$#+O@#@O+#+++OOO+++++++++++@++",
"ooXXXooOooooXXXXXXXXoXXXXXXXXoooooooooooooOOO+++OOoOOXXXXoooOO+++++OO@@++@#@OO++++++#$#$$$$$%%&&&*%$%$$$$$###$&**====*&%%%$$$$##@@@@+OOOOOOOOOOOOOOOOOOOoXXoOOooOOO+++@@@########++++++O++++@@@@###@@@#@@++@##@###$$$$$$$$$$$%%%%%%%%%%%%%%%%%&&&&%%%$$$$$$$$$$$$$$##@@@++@@##$%%%%%%%%%%%%%%%%%&&&&&&&&&%%%%%%%$$$$##########@@@@@@@@@@@@@@@@@@@@@@@@@@@#############$$$$$#####++++++@@@+++@@@@OO+OoO+++@#####@@@@@@@@################@+O++##@@+@++O++@@+OoOoO@+@@#$$%%%%%%%%%%%%%%&&%%&%%&=&&=$$$$#@@######@@@@+++@@@@+@@##@@@@##$$%%%%$$$$$$$$$$$$$$$$$$######$%&&%$#####@++++@@@@@@@$$##@@+++OOOO+++++++++++++++++@#@++@######$$###@@++OO+@@O++OO++#O+@#$$#@&%$##$%&$$$$$$$##@@@@++++#$@@++@@+@@++@#@+@@++OO+++++++++++++++++@###$%%#@#$#@+++++++++++@@@@@@+@###",
"ooOO++@@OOoooXXXXooOOOOOOOOOOOOOOOOOOOOO+++++@@@@@@##++@@@@@####$$##@@###@@#@@#@@###$$$%%%%%&&****%$%%%&%%%%&**=--;;;;;--=*&&&&&&%&%$####@@@@@@@@@@@@@@+@@@@@@##@@@@@@###$$%%%&&&%$#########$$$$%%$##@+++O+@#$$$%%%%%$$$$%%%&&&&&%%%%%%%%%&&&*******&&&&&&&&&&&&%%%$$#@@@@@#$%&**********&&&&&&*************&&&&&%%%%%%%%%%%%%%%%%%%%%$$$$$$$#$$$$$$$$$$$%%%%%%%%%$$$$$$$$#@@@@#######$######@@@Oo@@++@#$$%%%%%%$$$##########@@@@@@@@@@@@@###@@@@@@+++#$@@++@+O+$$%&&*==***&&%%%%&&&&&***&%&*&%%%%&&&%%$###$###$$####$$##$#####$$$$%%%%%%%%%%%%%%%%%%%%%%%$##$%&&%$%*=*&&&%$#@++$#+oo+#$########+++++++@@@@@@@@@@#####@++##@#$%$$%%%%%&&%#@OO+####$#@+++%$$$%&&%%%%%%%%%%%&&&&&&%%%%%$$$@$$###@#####@######@@@@++@@####@++OOO++@@@@@####$$$$$$#@@@@+++++@@@@@@@@@#$$",
"O++@@@@@@@+OOOOOOO++++@@@@@@@@@####@########$$$$%*%$$##$#####$$$$%%%%##%%$@@$#+@@+@@#$&==**&&&&&&&*%&&%**&*****=---;;;:::;-=**===*==*&&&%$$$$$$$%%%%%%$$$$###$%%$$$$$%%%&&********&&%%%%%&&&&&&***&%$@+O@+@@@$%$&&&&&%%%%%&&&&&&&&&&&&&&&***==-------============*&%%$$$$###$&=-==========--;;;;-=----------==****************&&&&&&&&%%%%%%%$$%%%%%%%%%&&&&*******&&&&&&%%$$$$$%%$$%%$$#$$$####+O@#$#@#$%&&%%&**&&&&&&&%%%%$$$$$$$$$$$$@#$$$$$$$$$$##$$+++OO+++#$*-:>>>:::;;---=======**=:;=%$*-;---=*%$##$$$$$%%%%$$%%%%$%%%%%***&&&&&&*****************====*************&&%$#$@OoO+Oo@@@@@########$$$$$$$$$$$%%&&&&%$$%%%%&&&&&&&**===*%#@#####$%##$$%%$%%%%%&&&&&&&%&&*==*&&&*&&%%%$##$%##$$$$$#$%$@@##@#%$+@@@##$###@@@@@@###@#$#@$%%#$%$#$$#######$$#$####$$$$",
"%$#@+@@#$$$#@@++++++@#$$%%&*&$%==*%$$$%%%%%%%%%%&==*&**&&%&&&****=-===*%**%###@++@#$%*=;;;--=***&*==*=*=;-------;;;;;;;;:;;;--------=************&&&&&&&&%%%%&&&&&&&&&****========*****&&&*******==**&$$#@#@@%************================--;;::::::::::::::::::>:-*&%%%%$##$*;>,,,>>:::;;;::>>>;;;;;;;;;;;;;------======================*********=========================********=====****&%$$####$%#$%***&&**********&&&&&&&&&&*******&&&*&%$$%%%%$@++@+OO@@+O+&;-&&===--;;;::::>>>>>>>,,>*%-;;;-;;--=*===---==*******&**==**===-=---;;;;;;;:::::::::*=-;;-=**********====***@#OO%%#$%%%%%%%%%%%%%%%%%%&&&&&%%%&&%%*=*%&==****==========*$@++$@@#@#%&&******=&&&&&&&&&&*********&&%%%%$%&%$%%%$$$$$$$$$##@@#$$##@@@@##$$$$$$$$$$$&%$$%&%$%%%%$$%%%%%$%%%&&%&%%&&&",
"&%$##$%&&&%%$#@++++#$%&&&&$&=%$=***********=====**-;---====---;;;;:>>:;-;-=&#@##@#%&=;;:>>>>::;;=-;;;:;;>::>>>>>>>>>>>>>>>,,>>>>>>::;;--=-;::;-=:;;--====**&&*-;-----------;;;;;:;;;;;-==----;;;;:::;=&%$@#@#=::--;;;;;;;;;:::::;;;::>>>>,,,,<<11<<<<<<<<,,,,,,,,>:-*&%%%$$#%=:,<<<<<<<<,,<<1122<<<<<<<<<<<<,,,,,,,,,,,,,,>,,,>>>>>>>>::::::::::::::::::::>>>>:::::::;;;::;;--------=======--=&$$$#+#%$$%*====----------:;-***==========**=====****==&$#+@#@+@#++@@@@@@@OOOOOOOO+@###$%%$#@@&*%+++O+@@#$$$%&&*==--=*==*=***=********===---------::::::::;;;--=============------+#$%$%*=--------------------------;;-----;;:;;;;;:>>>>>>:;>>-%$%$@@@+O+#==-==*=-&&&&&&&&=-======&&&&****&**&&&%%%$$%%##$%$$%$@@%$$$$$$$##$$$%%&&%$$$%$$$%&&&&&&&%%&&&&&&&&*******=-=",
"&&&**=======*%#@+++@$%*=----==**;---==**==--;;::;-:>>>:;::::>>>>>::>>::,:=*&$##$@@@$*---;;::::;;;;::>>>::>:>,>>>>>>>>>::;;;;-----;;;:::;=================*&%%&*===---------------;;------;;::>>>,,<<,:-=&@@@$*;;:::::::::::::>>>>>>>>>>>:;-===*********&&&&&&&***==*&%%$$$##$%=-;;-;:><1>>>>>>>>>>>>>>>>>>>>>>>>>>>>::::*********=-=*&*-------------------====***==********&%%%%&&%$$##@@@$&==&$$#$#%=*&%$$$$$$$&&&***==========;;;;;;;;--;-==***==;::;;$@++oO++O++++++@@@@@@@@@@+++++OO+@@+@*=@@@++++O+++O+++@@@@+++@++++++OOOOOOOOOO++++++++++++@@@@@@$###@@++++++++++@@@#$$$$$$$#@@$&*************************===--*&*-=*&&&%&**=====*%*=&##$@@+@@OO@=--;;-=*;;;;;:::::::::::::;;;---;:;-;;----===*&%%&&*==*&&&*******&&&**==--;::-==*%%&&%&*&%&&&&&&&&&&&&*&*=--",
"-------;;:::;=&%##@+#%*-=======-----------;;;;;;;-*=-=*&%$$$$$$$#####%**-=%#%&$#@@##&&#@@@#########%%$$##%$$%$%&&%$$$$##@####@@+@##$%%%$#########%%$&=&##$%&*&$##$$$$$$$$$$$$###$&%$$$%&&&&******=;:>:--&#@@$%%%$$$$$$%%%%$$####&%%$#@+OOOOO++@+++++OOOO++++++++++#$$#####@@+@##%#%%@$==&*====*&-=*&%$$###@@###$##@@++OOOOOOO++++++++++++++++++++@@@@@@@@@@@@@@@@@@@@@@@###@@@@@@++@#$#+O+@$$#@O@O$#$*&&$OXXooooOOooO+#$*&$#@@@####$$%%%$$$$$$###$%%&**=%@@#+oOOOO++++++@@@@@@@@@@@++++++@$%##%$@@@@@++@@+++O++++++@++@+++++@@++++++@+@@@@@@@@@@++++++++++++++++++++++++++++@@####+Xo@+oOOOOOOOOOO++++++++@@@@@@@+++@#%&%$#@@+OOOO++@@##@OoO+++O#@O++O+%%$$$%&**=-==**&&&&&&&&&&****=====&*=====-;-=*=-===**==--&**==--;;;;;;;;;;;;--;;::;--;;;--====----=****-=-;;;",
"===*%$$$****--=%$#@++OOoooO++@@#@$%$@++@#$#@++OOOOOO+@###@++O+++++++++++$=&@$$#$&#@O###%#############################$$$$$$$$$$$$##$$$$$$$$$$####$$$$&=*%&***&$##################$$$$$####$$$$##@@@%;;-&&&%@##@@@@@@@@@@@@@@@@@@@@@@@@@@@@@@@@@@@@@@@@@@@@@@@@@@@#$$######@@@@#$$@@$$oX#####$$####@@+++@@++++@@@@@@@@@@@@@@@@@@@@@@@@@@+@@@++@@@@@@@@@@@@@@@@@@@+@@@@+@@@@@@##@@@@@@@@@@##@@##@@+++O++@@@@+@@@@@@@@@OO+$$$#$%$##++++++++++++++++++OoXoO+$$##@ooooO++@@@@@@++@@+++@++@@@@@@++@@@@+++++++++@++++++++++++++@+++++@@+++++++@@@@@@@++@@@@@@@+@@@++++++++++++++++++@###@++OO+++@@@++++++++++++++++++++++++++++++++++++++++++@@##+@@++OO@+O+OO++++++++++++@+++++OOOOOOO++OOOOOoooOOOO++++++++++++++O++@@@@@@@@@@@@@@@@@++++++++$=*%%&=%****&*&&************",
"@@@@@++++++@$&%#$#@+++OOOOO+++++++@@+OO+@@@@@@@@@@@@@@#%&&$@++@#@@@@@@@@#%%#@#@@+##@+@@###############################$$$$$$$$$$###$$$$$$$$$$####$###$*--=&$###$##################$$$$####$$$##@@##%**&%%$#@###@@@@@@@@@@@@@@@@@@@@@@@@@@@@@@@@@@@@@@@@@@@@@@@@@#$%$###@@@@++@@##@+#$@+#%$@++@@++O+@@@++O+@@@@@@@@@+++++++++++++++++@@+++++OO++@@@@@@@@@@@@@@@@@@@++@@@@@@@@@@@@@##@@@@@@#@+##@++OOOO+++++++++++@@@+OO+@#@@@#@@+++++++++++++++++@@++O+@#$@+@#+O+OO+++@@@@@@@@@@@@@++@@@@@@++@@@@+++++++++++++++@++++++++++++@+@@+++++++@@@@@@@+++@@@@@++@@@@+++++++++++++++++@#$#@@+OOO++++++++++++++@++++++++++++++++++++++++++++++++@#%$+@#@+OoOOO+@+@++++++++++@@@+@@@@@+++++++++OOOOOO+O+++@++@+++++@@+++++@++@++++OOOOOoOOO++++++++X+OoXo+o++++O+OO++++++++++++",
"#@+++@+O##@+@$#@@@+++++++++++++++++@@@@++@@@@@@@@++++@@####@++@@++@@@@@@@$$@@@@@$%@@O+@@##@@###########################$$$$$$$$$####$$$$$$$$####$$$##$%&$$$$$$$$##################$$$$#####$$##@@#$$&&%%*&$@@##@@@@@@@@@@@@@@@@@@@@@@@@@@@@@@@@@@@@@@@@@@@@@@@@@#$%$###@@++OO++@@++@@$%$%#+OO++@@@@+OO+@@++++@@+++++++++++++++++@@+++@++++++++++@@++++@@@+++++@@+++++@@@@@@+++@####@@@@@@#@+@@++OOOOO++OOO++++++++++OOOO++++++OO++++++++++++++++@@@+++@##+++++++++OO++@@@@@@++@@@@++@@@@@@++@@+@+++++++++++++++++@++++++++++++@@@@@@+++@@@@@@@+++@@@++++@@@@+@+++++++++++++++@#$##@+OOOO+++@@@+@++++++++++++++++++++++++++++++++++++++@#%#+@+oOOoooO@@+@@@@@@@@@++@@@@##@@@+++++++++++++++++@@@@@+@@@+++++@@@+++++@@++@+++++++++++++++++o++OOO+OO++++++++++++++@@@@@",
"#@@@@@+@@#@@#$$#@++OO++++++@@@@@@@@#%%%$####@@+@@@+++@@@++++@@@@@@@@@@@@$&#+@##%*$O+O+#@@@@@@@#######################################$$$$$$#####$$$#########$######################$$##########@@###&%#$*=&$###@@@@@@@@@@@@@@@@@@@@@@@@@@@@@@@@@@@@@@@@@@@@@@@@@@#$$####@++OO+++++@@+#%%$#@++++O##@@++++++++++++++++++++++++++@@@@++++O+++++@++++++++++++++++++@@++++@+++@@@@+@@@@#@@@@@@#@+@@@+OOOOO+OOOO++++++++++++OOO+@++++++++++++++++++++++@@++@@###$#+OOO++O++++++@@+++@@@+++++++++++++++++++++++++++++++++++++++++++++++@@@@@@@@+@@@@@@++@@@@+++@@@@+++++++++++++++@+@###@++OO+++@@@++++++++++++++@++++@++++++++++++++++++++++@#$$@@+XoO+Oo+@OO+@@@@@@@@@@@@+@#@@@@+++++++++++++@++++@@@+++++++++++@@+++++++++++++++++++++++++++++++++++++++++++++++++++++++",
"+++@@@@#++@@#$$#@++OO+++++++@@@@@@+#%&&$###@@++O#@@@@@@###@@@@###@@@@@@@$&$@@##%@+O++O#@@@@@@@@@@@@@@#############@@@#################################@@#####@@@#######################@@#####@@@###&*&%&&$#####@@@@@@@@@@@@@@@@@@@@@@@@@@@@@#@@@@@@@@@@@@@@@@@@@#$$####@++++++++O+@++#$@@@@##@+OO+@@@@++++@@@@+++++++++++++++++++++@+O++++@@++++@@@@+++@@@+++@@@@@@@@+++@@@@@@@@+++++@@@#@@@#@@+OOOO++OO++++++++++++++OO+@++@@++++++++++++++++++++++++++++@++OOOO+++@@++@@@@+++++++++++++++++++++++++++@++++@++++@++++@++++++++@@@@+++++@@@@@++@@@@@@@@++++@@+++++++++++++@+@###@++O+++@@@@++++++++++++++++++++++++++++++++++++++++++@@&%@#@O+O+@+++OoO@@@@@@@@@@@++@@O@@@@@@@@@++++++++++++++++++++++++++@@@++O+++++++@+++++++++++++++@@@@@+@@+O++++++++++++++@@@@",
"+@@@@+@@@@#@###@@@++++++++++++++++OO@##@++@@@+++++++++@@@@@++@@@@@@@@@@#####@@##O+#@#@$@@@@@@@@@@@@@@#############@@@@##@@@###########################@@@@##$##########################@@#####@@@@@#&=-&$#@+++@#@@@@@@@@@@@@@@@@@@@@@@@@@@@#@@@@@@@@@@@@@@@@@@@@#$%$###@@@++++@@@OO+++@@%$#@@@@++++++@@##@+++@@@++++++++++++++++++@@@+++++@@+++@@@++@++@@@@+++@+++@@@@@@@@+@@@@@++++++@@@@@@@##@+OOO+++++++++++++@@++++OO+++++++++++++++++++++++++++OOO+++++OooOOO++@@@@@@+@@@+++++++++++++++++++++++++++++++++++++++++++++++++++@@@@@@+@+++@@+@@@@+@@@@++++@+++++++++++++@@+@#$#@++OO+++@@@++++++++++++++++++++++++++++++++++++++++++++$%$$@++Oo@@OO+OO+@@@@@@@@@#@+@@OOOO++@@@++++++++++++OO++@@+@@@@@++@@@@@+++++@++++OOOOOOO++++++++++@++++@+++++++++++++++@@@@@",
"@@@@+++++@@++@##@++OO++@++++@++++++++++++++@@@++@@++@@@@+++@##@@@@@@@@@###$$@+@+@###$$#@@@@@@@@@@@@@####@@@@########@###@@##########################$###$$############################@@@#####@@##@#&**#@@@++++@@@@@@@@@@@@@@@@@@@@@@@@@@@@@@@@@@@@@@@@@@@@@@@@@#$%$###@+++++++@@+++@@++##@+@#####@@@++O+@@@@+++++++++++++++++++++@@++@@++@+++@+++++@++OOO+@@++O++@+++@@@++++@@++++@@@@@+@@+@##@+OOOO+++++++++++@@@++++++++++++++++++++++++++++++@@@@++++OO++OoooO++@@@@@@++@@+++@@@@@@@@@+@@@@@+++++++@++++++++++++++++++++++++++@@@@@+@+++@@@@@@+++@@@@@@@@@++++++++++++@@+@#$##@+OOOO++++@@@@@@++++++@++++++++++++++++++++++@@++@@@+O@%%$@+@+O@+OO++++++++++++@#@+++OXXXoO+++@+++++@@@@+++++@@@@+@@@@@@@@@@@@@@@@@@@@@+++++++++++++++++#@+@+@++++++++++@@@@@@++++",
"@@+@@@@@@@@++@$$@++OO+++++++@@@@@@@@++@@@@@@@@++#@@++@@@@@@###@@@@@@@@@#$$$#@++@O+@#$%+#@@@@@@@@@@@#####@@@@@#######@###@@###########@############$$$###$$$#############################@#####@@#$#$*=*#@@@+++@##@@@@@@@@@@@@@@@@@@@@@@@@@@@@@@@@@@@@@@@@@@@@@@@@#$$####+++++++++##@#@+@@+++@#$###@@++OOO++@@@@@@@@@@@@@@@@@@@@+++@@++##++@++@@@+++O++++++++++++++++++++@+++++++++@@@@@@+++O+@@++OoOO+++++++++++@++++O+@@+++@+@@+++++++++++++++++++@@+OOO+@+oooooO+++@@@@@++++@@@@@@@@@@@@@@@@@@@@@+++++++++++++++++++++++++++++++@@@@@@@++++@@@@@+++@@@@@@@@@++++++++@+++@@@@#$$#@+OOOO++++@@@@@@++++++++++++@++++++++++++++++@@@+@@@+O#&&%$$$+@+o+@Oo+++++++++++##@@@O.XXoO+@@@+++++@@@@@@@@@@@@++++@@@+++++@@@@@@@@@@++++++++++++++++++@++@++++++++@@@@@@@@@@@@@@",
"@++@@@++@@@+O@$$#@@++++++++++++++@@@++@@#@@@@@@++@@@@@#####@@@@@@@@@@@@@%%$@#@++++@#$$@@@@@@@@@@@###################@@##@########@@@@@##################@####################################@#@#$$$&**%%#@@@@@##@@@@@@@@#@@@@@@@@@@@@@@@@@@@@@@@@@@@@@@@@@@@@@@@#$####@+OOOOO++@++@@@+OOO++@++++++++++++OOO+@##@@@@@@@@@@@@@@@@++@@++@@+++++++@#@+O++@##@++++@@@+++++++++@@++++++@@@@@@+++OO@@++OOOO+++++++++++@+++++++@++@+++@++++++++++++++++++++@@$$OOO+++++++O+++@@@@@+++@@@@@@@@@@@@@@@@@@@@@+++++++++++++++@++++++++++++@++@@@@@@@+++++@@@@++@@@@@@@@@@@+++++++@+++@@@@###@++OOO++@@@++++++++++++++++++++++++++++++++++++++++@@++$%%$&$+OOo@@++++++@@@@++@@@##@@@+o.X+#@@@++++++@@@@+@@@@@@+++++@@@++++@@@@@@+@@+++++++++++++++++++@+++++++++++++@@@@@@@@@@@@",
"+@@@@+++++@+O@$$#@+++++++++++@@@@@@@+++@@@+@@@@@+++@###@@+@@##@@@@@@@@@@%&%@+++++@###@@@@@@@@@@@@@@@@@@@@@@@@@@@@@@@@@######@@@@@#@@#@#####@#########@#######################################@#@@###$$$$%$##@@@@@@@@@@@@@@@@@@@@@@@#@@@@@@@@@@@@@@@@@@@@@@@@@@@@#$$###@@@@++OOOOOoO@##+XOOOO+++++++++++OO+++++++++++++++++++++++++++@+OO+++++OO++@@#@@++@@@@@@@+++++@@++++++++++++@@@@@@+++++@@++OOO++++++++@++@@+++++++++++++++++++++++++++++++++++@###@@@@@++++++++++++@@@+++@@@@@@@@@@@@@@@++++++++++++++++++++++++++++++++++++@@@@@@@++++++@@@++@+@@@@@@@@@@+++++@@+++@@@@#$@@++O+++@@@@++++++++++++++@+++++@@++@+@@+@@@@@@@+++@@@@+#%=*$##+++#@O@+O@+@@@@@@@@@@@@@++OXXo+@@@@+++++++++++++@@@@@@@@@@@@@+@@@@@@@@@@@@@@@@@@@++++++++++++++++++++++++++++++++@@@+",
"++@@@@++++@@+@$$++OOO++++++@@@@@@@@@++@@@+++@@@@@@++++@++++@@@@@@@@@@@@@##$$$#@#@@@@@@@#@@@@@@@@@@@@@@@@@@@@@@@@@@@#@@#########@##########@@#########@@###@#$$#@@###########################@@@@@@##%%##$$@++@@@@@@@@@@@@@@@@@@@@@@@@@@@@@@@@@@@@@@@@@@@@@@@@@@@#%%$$$####@+++++@@++@#%&@@++++++@@@++O++++++++++++++++++++++++++@@++@+OO++++++O+O+@#@+OOO+@@@+++++++@@@++++++++++++++++@@@@@@##+++++++++O++@@@@++++++++++@@@++++++++++++++++++++@@++@@###@@++OOOOO++@@+++@@@@@+++++++++++++++++++++++@++++@+++++++++++++@++++++++@++@@@@@+++++@+@@++++++++++@@@@+++++@@+++@@@@#$#@++OO++@@@@++++++++++@+++++@+++@@@@@@@@++@@@@@@+@@@@@++@#==$%&+@@OoO+Oo@@@@@@@@@@@++@#$O+++++@@@@+++++++++++++++@@@@@++@@@@@+@@@@@@@@@@@@@@++++++++++++++++++++++++++++++++++++@@@@",
"++@@@@++@@@@+@$$++OOO++@@++@@+++@@@++@@@@@@@@@@@@@@++++@@##@@@@@@@@@@@@@##%$$##%@@++@@#@@@@@@@@@@@@@@@#@@@@@@@@@@@@@@@####################@@@@########@###@@################################@@@@@##$%##@##@+@@@#@@@@@@@@@@@@@@@@@@@@@@@@#@@@@@@@@@@@@@@@@@@@@@@@#%%%%%$#@@@++@@@@@@++@$&%%$#@+++++++++++@@++++++++++++++++++++++@@+O++++++OO++O++++++++@@++++++@@@++++++@+++++++++++++++@@@@@##@+++O++++++++@@@++@@++++++@@@@@@+++++++++++++++++@@@++@@@@@@+OOooOO++@@@@@@@+@+++++++++++++++++++++++++++++++++++++++++++++++++++++++@@@@@@@@@+@@@@+++++@++++@@@+++@++@@+++@@@@#$#@@+OOO+++++@@@+++++++@+++++++++@@@@@@@@++@@@@@+@@@@@@++++&-**-=#@oo++@++@@@@@@@@@+OO@$&%%$#+O+@@@++++++++++++++++@@@+++++@+++++@+++@+++@+++@+++++++++++++++++++++++++++++++++++@@@@",
"@@@@@@@@@@@@++@@@@++++++++++++++++OO++@@@@@@@@@@@@@@##@@@@@#@@@@@@#@@@@#$&%++@@#@@+++@@@@@@@@@@@@@@@@@@@@@@@@@@@@@@########################@@@@############@@@#$##@###@@@######@####@@@@#@@@@@@@@@@#$#$$$#@+@++@#@@@@@@@@@@@@@@@@@@#@@@@@@@@@@@@@@@@@@@@@@@@@@@@#%%$$$#@@++++++@@@++++OO$$$#@++O++++@@++++@@++++++++++++++++++++++++++++++OOO+++@@+++@@@@+++@@@++++++O++++++++OO+++O++++@@@@@##+OOOOOO+++++++@+++@@@+++++@@@@@@++++++++++++++++@@@@+++@@@@@@+++OOO+++@@#@@++++++++++++++++++++++++++++++++++++++++++++++++++++++@@@+@@@@@@@@@@@@@@++++@@@@@+++@+++@++@@+++@@@@#$$#@+OOOO++++@@@@@@+++++++++++++++++@@@+++@@@++++@@@@@@@+++$%%$&-=*#++#++@@@@@@@@@@@+++#$&&%#@++++++++++++++++++++++@@+++++++++++++++++++@+++@++@+++++++++++++++++++++++++++++++++@@@",
"@@@@@@@@+++@OOO+@@+++++++++++@@@++++++@@@@@@@@@@@@@@@@@@@@@@@@###@@@@@@@#%%#$$@+++++++@#@@@@@@@@@@@@@@@@@@@@@@@@@@@@@##########@@@@########@@@@@@@#@##@####@@@#$##@##@##@@#####@####@@@@@@@@@@@@@@@#%%%$%$#+OO+@@@@@#@@@@@@@@@@@@@@@@@@@@@@@@@@@@@@@@@@@@@@@@@@@#$$###@@@@++OOOO++++@@+++@@@@++++@@@++++++O++@@++++++++++++++++++++++++++++OO++++++++@@++++@@@+OO+++++++OOOO++OO+@++++++@@@@@##+OOOOOO@#@++++++++@@++++++++++++++++@@@@@@@@@@@@@@@+++++@++++++++OO+++@@#@@++++@@+++@+@@@@@@@@@@@++++++++++++++++++@+++++++++++@@@@+++++@@@@@@@@@@@++@@@@@@@@++@+++@++@@@++@@@@#$#@@+OOO+++++@@@+++++++++++++++++++@@@@++@@@@++++@@@@@@@+++####@$&=&#+#@+@@@@@@@@+@@##@@@@####@@++++++++@@@++++++++++++++++++++++++++++++@++@@@@@+++++++++++++++++++++++++++++++++@@@",
"@+@@@@@@+O+@+O+@@@++++++++++++++++++++@@@@++++@@@@@@++@@##@@@@###@@@@@@@#$%@@@++++++++@@@@@@@@@@@@@@@@@@@@@@@@@@@@@@@@@@@###@@@#@@@########@@@###@@@#############@######@@####@@@###@@@@@@@@@@@@@@##%%#@$$#@++@##@@@@@@@@@@@@@@@@@@@@@@@@@@@@@@@@@@@@@@@@@@@@@@@#$#@##@+@@++OOOOooO+@@@+OOO+++++@++++++OOO++++++++++++++++++++++++++++++++++++++++++++++++++O++++++++++++OO++++++@@+@@+@@@@@@#@+++OOO+#$$#++++++++O++@++O+++++@#@@@@@@@@@@@@@@@@@+++++@@++++++++OO+++@@@@@@@++@@@@@@@@@@@@@@@@@@++++++++++++++++++++++++++++++@@@@@@+++++@@@@@++@@@+@@@@@@@@@@@+++@++@@+++@@@@#$#@++O+O++@@@++++++++++++++++++++@+@@@@++@@@@@+@@++@@@@@@++$&%#@$+#&$@+$+@@@@@@@@++@@######@@++++++++++@@@@@+++++++++++@@+++++++++++++++++++++++++++++++++++++++++++++++++++++++++@@@",
"++@@@@@+++@#@+@##@@++++++++++++++++++++@@@++++@@@@@@@@@@##@@@@@@@@@@@@@@#%%+@###@+++@@@@@@@@@@@@@@@@@@@@#####@#@@@@@@@@@@#@@@@@@@@@@#######@@@@#@@@@####@@##$##@@@##@@@@@@@####@#@##@@@@@@@@@@@@@+@#%%%%$#@+++@###@@@@@@@@@#@@@@###@@@@@@@@@@@@@@@@@@@@@@@@@@@@@#$#@##@+++++O+++@OOO+@+OO+OOO+++++++++++++++++++++++++++++++++++++++++++++++++++++++++O+++++O+++@+++++++++++O++++@@+@@+@@@@@@##@++OOO+$%%#@++@@+@+O+++++++@@@@$%++++++++++++++++++++++@@@@@+++++++O++++++@@@@@@@@@@@@@@@+++++++++++++@++++@+@@@+++++@@+@++++++@@@@@@@@+@@@@@@@@@@@@@@@@@@@++++++++@++@@+++@@@@#$#@++OOO++@@+++++++++++++++++++++@@@@@@++@@@@@@@@++@@@@@@$##%$++@@+@#+@OO+@@@@@@@$#@+@@@@@##@@+++++++@@@@@@++++++@++++++++++++++++++++++++++++@@+++++++++++++++++++++++++@+++++++++++",
"++++++++++@#$###$$@++++++++++++++++@+++@@++@@+@@@@@@@@@@@@@@@@@@@@@@@@@@#$%$#@@@#@@@###@++@@##@@@@@@@@@@#####@@@@@@@#@@@@#@@@###@@@@@@###################@####@@@#@@@@@@@@@######@##@@@@@@@@@@@@@#@#%$&&$@@+++@#@@@@@@@@@@@@@@@@@@@@@@@@@@@@@@@@@@@@@@@@@@@@@@@@#%$@+++O+@++O+@@++O++@#####@@++@++++++++++++++++++++++++++++++++++++OOO+++++++++++++++O+++++@+@@+++++@@+O++++O+++@@++@@@@@+@@#@@+++OOOOO%*$o+@@+@+++++++++@@@@@@&@oo+++@@+++@@++++++++@@@@@@@+++++OO+++++@@@@@@++@@@@@@@+++++++++@@@+++++++++@@@####@+++++++++@@@@@@@@@@@@@@@@@@@@@@@@++++++++++++@++++++@+@@@#$$#+OOOOO++++++@@@@@@@++++++++++@@@@@@@@@+@@@@@@@@+@@@+++@@@%%####O+%@OOO+++@@@@+$++@@##+@@@@@@@@@++@@@@+++++@+O+@+++++++++++++++++++++++++++++++++++++++++++++++++++++++++++++++++++",
"++++++++++@@@@@#$$$@+++++++++++++++++@@@@@@@@@@@@@@@@@@@@@@@@@@#@@@@@@@@#$$$#@@@@@@+++++@@@@@@@@@@@@@@@@@@@@@@@@##@@@@@@@###########@@#@@#@#########@########@@@@@@@@@@@@@@@@@@@@@####@@@@@@@@@@##@$$#$$##@@+@@@@@@@@@###@@@@+++@@@@@@@@@@@@@@@@@@@@@@@@@@@@@@@@#%$###@@@##@+OO+@@@@@+++++@@####++++++++++++++++++++++++++++++++++++OO+++++++@++++++++++++++++++++OOOOO+@++++OO++++++++++++@@@@@@+++OOoo@%&%++++++++++++++++++OO+@@++@@++++++@@+++++++@@@++@@@++OO++++++@@@+++@@@@@+++@@@++++++++@@++++++++++++++++++++++++++++++++++++++++++++++++++++++++@@@@@@+@+++++@@@+++#%%#+OOOOOO++@@@@@@@@@@@@@++++@@@@@@@@@@@@+@@@@@@@@@@@@++@@@@%%$###O+&%OoO+++@@@+@@@OO@++$@@@@@@@@+++@@@+Oo+++++OO++++++++++++++++++++++++++++++++++OO++++++++++++++++++++++++++++++++",
"+++++@+++@@@++@#@+@@+++++++++++++++++++++++OO+++++@@@@@@@@@@@@@@@@@@@@@##$$$#@@@@@++OOO+@@@+++@@@@@@@@@@@@@@@@@@@###@@###@#############@@@#@##@##@@@@@@@##@@##@@@@@@@@@@@@@@@@@@@@######@@@@@@@@@@@$$#%%$###@@@@#####@@@@@@@@@@@@@@@@@@@@@@@@@@@@@@@@@@@@@@@@@@@##+#%%##@##@+OOO++++++O+++++@#@++++++++++++++++++++++++++++++++++++++++++++@@@+++++++++++++++++++++++Oo+@+O+++O+++OO++++++@@@@@+@@++OOooo+%&+++++@@@@++++@@@@@++o@#@+@@++@@+++++@@@+OO@##@@++++++++++++@@@@@@+@#@@@+++@@@@@@@@@@++++++++++++++++++O+++++++++++++++++++++++++++++++++++++++++++++++++++++@#@+++#%$#@+++OOO++++++++++++@@@++++@@@@@@@@++@++@@@@@@@@@@@@@@@@@@##++@@+O@&%O++@@@@@@@@%$++++#@@@@@@@@@+@#@+++++@@++++++++++++++++++++++++++++++++++++++OO++++++++++OO++++++++++++++++++++",
"++@@@@@++@#@+++@@Oo+#@+++++++++++++++++++++O+++O+++@+@@@@@@@@@@@@@@@@@@##$$$##@@##@++@@@@@+++@@@@@@@#@@@@@@@@@@@@@##@#$##@@@@@@@@@@@@@####@@@@@@@@###@@@@@@@@##@@@@@@@@@@@@@@@@@@@####@@@@@@@@@@+++#$#%%$$$###@@#####@@@@@@@####@@@@@@@@@@@@@@@@@@@@@@@@@@@@@####$#@@@@@@@++O+@#OOOO++++@++OO++++++++++++++++++++++++++++++++++++++++++++++++++++++++++++++++++++@@@++OOO++++++++++++@@+++@@+@@@@+++OOOO.XO++++++@@@++OOO++@@@@+O+@@++@@@@@@#@@+%$#+O+@$##@++++++@+++@@@@+++@@@+O++@++++++++@@@@++@@@@@++++++@@@@+++@@@@++++++++++++++++++++++++++++++++++++++++++++++++@#@+++#%$#@+++OO+@@@@@+++++++@@@@@@+@@@@@@@@+++++@@@@@@@@@@@@@++@@@#@+++++OO#%@++++@@@@@+#$@+++++@@@@@@@@++++++@++@@++++++++++++++++++++++++++++++++++++++++++++@@@+++++++++++++++++++++++++",
"+++@@@+OO+@@+O++oXO@++++++++++++++++++++@++@@+++++++++@@@@######@@@@@#####$$$#@@##@+@###@@@@@@@@@@@@@@@@@@@@@###@@###########@@@@@@@########@@@@@@@##@@@@@@@######@######@@@@@@@@@@@@@@@@@@@@@@@@@@#$#$$$$$$##@@####@@@@@@@@######@@@@@@#####@@@@@@@@@@@@#@@@@@@#$$@@$$#++++O+@#@@++++++++++++@@@++++++++++++++++++++++++++++++++++++++++++++++++++++++++++++++++++++@@OO+@++++O+++++++++++@@@@@++++++++Xo+@+++++@@@+++++++++++++O+@@++#@+@#%%$####@+@####@@++++++++@@@+++++++++++@@@@+@@++++++@@@@@@@@+++++++++++++@@@@+++++++++++++@@@@@++++++++++@@@@@@@@@+++++++++++@@+@@@#%$#@@++OO++@@#@@@@+@@@@@@@+++++@@@@@@@@@@@@@@@@@@@@@@@@@@@+@$#@@@@+++O@#O+++@@@@@+o+$@+@@@@@@@@@++@+O+@+++++++++++@@@@@@@@++++++++++++OOOOOOOOOO+++++++++@@@++@@+++++++++++@++++@++++",
"++++@@@+O+@@@+++++@@OO+++++++++++++@+++@@++@@++@@++++++@@@@@@@@@@@@@@#####$$$#@@+++++@@@@@@@@@++++@@@@@@@@@@@@@#######@########@@@#@#####@#####@@@@@@@@@@@@@@@@@@@@@###@@@@@@@@@@@@@@@@@@@@@@@@@@@@$$#%%%$$##@@@@@#@@@@@@@@@@@@@@@@@@@@@@@@@@@@@@@@@@@@@@@@@@@@@#$#$%%#@++@@+++@@@@@++++O++@@@@@@+++++++++++++++++++++++++++++++++++++++++++++++++++++++++++++++++++@#@++++++++++++++++++++@@##@O++++++++OO+++++++++++@@@@@@+++++++@@@+++++++++OoO+@@@##@@+@@+++OO++@@++++++++@@@##@+++@@+++++++++++++++++++++++++++++++++++++@@++++++@@++++++++++@@@@@@@@@@++++++++++++@@@@###$$$#@@+OOoO++@@@@@@@@@@@++++++@@@###@@@@@@@@@@@@@@@@@@@@@@@###@@###+@@@@+++@@@@@@#++#####@@@@@@@@O@#@@@++@@+++++++++++++++++++++++++++++++++++++++++++++++++@@@@@++++++++++++++++++++",
"@@@++@@@++@@@@@@$%@O++++++++++++++@+++@++++++@@@@@@@@@@@@@@@@@@@@@@@@@@#$$##$#@+OO+++@@@@@+++++++++@@@@@@@@@@@@##@@@#@@+@@++@@@@@@##@@@@@@@@@@@@@@@@@@@@@@@@@@@@@@@@@@@@@@@@@@@@@@###@@@@@@@@+@@@@@$%$&&%%$#@@@@@@@@@@@@@@@@@@@@@@@@###@@@@@@@@#######@@@@@@@###$%#$$@@@@@@@+OOOO++++++++++++++++++++++++++++OO++++++O+++++++++++++++++++++++++++O++++++++++++++++OO+@@@@++O++@@@@@+++++++++@@@++++++++++OO+++@@+++++++@@@@@@@@++@@@@@+O+++OoooOXo+@@@@#@@@@@++++@++++@@@@++++@@##@@++@@@+++@@++@@@@@+++@@@@++++++++OOO+++++++@@++++++++++++++++++@@@@@@@@@@@+++++++++++@@@@@@#%$$#@@@+OoOO++++++@@@@+++++@@#######@@@@@@@@@@@@@@@@@@@@@@@#$#@+@##@+@@++++@+@@+@@@@+@@+++@@@@@@++++@@++++OO+@+++++++++++++++++++++++++++++++++++++++++++O+++@@@@++++++++++++++++++++",
"++@++++++++@@####$@OO+@++++++++++++++++++++++++++@@@@##@@@@@@@@@@@@@@@@#$$##$#@++++@####@++++++++@@@@@@@@@@@@#@###@####@@@@@@@@@@@@@@@@@@@@@@@++@##@####@@@@@@@#@@@@+++@@@@##############@@@@@@@###%%$%%%%#@+@@@##@@@@@@@@@@####@@@####@@@@@@@#########@@@@@@@@@#$###$%$##@+OO+++++++++@@@+OO+OO+++++++++OOOOOO+++++O++++++++++++++++++++++++++++++++++++++++++++++++OO++++OO+++++++++++++++@@@@@+++++++++@@+@@+@@+++++++++@@@@@@@@@+++++++OOO++++@++@@###@++O+++@+++@@@@@++++++++++++@@+++@@@@+@@@@@@@++++++++++++++++++@@@+++++++++++++++++++++@@@@@@@@@@@@@@@@@++++++@#@@@@#&$$#@@@+OO++@@@++++@@@@@@@@@########@@@@@@@@@@@@@@@@@@@@@+O@%%#@@++@+O++O+++++@@++@####@++@@@@@@@@+++O+#@+++O+@+++@@+@@@@@+++++++++++++++++++++++++@@++++++++@@@@++++++++++++++++++++",
"O+@@+O++++@@####@@++O+@+@@@@@@@@@@++@@@@@@@@@@@@@@@@@@@@@@@@@@@@@@@@@@@@$#@###@@+++@####@++O++++@@@@@@@@++@@@@@@##@@@@@@@@@@@++@@@@@@@@@@@@@#########$$#####@@@##@@@@@@@####$$$$##$$$$$$$$######$%$%&$#$&&$@+@#@######@@@@@@@@@@@@@@@@@@@@@@@@@@@@++@@@@###@@@@@#$###@@@###+OOOO#@+@@@+++@+OO+++++++++++++++++O++++++++++++++++++++++++++++++++++OOOOOOOOOOOOOOO+@##@OO++++++++++OOO++++++@@@@@@@@+++++@+OoO@++++@@@@@@@@@@@@@@+++++++++++@@@@@+++@@@@##&%++@@#@OOO+++@@@@@@@+@@OO++++@@@+++@+++++++@@@++++++++@@@@@@@@@@@@@++OOOOOOOOOO+++++++++@@@@@@@@@@@++++++++++++@@@@++#%&$#$$#@+@@@@###############@@@++%$$$$$$#++@@@@@@@+++++++@+++@@@@++@OOO+OO+++++++++++++@@+@@@@++@@+@@OO+@@@@O++++@@@@@@++++++++++++++++++++++++++++@@+++@@++++++@@+@+@#@##@@@@@@##@@@",
"O+@@@++++@@####$$$#@+++@@@@@@@@@@@@@@@+@@++@@++@@@+@@@@@@@@@@@@@@@@@@@@@%%$###@@@@++@@@@++++++++++++@@@++++@@@@@@##@@@@@++@@@+@@@@@@###@@@@@#################@@@@@#######@@@@@@@@@##############$$#%%##*&%%%$@@#######@@@@@@@@@@@@@@@@@@@@@@@@@@@@@@@@@@@@@@@@@@$$%#@$$$##$$@OO+@@+@@@@+++@@+++++++++++++++++++++++++++++++++++++@+@@@@@@@@++++++++++OOOOOOO++++++++++++@@@@@OOO@++++++OO++++++@@@@@@@@@#$#####@@####@@@@####@@@++@@@@@@@@++++@@@##@@@++O#%#+@+OoXXoooOOOOO++++@@@#@@@@####@@@@@@@@@@@@@@@@@@@++++@@@@@@++++++OOOOooooooOOOOOOOOO+++++@@@@@@@@@+@@@@@@+@@@##+O++#$$@++++++@@###$$$$$$$###@@@++OOOOoOOOOooooooooooooXXXXXXXoOOO+@#@@OO+++++@@@@@@@+++@@@@@+@@@+@@@@@@@++@@@@@#@++@@@@@@+++++++++++++++++++++++++++++++++++++++++++@@+@@@@+OOOOOO+++++",
"++@++++++@@@@@@#%$#@@@@#@+OOOO+@@@@@++@@+++@++++@+@@@@@@@@@@@@@@@@@@@@@@%&&$####@@++++++++++@@+++++++++@@@@@@@@++@@@@@@@+++++@@@@@@@@@@@@@@@@@###@@@@@@@##@####@@######@@@@+++++++++++++++++++++@###$#$&$@$&$+O+@@@@@@######@@##################$$$$$$$#####$$$$%#@@@@##@+#%$OX+O+++++++++@@@@@++++++++++++++++++++++++++++++++++@@+@@@@@+++++++++++++++++OOOOOOOooooO+++O++OoO++++++OOOO+++++@@@@+++OOoO@##@############$$$$$############@#$##$###@+OooO#$+XXoooX.  ...XX..XoXoOO+OoooOOOOOOO++++++++++++++OOOOOOOOOOOOoooOOOOOoooXXXXXXXXXXXXooXXXXXoooOO++++@@@@@@@@@++OOOOoO+#$#OooooXXXXXXXXXoXXX.......     ...........XXXXXX. .XXXXXO+@#####@+OOooO+@@@@+++OO++++++@@@@@@@@@+@@@@@@@#$#@@@@@@@@@@@@@@@@@@@@@@@@@@@@@@@@@@+++++++++++@@++++++O+OoOOOOoOoooOOOo",
"++++++@@++@@@+@@%$@+++++++++++++++@@++@@@@@@@@@@@@@@@@@@@@###$$$$$$$$$$%%$#%%$##@@+OO+++OooOOOOOOOOOOO++@@@@@+++++++++@@@@+++++OOOOOOO++@@@@#####@@@@+++++++@@@@@@@@+++++++++++++++++++++++++++++@###%$#$@#$#+OO+++@@##$$$##@+++@@#######@@@########$$$$$%%%%%%%&%#$$#$$$@+#$OXooOOOooOOOOO++++@oooOOOOOOOOOOOOOOOOOOOOOOOOOOO+++++O++++OOOOOOOooooooooooooXXXXXXXooooOOooOOO+@@@@@@+++++@@@##$$#@+OOOOOoXoo. .XooooXXXXXXXooooooooooooooooOOOoooooO+++O+OoO+OOOoo. ....XX.  .....XXX.....XXooooooooOOOOOOOOOOOOOOoooooooooooOO++++OOOOOoooooooooXXX....XXXXoooooooOOOOOOOOXO+O@#@@#@OooXXXXXooooooooXXXXoooooOO .X....XXXXXXXXXooXX.XXOOOOO+@++++@@+o. .XXXXoooXXXXXXXXooOOOooOXOoooOoOOOOOO+++++++++++++++++++@@@@@@@@@@@@@@@@@+++++++++@@@@@@+++OOo..XoX.XXXXX...",
"+++++@@@++@@@@@@@@+OOOO+###############@#######@@@#####$$##############@@@$$$$#@@+OoooOOooXXooooOooooOOO+++OOOOOO++++++@@@@++@+OOOOoOOO+++@@@@@@@+@@++O++OOO++++++OOOOOOOO+++++++@@@@@@@@+++++OOOO+O@%&%%%$$%%#@##@@@@@++++++++++++++++++++++++++OOOOOOOOOOOooooO+$@@###$#@@#@+OOooooooooooooooooooooooooooooooooooooXXXXXooooooooooooooooooooooooooooooooooooooXXXoooOOO+@##$##$$$$#@@@#####$$$#@+++@##@OO+OXoOOOOoooooooXXXXXXXXX.....XXoX.XXXoooo+@+OO+@+++ooOooXoooooOooXXXooooooOOOoooOOOOoOO++++++++++++++++OOOOO+++OOO+++@@+++++OOOOOoooooOOOOOOOooooooXXooooOOOOO++o+@+#%#++@@++oooooooooooXXXXXooooooooooooXXXXXXXooooooooooooooO++@@#$++++Oo. ........X...XXXXX..X..XXXXXooXXoXXXXXXooooooooooooooooooooooooooooooooooooooooooOOOOOoooooOXXX ...    .oXXX.",
"O+++++++OO+@@@++OOOoOOO+$$$$$$$$$$#@##@@@@@@@@++++++++++++OOoooXXXXXXXXXo+@####@++OOoooO++OoooOOOooooooooooooooooooooooooooooOOoOO+++++OOOOOOOOOOO+++++++++OOOOOOOOOOOOOOOOOOO+++++@@@@@@@++++O++@@+$%$%&&$#$&%@#@@@++OOOOO++@@@++OOOOOO+++++OOOOO++++OOOOOO+++++@@@@@+O@@#@+@#@++O+++OoOOOOoOooooooooooooooOOOOOOOOOOOOOOOOOOOOO+++++++++++++++++++++OOOOOOOO+OOoXoOooO@@@$$#@+#####@@@#########@@+++O++Oo+@@+++OOOoooOOOOoooooOOOOOOOOOoOooO+OOOOO@#@@O#####$++OOOooO+OoO++OoOOOoooO++OOooOoXX+++++++++@@@++++++++++++@@+++++++++++OOOOOooooooooooOOOOOOOOOOOooooOO++@@Ooo@##@$$$##$$##@@@+++++OOOOOOOOOoooXXXoOOoooXoXooXooooooooOOOO@##@@@@@@+OoooOOoXX.....XXXXXXooXXoooXXoOoOO+OOoXXoooooXXooooXXXXXXXXXXXX........................... .....X.XX.XX....  XOOOO",
"O+++OOOOOOO+@@++++++OOooXXXXXXXXXXX.XX..........XX..   ......XXXXXXXXXXXOoo+#@@@++++OO++++++OOOOOOOOOOooooooooooOOOOOOOOoOOOOO++++++++++OOOOOOOOOOOO++++++++++++++++++++OO++++++++++@@@@####@@@@#$$$%%$&&%%#@@#$++@@@@######@@@@@@+++++++++++++++@@@@@@@+++@@@@#@+O#%$$###%$@@@#######@++@@@+++++++OOOOOOOO++@@@@@@@@@@@@@@@@@@@@@@@@@@@@@@@@@@@@+++++++O+OOOOO+++OO++O+@#####@@++@@@@@##$$####$$$$##@+++@+++@+OOOOOOooOOOOOOOOOOOOOOOOOooooOOOOO+OO+#%%$#%%$#@%@++OooO+OoO+++++OOOOoOOO+OOOOOOOO+++++@@@@###@@@@@################$$$$$######@@@@@++++OOOO++++++$####$&**&%%&&&$@$&&&&%######$$$##@@@@@@@+++OOOOOOooOOoooOOOOOOOOOOOO+@@@@++@@@+@@++OO+OOooXXXX.XXooooooooOOOoooOOO+++OooO+OOOOOO+++OOOOOOOOOOOOooooooooooooooooooXXXXX.XXX..XX..XoXoOoOOOoOOX .OOO+",
"O+@+OoO+++O++@@@@@@@@+OoXXXXXXXXX.XX..XX..........XXXXXXXXXXXXXXXXXXXXXXXoOOO+@++OOO+@++OooOOOoXoOOOOOOoooooOO+++++OO+++O+@@+++@+++++++++@@@+++++++++++++++@++@@@@@@@@@@@@@@@@@@++@@@##$$$%%%%%%%&=&&%$&&%$$%%%$$%$$$$$$########++++@@@++++++++@@+++@@@@####@@@@#$&%$%%%%%%%%%$#@###@##$##@@@@@@@@@+++OOO++@@##$$########$$$$$$$$$$$$$$$$$$$$$$$$$$$$$$$$$######@##++@$$$%%#@#$####$$$$$%%%$###$$####@+++++OoOOOO+++++OOOO+++OOOOOOOOOOO+++++OO+@#@OO+####$%$++###+O++OO+@+O+@#@oO+++OOO++@@@@##$$$%%%%%%%%%%%%%&&&&&&&%%%&&&&&%%%%%&%%%%%%%%%%$$$$##########$$$&&&&&%%%=-&%@#&$##%*=&%%&&&%%%$$$$#######@@@@@@#+OoO+@+++@+@@@@@##@@+@##########@#$$#+oXooOO++OOO++++OOOOooOoooOOooOOOOO+@@@#@+#@@@@@@@@@@+++++++++++OOOOOOOOOOOOOOoOOooooooOOOooOOO+@+@@@O+@+oXOO++",
"O@##@++@@++@@@@@@@@###@++@@@@@@@@+++++OOOOoooooXXXXoooooooooooooOOoooOO++@@@@@@@@@@@@@@@++++++++@@@@@@@+++++++@@@++++@@#######$############@@######@@####@@@@@@###########@#%%%$$$%%%%%%%&%#$*=****&&&&&&&%%%&&*$$$$$$%%%%%$$%%%$$$$$$$$$#@#$%%$########$%%$#@#$&&&&&&&%%%%%%%%%%%%%%%&&%%%&&%%$$$##@@##$%%%%%%%%%%%%%%%&&%%%%&%%%%%%%%%%%%%%%%%%%%%%%%%$$$####@@%$#$$#&--$##@#$$#$%$$#%%%%%%%%%%%%$####+#$#@+@#$#######@@@@@@@@@@@@@@@@@@@@@@@@++@##+@$@@@@@@@@@@@##############@@#+++@@@@@#$$#&&&&&&&&======***=--=**************&%$&=*&%&*&%%$@@@####$%$#$$$$%&*==*&&&&&&&&&&&$$*%%*&&&&&&&&&&&%%$$################@@################$%%%&%%&&&&$$#@@++@@@#@+@@+@##@+++@++@@OOO++++@####$$$$$$#######################@@@@#@@@+++@@@++OO++OO+OOO+###$&%#@@$%$@O+++",
"@@@##$$$$##$$$$$#$$$#####@@@@@@@@@@@@@@@@@@@@@@@+OOO+@++@@@@@@@@@@@+@@@#@@@@@############$$##$$#%%%%%&%#$$$######@@@@#######$$%%$$$$$$$$$%$$%%%%$%$$$$$%$$$$$$$$%$$$$$###@##$%%&&**=***=-&%%%#$&%%&&*=====*&&&*=*&&&&&&&&&&&&&&&&&&&&&&&=*%%&***&&&&&&&&&%%%$$$%&&&&&&&&&&**&&&&&*&&&&&&**==*&&&%%%$$$%%%%&&&&&&&&**************&&**********************&&&%%%$@#%&%&-=$%&$$&&&&%%&*&*&**&&&&&&&&&%%$$$#$$%&&%$$%%%%%%$$$##@@+++@@##$$%$###########%%$$&#########################@#$#########$$$*******=====----*-;:;-=---==***&********&%%&*&$%%#+@@#@+@@@+@@$&---;::::>>::;;;--===*=-;=========**&&%%%%%%%%%%%%%$$$$$$$%&&&&%$%%%%%%%%%%%*=*&***&%$$#++@###$$$####$$###@#@+@@+OO+@@@#%%%%&&****&&&&&&&%%%%%%%%%%%%%%$$$$$#######@#$$#@+@@@O+#+O+#%%&&***&&%%$$+++@",
"$$$%&&*=--==**&&%%$$$$$$############$$$$$$$$$$$$##@@#$$$$$$$$$$$@#$%%%$#$$$$$$$$$$$#####$%%%%&*&&&&&&&&%%$$$##@@#$$%%$$$$&***&%%$$$%%&&&**&&****&*&&&&&&&&&%%%&&&&%%%%$$$$$$$$&&*=--===-::;-=*&&&&*-:::::::;;;;;;;--===***==***********===*&&*=====*****&&&&&************==================-=*&&%%%%%%&&&&*===&&&&&&&&&&&&*******&*************************&&&%@%#&=*=-*&&=*=-==--*&*-=&=&==&*-*&%%%%%%%%&&&%%%%&%%%%%$$$$$$$$$$########$$$$$$$$%&$$&&%$$$$$$$$$$$$$$$$$$#$$$$$$%%@++@@@@@##@@%=------------;;;;;---:>:;;;;;;;;;;;--;;=*==***&&**&$@##@++OoOOO@$==***=-;;;;;::>>:>>-;:-;::::::::::;;---==========*&&&&&&========--------=*=--;-===*%$$$@##$&*&&*===*&&**&$#&*$@@+OoO+#$$%&**-;-*-------======*************&%$$$$%$$#$$$###+OO+@++@$&===*;---=***&&&&",
"%&-;-=-:>::::;;;-=****=*&&%%$$###$$$$$$$$$$$$$$$$#$$&&%$%%%%%%%%%%%&&&&&&%%%%%%%%%%$$$$%&**&&*=**===*==*%$$#@@@@#$%&&&&%%&&&&&&&*********=***=========****&&&&&&***&&&%%%$###$%**=---==->:::;--->>>,,,:;<<<<,>;;-;:>>:;-*-::;----=--;;::;;-;:>>>>:::;;---=**=--=&*-;;;---;;;;;;;---;::;;-=*-;-=%$$##$$%%*=-;;-=*==*=*******=********===************=*****=*&&**&%**&%$&;--:;-=-;--=====---=======**********&%%%%&&&%%%%$%%%%%%%%%%%%%%%%&&&&&&&&&&***=--;;;--===*****&&&***&***&*=&#@$$$####@#&=;;;;;;;;;;;;;;;;;;--;:::::::::::;;-;;;-*=-===*&*=-*#@+O++o.XooO@###@@+OOO++@@####$%#%%@@$$$$$$$$*&&%&*=-==********&&&&*******************=-*&*===--=*=*&&&%&==*%***&&&&*&%%*=*%%##$#@@##%*--==--;:::::::;;;;;;;;----======*&%%%%&%%$##$$#$#OO+++++@#$$$#====**&&%%%$",
"-==;::>>>:::::;;---=**=--==**&&&&&&&&&******=====*&&&&&%&&&&&&&&****=======================**==*-;;;;;-*&%$###$%%%&&&&&&%$$$$%&*---==******==------;;--=====*****====*&%##$$$&=;;:>>>>>>,,,,,,,,,,,,,,>::>>,,>>:>>>>>>>>>>>>>>>>>:::::::>>,,:::::::>>,,,,>:>,,,>>::>:>>>>>>>>>>>>>>>>>>>,<,,,,,;@@@@@##$$-,,,<,>>>>>>>>>>>>>>>>>>>>>>>>>>>>>>>:::::::::::::-=--=%%&%#$=:>::>>;;-;::>:;;;>;==-;;;;::;----==**&&%&&*&&&&&&----------------:::::::;;:>:;>>::::::::::::;;;;:::::::::;-;-&#####$$$&&%$%&&&&%$%&%%%%%%%%%%$$%%$$$$$$$$#@##@@@@###$%$##$*&#@OoO+o.XoOO+@@@@@@++##++++####@@@#@+++++++++++++++++++++++++@@#$$$%$#@++++@#@++++++++@@@+++++@$%&===**$@@%%@@@@@##@+#$$@+#$#+@$%$$$&*=;>>:>,,>>>>>>>>>>>>>>>>>>::::::;;;;;--===*%$$$#@@+oo+OOO++++++@@@@++++OOOO",
":;-;-=---**=;;;=----==--------------------------;;;---;;;;;;;;;;--;:;;-=----------------===----->>::>>;**&$##$%%&=-;;;---;;;;;;;;;:::::::::::::::::::::::::::::;-;:::-*%$$$$%%*=;:>>>>>>;--:>>;=*&&&*=--##$%&*=-&&&%%$$#%%O*&&&&&***&$@+@#$$@+O+++@@##$$%*==&%&=-&#+@$$$%%%%%%%%%&%$#$%&==&%%&=&##@@@###$$%%&&&**=====**======================***********==****=%#$%#&-=::==-==*=;-*-==%#%&%&=-=*&&&%%$$%%%$$###$$$$$$$$$$$%%&&&&&&&&&&&***==----=-=&&&%$$$$$$$$$$####$$$$$$$$$$%&**%@+#$#@@#$@+OOOOOOOOOOOOOO+OOO++++@@++++++++++++++@##@@@####+#$@@+OO++ooooO+++++++@@@@@@@@@@####@@#@@@@@@@@@@@@@@@@@@@@@@@@@@@@@@+++++++++++@@@@@@@@@@@@#####@++OO@#@+OO++@@@@@@@@###$%#@++O++@$%%&*=---;;;=**********============--====--==*=--=***&#XoXXOoOO++@@@#OOO+++@+++++",
"&%$%$@OOO+@$%*-;--==--=*@%*=*&*****&&&&%%%%%%%%$@#%&&&**========&&%%$$$$$$$$$$$$$$$$$$$$*&*====-;;--;::-&%%$####$*-;;;;--;;;;---;;;;;;;;;;:>>:>>:;:::::::>>>>>>>>::>,>=%$$#@@@@@$%&&%%%&#+O+@#@O@+OO+###@@+++++++++++++++++OO+++++++++++++O+@@@++@+++OOOOOO++OOOOOOOOOOOOOOOOOOOO++OOO++++o+@#&%$$######@@@+OOOoooooooooooooooooooooooooooooooooooooooooooo+@@@$$*%+#$@+#%@O++O+OOooOo+++#$$@+O++OoOOOOOO++++++OOOOO++++++++++++OOOOOOOOooooooooX.XoX.XO+++++++++OOOOOO+++++++++++@$%$@@##@@##@+++++++++++++++++OOO+@#@@@@@@@@@@@@@@++@@@@@@+@##@@#@@+OoO+OooOO+@@@@@@@@@@@@@@@@####++@@@@@@@@@@@@@++@@@@@@@@@@@@@@@@++++++++++@@@@@@@@@@@@@@@###@@@@++++++@+O+%###@@@##$$$$@OO+@##$%&&&*&$+OOOO+++++OOOO++++++++@@@@@@@@@@@######$$%%%%&#XoOoOoooO++++@++++++++++++",
"#+O+@+O++@+O@%$++@##@+++++++++++++++OOO+++++++++OO++OO+@@@@@@@@@&%$####################$###$$##$%%$#$&==%%%%$#@++++O++++++++++++++++++++++@##@###@@@@###########$#@#%&%$$#####@+++@@@@@@@@#######@@@@@@@@@@@@@@@@@###################@@@@+++@@@@@@@@@@@@@@@@##@+++++++@@@@@@@@@@+++@#@++@@@$#$&&$$$#####++++++++++++++++++++++++++@@@@@@@@@@@@++@@@@@@@@+++@#++@$&%#+OO+@@@+@@O@++@@@+##@@@@@@++@@@@@@@@@@@@@@@@++++@@@@++++++++++++++++OOOOOOOO++OO++O+@@@@@@@@@@@@@@@@@@@@@@@@@@####@++@#@+++++@++++++++++++++++++++++++++++++@@@+@@@+O+@@+@#@@@##+@@+OOOooOOOOOO+++++++@@@###@@@@@@@@+++++@@@@@@@@@@@@@@@@@@@@@@@@@@@@+++++++@@@@@@@++O@@@@+O@@@##@@#@@#@+O+@@@@@@@@@@####@Oo@+O+#*-*#OOOOoO+++++++++++++++++++OOOOOOO+OOOO+++OoOO+++@#@@#+OOoXo+@++@@+++++++++++",
"@@@@@@@@@+++++++++++++++++++@@@@@@@@++++++@@@@@@@@@@@@@@@@@@@@@@################################*%#++#%&%%%$##@+++++++++@@@@@@@@@@@@@@@@@@@@@@@@@@@+++@@@++++++@@@+@#$$$@####@@@@@@@@@@@@@@@@#@@@@@@@@@@@@#@@@@@@@@@@@@@@@@@@@@@@@@@@@@@@+++++++@@@@@@@@@@@@@@@@@@@@@@+++++++++++@+++++++@#@#%%$$@+OOoO+++@##@+++++++++++++++++++++++++++++++++++++++++++@+@@+O++@$#+O@@XO@+@##O++++++++++++++@@@@@@++OO++++++++++++++++++++++++++++++++++++++++++++++++++++++++++++++++++++++++#$$+oooOOOO+OooO++++++++++++++++++++++++++++++@@@@@@@+@+@+@@@@@@@@$$@@#@OOOO+++++@@@++++++@@@@@@@@@@@@@@+++++++@@@@@@@@@@@@@@@@@@@+@@@@@@@@@@@@+++++++++@@@@@@@@@@@@@@@@@@+@+@++++@@@@@@@@@#$$+o@@@$%%&%#OOO+O+@@@@@@@@@@@++++++++++++++##@@++++O+++++++#$$#@+OOooO+@+@@+@+@@+@+++++",
"++++++++@@+++++++++++@@@+++++++++@@@@@@@@@@@@@+@@@@@@@@@@@@@@@###############################@@@@@++@#$%$#@@@@@@@@@@@@@@@@@@@@@@@@@@@@@@@@@@@@@@##@@@@@#@@@@@@@@@@++@$$#@@###@@@@@@@@@@@#@@@@@@@@@@@@@@@@@@@@@#@@@@@@@@@@@@@@@@@@@@@@@@@@+++++++@@@@@@@@@@@@@@@@@@+@@@+++++++++++++++++@++@++##@#@++OOO+++@##@+++++++++++++++++++++++++++++++++++++++++++@+@@+O+OOO+OOO+++++++++++++++++++++++++++@##@+O++++++++++++++++++++++++++++++++++++++++++++++++++OOO+++++++++++++++++@@@#@@@+OooXooOOOO++++++++++++++++++++++++++++++@@@@@@++@@@@@@+@@@@@$$@+@@+O+@@@@@@@@@@++@@@@@@@@@@@@@@@@@@@++++++++++++++++++++++++++++++++++++++++++++@@+@@@@@@@@@@@@@@@+++@@@@@++@@@@++@+++@@#$O+#$$#++@@+O+@+OO+++++@@@@@+++++++++++++++++++++++++++++@$$@+OoOOoO+@+@@@@+@@+@+++++",
"@@@@@@@@@@+@@@@@@++++@@@@@@@@@@@@@@@@@@@@@@++++@@@@@@@@@@@@@@@@@@@@@@@@@@@@@@@@@@@@@@@@@@@@@@@@@XoO@##$$$#@@@@@###@@@@@@@@@@@@@@@@@@@@@@@@@@@@@@@@@@@###########@@#@#%%#$#@@@@@++@@@@@@@@@@@@@@@@@@@@@@@@@@@@@@@@@@@@@@@@@@@@@@@@@@@@@@@@@++++@@@@@@@@@@@@@@@@@@@@@@@@+++++++++++++++++++@@@@$$#@++++OO+++@##@+++++++++++++++++++++++++++++++++++++++++++@+@@+O+Ooo+@+O++@@@@@@@++++++++++++++++++++++++++++++++@+@+++++++++++++++++++++++++++++++++++++++OOOOOO+++++++++++++@@@@@##@+OooooXoOoX++++++++++++++++++++++++++++++@@@@@++++@++@@+@@++@#$#@#$#@@#@+++++@@@@@@@@@@@@@@@@@@@@@@@@++++++++++++++++++++++++++++++++++++++++++++@@@@@@@@@@@@@@@@@@@++@@@@@++@@@@+++O+++@#$O+@##@+OO++OO+OooooOOOO++++++++++@@@@@@@++++++++++++++++++OOOooOOOO+++@@@@++++@+++++",
"@@@@@@@@@@+@@@##@+++++@@@##@@@@@@@@@@@@@@@@@@@@@++++++++@@@@@@@@@@@@@@@@@@@@@@@@@@@@@@@@@@@@@@@@+++@##$$$$$###@@@@@##################################################%%%$#@+@##@@@@@@###@@@@@@@@@@@@@@@@@@@@@@@@@@@@@@@@@@@@@@@@@@@@@@@@@@++++@@@@@@@@@@@@@@@@@@@@@@@@++++++++++++++++++@@###%%$@++++OOO++@##@+++++++++++++++++++++++++++++++++++++++++++@+@@+O+Ooo+@+OOOOOOO+++++++++++++++++++++++++++++++++++++++++++++++++++++++++++++++++++++++++++++++++OO++++++++++++@@@@@@##@+OoXo++OooO++++++++++++++++++++++++++++++@@@@@+++@@++@@@@@++@#$$$$%%@+@@+++++@@@@@++++@@@@@@@@@@@@@@+++++++++++++++++++++++++++++++++++++++++++++++++@@@@@@@@@+@@@@@@+@@@@@++@@@@++@@@@$#+oO++++O++O+@@+oO@OOOOOO++++++@@@++++++++++++++++++++++++++@@++OoooOO+++++@@++++@+++++",
"@@@@@@@@+@@@@@##@@@@@@@@@@@@@@++@@@@@@@@@@@@+++@@@@@@@@@@@@@@@@@@@@@@@@@@@@@@@@@@@@@@@@@@@@@@@@@@@@@##$$$$$$##@@@@@@@@@@@@@@@@@@@@@@@@@@@@@@@@@@@@####@@@@@##@@@@#@@@$%%##@@###@@@@@#####@@@@@@@#@@@@@@@@#@@#@@@@@@@@@@@@@@@@@@@@@@@@@@@@@@@@@++@@@@@@@@@@@@@@@@@@++@@++@++++++++++++++++@@@@$$#+++++OO+++@##@+++++++++++++++++++++++++++++++++++++++++++++@@+OOoXXoXoO++++++++++++++++++++++++++++OO++++++++++++++++++++++++++++++++++++++++++++++++++++@@@@++++++++++++++++@@@@++@$%$@OO+@@OO+++++++++++++++++++++++++++++++@@++++++++++@@+@@@O@@$%%%**#O++++++++@@@@+++++@@@@@@@@@@@@@@++++++++++++++++++++++++++++++++++++++++++++@@@@@@@@@@@@++++++@@@@++@@@@@@@@@+@@@@+++++OOOOO+++++++++@@+++OOOOOOOO++++++++++++++++++++++++++++@@@+OooooOO++++@@@O+++@+++++",
"+++++++++@@@@@@@@@@@@@@@@@@@@@@@@@@@@@@@+@@++++@@@@@@@@@@@@@@@@@@@@@@@@@@@@@@@@@@@@@@@@@@@@@@@@@++@@#$$$$$##@@+++@@@@@@@@@@@@@@@@@@@@@@@@@@@@@@@@@@@@@@@@@@@@@@@@@@@@#######@++++@@@#####@@@@#@@@@@@@@@@@@@@@@@@@@@@@@@@@@@@@@@@@@@@@@@@@@@@@@@@@@@@@@@@@@@@@@@@@@@@@@+++++++++++++++++++@@+@#$#++O++OO+++@##@+++++++++++++++++++++++++++++++++++++++++++++@@+OOOoOoXo++@@@@@@@@@++++@++++@+++++++++++++++@++++++++++++++++++++++++++++++++++++++++++++++@##@@@+++++++++++++++@+@@++@#$$#+OO+#@+++++++++++++++++++++++++++++++@@@@++@+++++@@++@++@@@$%%&*%@+@@++++@@@@@+++++@@@@@@@@@@@@@@++++++++++++++++++++++++++++++++++++++++++++++@@@@@@@@++++++++@@@@++@@@@@@@@@+++@##@+OooOOOOO+@@+O+@@+@@@@++++OOO++++++++++++++++++++++++++++++++++OoooOO+++++@@OO++@@++++",
"+++++++++@@++++++@@@@@@@@@@@@@@@@@@@+++++@@@@@@@@@@@@@@@@@@@@@@@@@@@@@@@@@@@@@@@@@@@@@@@@@@@@@@@++@##$$$$##@@@@@@@@@@@@@@@@@@@@@@@@@@@@@@@@@@@@@@@@@@@@@#@######@@@##@######@+++++@@@####@@@@@@@@@@@@@@#@@@@@@@@@@@@@@@@@@@@@@@@@@@@@@@@@@@@@@@@@@@@@@@@@@@@@@@@@@++@@+++++++++@+++++++++@@@@$$#@+OOOO++++@##@++++++++++++++++++++++++++++++++++++++++++++O@@+OOOO++OO++++++++++++++++++++++++++++++++++++++@+++++++++++++++++++++++++++++++++++++++++++++++@@@@@+++++++++++++++++@@@+++@@+OO++O++++++++++++++++++++++++++++++@@@@@@@@@+@@@@++@@@##@@#@@$%#@@@++@@@@@@@++++++@@@@@@@@@@@@@@@@@@@@@@@@@@@@@@@+@@@@@@@@@@@@@@@@@@@@@@@@@@@@@++@@@@+++++++++@@+@+@@@@@@@@@@++++#$#@++OOOO++@@@@@@+OO+++++++OOOOOOOO++++++++++++++++++++++++++@++OOOOO++++++@@OO++@@++++",
"@@@@@@@@@@@+++++++@@@++++++++@@@@@@++++++@@@@@@@@@@@@@@@@@#@O@$O@@@@@@@@@@@@@@@@@@@@@@@@@@@@@@@@@@#@##$$$$#@@@@@@@@@@@@@@@@@@@@@@@@@@@@@@@@@@@@@@@@@@@@@@@@@@@@##@@@@@#$$@@++@@+++@@@@###@@@@@@@@@@@@@@@@@@@@@@@@@@@@@@@@@@@@@@@@@@@@@@@@@@@@@@@@@@@@@@@@@@@@@@@@@@@@@+++++++++++++++++++@@@@$$#@+OOOO@@++@##@@++++++++++++++++++++++++++++++++++++++++++++@@@O+++OO+OO@+++++@+@@+++++++++++++++++++++++++++++++++++++++++++++++++++++++++++++++++++++++++++++@@@++++++++++++++++@@@@+++++@@+oO+++++++++++++++++++++++++++++++@@@@@@@@@@@@@@+@@++##@+@+O@$$@@+O+@@@@@+@@+++@@@@@@@@@@@@@@@@@@@@@@@@@@@++@@@@@@@@@@@@@@@@+@@@@@@@@@@@@@@@@@++@@@@+++++++++@@++@@@@@@@@@@@++@#####@+OO+++++O+@@@+++O++@+++++++O++OOOOOO+++++++++++++++++++@@+o.Xo+OO+++++@@@O+++@@@+++",
"@@@@@@@@++@@+++++@@++++++++++++@@@@@@@@+++@@@@@@@@@@@@@@@@@@+@@@@@@@@@@@@@@@@@@@@@@@@@@@@@@@@@@@@##@@#$%%##@@@@@@@@@@@@@@@@@@@@@@@@@@@@@@@@@@@@@@@@@@@@@@@@@@@@@@@@@@@@##@OO+@@@@@@@@@@@@@@@@@@@@@@@@@@@@@@#@@@@@@@@@@@@@@@@@@@@@@@@@@@@@@@@@@@@@@@@@@@@@@@@@@@@@@@@@@+++++++++@+++++++++@@@@$%$#$#@+@@@++@##@#$++++++++++++++++@++++++++++++++@++++++@++@#@@@+O++OoXO++OO++@@#@@++++++++++++++++++++++++++++++++++++++++++++++++++++++++++++++++++++++++++++++++++++++++++++++++@#@@$$@+++@#+OO++++++++++++++++++++++++++++++@@+++@@@@++@@@@@@++@#@+O+#$*%@@+O@+@@@++@@@@@@@@@@@@@@@@@+@@@@@@@@@@@@++++++@@@@@@@@@@@@++++@@@@++@@@@@@@@@+@@@@@@+++++++@@@@@@@@@++@@@@@@@@@@#@@+++OO+++++++++++@@##$@+++@@++OO+#OOOOOOO+++++++++++++++++@@+OX.o+OOO+++++++++++@@@@@+",
"@@@@@@@@++@@@@++@@@+++++++++++++@@@@@@@+++@@@@++@@@@@@@@@@@@++@@@@@@@@@@@@@@@@@@@@@@@@#####@@@@@@@@@##$#@@@@@@@@@@@@@@@@@@@@@@@@@@@@@@@@@@@@@@@@@@@@@@@@@@@@@@@@@@##@@@@@@@@@@@@@@@@@@##@@@@@@@@@@@@@@@#@@@@@@@@@@@@@@@@#@@@@@@@@@@@@@@@@@@@@@@@@@@@@@@@@@@@@@@@@@@@@@+++++@+++++++++++++@@@@$%%@$$###+O+@##@@@@+++++++++++++++++++++++++++++++++++++++++++@@@+@+OOOOooO+++++++++++++++++++++++++++++++++++++++++++++++++++++++++++++++++++++++++++++++++++++++++++++++++++++++++#$#@@####@++OoO++++++++++++++++++++++++++++++@@++++@@@@+@@@@@@@+@$#OO@$#&$+++O@++@@@@@@@+++@@@@@@@@@@@+++@@@+@@@@@@@++++++@@+++@@@@@##@@@@@@@@@@@@@@@@@++@@@@+@++++++++@@@@@@@+O+++@@@@@@@@###@++OO++++++++++++@@###+++++++OO+@+OOOOOOO++++OOO+++++++++##@@OXXoOOO++@+++++++++@@@@@",
"@@@@@@@@@@@@@@++@@++++++++++++@@++@@@@@@+@@@@@++@@@@++@@@@++++@@@@@@@@@@@@@@@@@@@@@@@@@@@@@@@@@@#@@@@###@@###@@@@@@@@@@@@@@@@@@@@@@@@@@@@@@@@@@@@@@@@@@@@@@@@@@+++@@##$#@###@+@@@@@@@####@@@@#@@@@@@@@@@@@@@@@@@@@@@@@@@@@@@@@@@@@@@@@@@@@@@@@@@@@@@@@@@@@@@@@@@@@@+++@++++++++++++++++++@@@@$%$$$#+@#@+++@###@++++++++++++++++++++++++@+++++++++++++++++++@@++++OO++OoO@@@+@@++++++++++++++++++++++++++++++++++++++++++++++++++++++++++++++++++++++++++++++++++++++++++++++++++OO#$$##$$#@+Ooo+++++++++++++++++++++++++++++@@@@++@@@@@@@@@@@@@+@@#@OXooX#$@@@+++++@@@@@@@@@@@@@@@@+@@+@++@#@+@@@@@@@++++++@+++++++@@##@@++@@@@@++@@@@@+++@@++++++++++++++++++++OO++++@@++@@###@@++++++++++++++++@@@@+O+++++OO++++++++++++++++++++++++++@@@@OoooOoo+@@+++@++++@@@@@@",
"+@@@@@@@@@@@@@++@++++++++++++@@@++@+@@@@+@@@@+++@@@@++@@@@++++@@@@@@@@@@@@@@@@@@@@+@@@@@@@@@@@@@@@@+@##$##$$#@++@@@@@@@@@@@@@@@@@@@@@@@@@@@@@###@@@@@@@@@@@@@@+++++@#$$$#@@@@+++@@@@@###@@@@@@@@@@#@@@@@@@@@@@@@@@@@@@@@@@@@@@@@@@@@@@@@@@@@@@@@@@@@@@@@@@@@@@@@@@@+++@++++++++++++++++++@@@@$$#$$##@O++OO#$@O+++++++++++++++++++++++++++@+++++++++++++++@@@@@+OOOOooOOO+@@+++++++++++++++++++++++++++++++++++++++++++++++++++++++++++++++++++++++++++++++++++++++++++++++++++++@@@##@@##+++OO+@++++++++++++++++++++++++++@@@@@@+@@@@+++++++++++@@@@+OOoO#%@+@++++++++++@@@@@@++@@@@@@@@++@@@+@@@+@@+++++++@@++++++++@@@+++@@@@@@++@@@@+++@@++++++++++++++++++++++++++++++@@##@++++++++++++++++++++++++++++++OO+++++++++++++++++++++++++@#+@+OoXooo+@@+++@@+O+@@@@@@",
"++++++++++++++++@@@++++++++++@@@++@@@@@@@@@@@@@@+@@@@@@@@@++++@@@@@@@@@@@@@@@@@@@@@@@@@@@@@@@@@@+@@@@#$$#@##$#@+@@@@@@@@@@@@@@@@@@@@@@@@@@@@@@@@@@@@@@@@@@@@@@@@@+@@#####@OO+++@@+@@@###@@@@@@@@@@@@@@@@@@@@#@@@@@@@@@@@@@@@@@@@@@@@@@@@@@@@@@@@@@@@@@@@@@@@@@@@@@@@@@@@+++++++++++@@@@++@@@@$$@@+@#@oO+Oo@$@O++++++++++++++++++++++++++++++++@++++++++++@@@@#@+++OooO++@+@@++++++++++++++@@@@@@++++++++++++++++++++++++++++++++++++++++++++++++++++++++++++++++++++++++++++++++@@@@$#@+OOOO+@++++++++++++++++++++++++++++@@@@++@@@@@+++++++++++@@##$$%%@$*$+@++++++++++++++++++@@@@@@@@++@@@@@@@@@@++++++@@@++@@@@+++++++@@@@@@++@@@@+++++@@@+++++++++++++++++++++++++++++@@@@++OOOO+++++++++++++++++++++++++O+++++++++++++++++++++++++@#@@@Oo.XoO+@@++@@++O+@@@+++",
"++++++++++++++++@@@++++++++++@@@++++++++++++++++++@@@@@@@@++++@@@@@@@@@@@@@@@@@@@@@@@@@@@@@@@@@@@@#@##$$#@@@@@@@@@@@@@@@@@@@@@@@@@@@@@@@@@@@@@@@@@@@@@@@@@@@@@@@@@@@@@@#$#@++++++@@@@#@@@@@@@@@#@@@#@@#@@@@@@@@@@@@@@@@@@@@@@@@@@@@@@@@@@@@@@@@@@@@@@@@@++@@@@@@++@@@@++++@++++++++@@@@@++@@@$#@@OoO+++@Oo+##@++++++++++++++++++@++++@++++@++++++++++++++++@#@@@@+OOOO+@++O++++++OOO+++++++++++++++++++++++++++++++++++++++++++++++++++++++++++++++++++++++++++++++++++++++++++++O@###@++OOOOOO+++++++++++++++++++++++++++@@@@++@@@@@@@@++@@@@@@@##@@@#$@#=&@@++++@@@@@@@++++@@@@@@@@@+@++@@@@@@@@@@@@+++@@@@@+@@#@@@++++++++++++@@@@@++@++@@@@@@@++@@@@@@@++++++++++++++++@###@+OooO+@@++++++++++++++++++++@+++++++++++++++++++++++++++##@@+OOX.oO++++@@+++O+@@@++@",
"++++++++++++++++@@@++++++++++@@@+++++++++++++++++++@@@+@@@@++@@@@@@@@@@@@@@@@@@@@@@@@@@@@@@@@@@@@@#########@+O@##@@@@@@@@@@@@@@@@@@@@@@@@@@@@@@@@@@@@@@@@@@@@@@@+@@@@#$$#$$#@@@O@@@@@#@#@@@@@@@@@@@@@@@@@@@@@@@@@@@@@@@@@@@@@@@@@@@@@@@@@@@@@++@@@++@@@@+@@@+++++@@@@@@++++++++++++@@@@++@@@@$$@@####@OO+O+@@++@++++++++++++++++++++++++++++++++@@@++++@@++@@+O++++OOO+++++++++++++++++++++++++++++++++++++++++++++++++++++++++++++++++++++++++++++++++++++++++++++++++++++++++++@@+oO++OO+@+oO@+++++++++++++++++++++++++++++@++@@@@@@@@+@@@@@@@@###@@#$$#=*@+O+@@@@@@@@@@@@@+@@@@@@++++@@@+@@@@@@@@@++++@@@@@++O++++OOOO++++++++++@@@++@@@@@@@@@@@@@@@@@@@@@@@++++++++++++@####@+OOO+++++++++++@++++++++++@@+++++++++++++++++++++++++++##+OOO+OXo+++++@+++++O@@@@@@",
"++++++++++++++++@@@++++++++++@@@+++++++++++++++++++@@@++@@@@@@@@@@@@@@@@@@@@@@@@@@@+++++++@@@@@@@@##########@+++@@@@@@@@@@@@@@@@@@@@@@@@@@@@@@@@@@@@@@@@@@@@@@@@@@@@@#$#@#$#@@@@+@@@@####@@@@@@@@@@@@@@@@@#@@@@@@@@@@@@@@@@@@@@@@@@@@@@@@@@@@@@+@@@+++@@@@@@++++@@++@@@@+++++++++++++++++@@@@$$##$$$$#OOOO+$#++#+++++++++++++++++++++++++++++++++++++++++@@@@@+OO++OOO+++@@@++++++++++++++++++++++++++++++++++++++++++++++++++++++++++++++++++++++++++++++++++++++++++++++++++++++@+O+@O+@@+++++++++++++++++++++++++++++++++++++++++++@@@@@@++@@@@#@#@@@@+=-$@O+@@@@@@@@@@@@@@@@@+++++++@@@+@@@@+++++++++@@@@@++O+@@+OooO@@@@@##@@@@@@++@@++@@@@@@+@@@@+++++++++++++++++++@####@@@++O+OO+++++++@@++++++++++@@+++++++++++++++++++++++++++#$+OOOOooOO++++++++++++@@@@+",
"++++++++++++++++@@@++++++++++@@@++++++++++++++++@@+@@@++@+++@@@@+@@@@@++++@@@@@+@@@@@@@@@@@@@@@@@@@@@#$$#@@###@+@@@@@@@@@@@@@@@@@@@@@@@@@@@@@@@@@@@@@@@@@@@@@@@@###$#@@@@@##@++@@@@@@@@#@@@@@@@@@@@@@@@@@@@@@#@@@@@@@@@@@@@@@@@@@@@@@@@@@+@@@+++@@@@@@+@+++@@@++@++@@@@@@++++++++++++++++@@+@$%$%$@+@+@@+o+##@@@+++++++++++++++++++++++++++++++++OO+++++O+@+@##+OOOOOoO++@@@+OO++@@@@+++++++++++++++++++++++++++++++++++++++++++@++++@+++++++++++++++++++++++++++++++++++++++++++@#@+@@@@#+O+@+O++++++++++++++++++++++++++++++++++++@@@@@@++@@@@@@+@@#@Oo+&-%$#+@@@@@@@@@@@@@@@@@+++@@@@@@@@@@@@@@@@@@+++@@@@+++@@##@OooO+@@@@@@@+@@@+++@@+++@@@++++++++++++++++++++++++++@@###@ooooOOO++++++++@@@+++++++O++++++OO++++++++++++++++++++++#%%%#OO@OOO++++++++++++@@@++",
"+++++++++++++++++++++++++++++@@@++++++++++++++++@@+@@@+@@+++@@@@++@@@@++++@@@@@@@@@@@@@@@@@@@@@@##@++@$%$#@@@@@@@@@@@@@@@@@@@@@@@@@@@@@@@@@@@###@@@@@@@@@@@@@@@@@@@#$#@#$####+O+@@@@@@@@@@@@@@@@@@@@#@@@@#@@@@@@@@@@@@@@@@@@@@@@@@@@@@@@@+@@@+++@@@@@@+++++@@@@+@+@@@@@@+++++++++++++++++@@+@$%$#@O++OO@@+@@+++++++++++++++++++++++++++++++++++++++++++++++@#++@@OoOOOO+@#@++++O++++++++++++++++++++++++++++++++++++++++++++++++++++++++++++++++++++++++++++++++++++++++++++++++++#@++@@OoO@#@+++++++++++++++++++++++++++++++++++++++++++++@@@@+@##@++++++@*=#@+++++++++++++++@@@@@@@@@@@@@@@@@#####@@@@@@@@++OO+++++OooOO+++++@+@@@@+++@@++++@@+++++++++++++++++++++++++++@###@@++OO++++++++++@@@+++OOO+OO+++++++++++++++++++++++++++++#%&&#@@O@+++@@+++++++@@+++++",
"++++++++++++++++@+++++++++++++++++++++++++++++++++@@@@+@@@++@@+@@@@@@@@@@@@@@@@@++@@@@@@@@@@@@@@@@@@@@#$$$$#@@@@@@@@@@@@@@@@@@@@@@@@@@@@@@@@@@@@@@@@@@@@@@@@@@@++@@#$$@@##@#$#+O@@@@@@##@@@@@@@@#@@@@@@@@@@@@@@@@@@@@@@@@@@@@@@@@@@@@@@@@@@@@@++@@@@@++++@@@@@++++@@@@@+@@+++++++++++++++@@+@#$#@+OoOOO+@@@@++@+++++++++++++++++@++++@++++++++@@@@@+@@@@@@@#@+O+++OoOO++@@@++++OO++++++++++++++++++++++++++++++++++++++++++++@+++++++++++++++++++++++++++++++++++++++++++++++++++O+@@@+++OOOOOO@++++++++++++++++++++++++++++++++++++++++++++++++@#$@oooO+++$&@#++++++++++@@@@+++++++++++@@@@@@@@@@@@@@@@@@@@++OOOOO+++@@@+++++@@++@@@@@+@@@+@@@@@@@@@@@++++++++++++++++++O++@@@@@@++OOOO+O+##+O+@@@@++O++OO+++++++++++++++++++++++++++++@$#+O$&#@@++@@++++++@@@@@@++",
"++++++++++++++++++++++++++++++++++++++++++++++++++@@@@+@@@@@@@++@@@@@@@@@@@@@@@@++++++++++@@@@@@@@@@#$$#@@###@@@@@@@@@@@@@@@@@@@@@@@@@@@@@@@@@@@@#@@@@@@@@@@@@@++@####@+++++@##@@+@@@###@@@@@@#@@@@@@@@@@@@@@@@@@@@@@@@@@@@@@@@@@@@@@@@@@@@@@+++++++@+++@@@@@@++@@@@@@@+@@@@+++@@@@@@@@+++@@@##@$$@OO+++++++++@++++++++++++++++++++++++++++++++++++++++++@@@@#@++OOooO++++++++++++++++++++++++++++++++++++++++++++++++++++++++++++++++++++++++++++++++++++++++++++++++++++++++++++O+@+O+@@+OoOOO++++++++++++++++++++++++++++@@@@@@@@@++++++++++@@##+O++O+O+O$$#+++++@@@@@@@@@@@@@++++++++++++++@@@@@@@@@+@@+++OOOO++#$$$#@@++++@++@@@@@@@@@+@@@@@@@@@@@@++++++++++@+++++++++@@+OoooOO+@#O@$=+@Oo@@@@+++++++++++++++++++++++OOOO+++++++++##+OO+##@@@@++@@@++@@@@@@@@@",
"++++++++++++++++++++++++++++++++++++++++++++++++++@@@@@@@@@@++++@@@@@@@@@@@@@@+++@@+++++@@@@++@@@@@@@#$$#@+@@@##@@@@@@@@@@@@@@@@@@@@@@@@@@@@@@@@@@@@@@@@@@@@@@@@@@@#@@@+O++OO@##++@@@###@@@@@@@@@@@@#@@@@@@@@@@@@@@@@@@@@@@@@@@@@@@@@@++@@@+++++++++@@@@@@@@@@@+@@@+@@+@@@++++++++@@@@@+++@@@##@$##@@++Ooo+@+@@++++++++++++++++++++++++++@+++++++OO+++++O+@@@##+++++OOO++O+@@++@@@@@@+++++++++++++++++++++++++++++++++++++++++@+++++++++++++++++++++++++++++++++++++++++++++++++++++@@@@++@@OXoO+++++++++++++++++++++++@@@@@@@@@@@@@@@@@@@@@@@@@@#@@@###@ooX&=@+++++@@@@@@@@@@@#@$%%#+++++++++++######@@@@@@++OOOOOO+#$$#@+++++++@@@@@@@@@@@@+++@@@@@@++++++++++++++++++++++@@+++++OOO++@o=*oO++@++@+++++++++++++++++++++++OOOO+++++++++@@@@+#%@+@#@++@@@+++@@@@@@@@",
"++++++++++++++++++++++++++++++++++++++++++++++++++@@@@@@@@@@@@++++@+@@+@+@@@@@++@@@@@@@@@@@@@@+++@@@+@$%%$#@+@@#@@@@@@@@@@@@@@@@@@@@@@@@@@@@@@@@@@@@@@@@@@@@@@@@@@+@+@##++@+OO@@@@@@@@##@@@@@#@@@@@@@@@@@@@@@@@@@@@@@@@@@@@@@@@@@@@@@+++@@@+++++++++@@@@@@@@@@++@@@@@@++@@++@@@@@@@@@@++++@@@##@@OO@@+OOooO@@@@@+++++++++++++++++++++++@+++++++++++++++++++@@+O+++++OOOOO+++OO+++++++++++++++++++++++++++++++++++++++++++++++++++++++@++++@++++@++++++++++++++++++++++++++++++++++@@+@##@+++OoO@++++++++++++++++++@@@@@@@@@@@@@@@@@@@@@@@@@@@@@@+#$#@@@+@OOo%-+@@@@@@@@@@#######+O+&=%#@++++++++#######@@@@@++OOOoXXoO+@@++++++++++@@@@@+@@@@+++@@@@@@++++++++++O++++++++++@@@@@+++OOOOO@+OO@@+++++++++++OO+++++++++++++++++++++++++++++@#@+oO@+O+@@+++@@++++@@@@@@@",
"++++++++++++++++++++++++++++++++++++++++++++++++++++@@@@++@+@@@@++++++++++++++++++++++++++++++++++@@@@#$$$$$#@@@@@@@@@@@@@@@@@@@@@@@@@@@@@@@@@@@@@@@@@@@@@@@@@@@#@+@@@###@+++++@@@@@@###@@@@@@@@@#@@@@@@@@@@@@@@@@@@@@@@@@@@@@@@@@@@@+@@@@++++++++++@@++++@@@@@@@++@@@@+@@@+@@@@@@+++++++@@+@#$#@+O+@+O++OOOO+@@++++++++++++++++++++++++++++++++@@@++++@@+@@@+OO@@++++OO+@+O+++O++++++++++++++++++++++++++++++++++++++++++++++++++++++++++++++++++++++++++++++++++++++++++++++++++@@OOOOOOoO@@+O@@@@@@@@@@@@@@@@@@@@@@@@@@@@@@@@@@@@@@@@@@@@@@@@@$&$@+OO+++OO$+++++++++@@@####@@#+X.+%%+OOOOOOOO++++++++@@@@@@+++OOoooO+++++++++++++@@++++@@@@@@@@@@@@@@@@@@@@+++++++@@@++++@@@+OOOOOO+++++++++++OOO+++++OO+++++++++OO++++++++++++++++++#@O@@oXoOO+@++++@++O++@@@@@+",
"++++++@++@@@@+@++++++++++++++++@+++++++++++++++++++++@@+++++@@@@++++++++++++@@@+++++O+++++++O+O+++++@###+@#%%$#@@@@@@@@@@@@@@@@@@@@@@@@@@@@@@###@@@@@@@@@@@@@@@@@@#@##@@$#+@##@#@@@@@###@@@@@@@@@@@@@@@@@@@@@@@@@@@@@@@@@@@@@@@@@@@@@@@@@@+++++++++++@++++@@@@@@+++@@@++@@++@@@@@@+++++++@@+@#%$+@+O@#@++OO++++@++++++++++++++++@++++++++++++++++++++++++@@@@##@@+OoooO+++++++OO++++++++++@@@@@@++++++++++++++++++++++++++@+++++++@+++++++++++++++++++++++++++++++++++++++++++++++#@OOOoooooOOO+@@@@@@@@@@@@@@@@@@@@@@@@@@@@@@@@@@@@@###########@%*&%$##OOO+XoXXXXXXooooooooOOOO+OX...XXXXXXXXXXX.XXoooOO+@@@@@@@@+OOOO++++++++++++@@@++++@@@@@@###########@@@@@@@@@@@@@++++@+OO@@@++@@@+OOOOOOOOooOO+++OOO++++++++++OO+++++++++++++++++##OOOOO.ooO+++OO+++OO+@@@+++",
"++++%$@++@@@@@@++@@+++++++@@@@@@+++++++++++++++O+++++++@@@@@@+@@++++@@@@@@+++++++++OoXXXoO+@@+OO+++++@###+O+@@@@@@+@@@@@@@@@@@@@@@@@@@@@@@@@@@@#####@++@@@#####@#@##$#@@@##+@@+@@###################@@+O@$#@@#@O+@@@@@@@@@@@@@@@@@@@@@@@OOooO+@@+++@@@@@+++++@@@@@@@@@@@@@@@@@@@@@@@@@@@@@@#@#%%#@@+O@@X+++++++++++++++@+++++++++@@@@@@@@@@@@++++@@@+++++++++++++OoXXXo++@++OOOOO+++++@@@@@@@@@##@@@@@@@+++@@@+@@@@@@@@@@@@@@@############@@@@@@@@##@@##@+++@@@++@@++++++++++OOOO+@@+OO+OOooXXXX####@@###@@@##@@@+++++++@@++O+++$$#####$$$$$$$$$$$%%%$####@+OooooXXXXXXXXXoooX...XXXoooooooooooooooooXXXooOO++@@@#@+OooXooOO+OOO+OOO++@@@@+++OOO+@@@@@@@@@@@@@@@+++++++++++++@@@+@@@@@##@@@@@@OooOOOO+@#@@@OX.o+++++++@@++++++++++@@++OO+@#OXooX.XO+@###@@+++@@##@@+",
"++++$#@+O+++++++++@+++++++@@@@@@+++++++++@++++@@@@@+++++@@@@@@@@@+++@@@@++++++++++OOO++++++++OO++++OOO@#@@+OOO++@@###@@@@@@@@@@@@@@@@@@@@@@@@@@@###@++++#&%+#$@@@##$$#@#@###@+OO+++++@@@@@@@@@@@####@@@@#$##@#@@@@@@@@@@@#@@@@@@@@@@@@@@+OX.Xo+#+++@@@@@@@@@@@@@@@@@@@@@@@@@@@@@@@@@@@@@@+@@@#$%%$O+#@+@@+++++++@##@@##$##@##$###########$$$$$$$$$%$$$$$+OXo++OooOooXXXXXoooooOOO++++++++++OOOOOOOOOOOOOOO+@@@@@@@@@@@@@+++++++++++++++++OOOOOOOoO++OO++OoXooOooOOOOooooooooooooooO+OOOOOOoXX.  .XXX............... ..XXX.....  oXXXXXXXooOOOOOOO+#$$$$$$%%$@@@++OOOOOOOOoOO+++OOOOOOO++OOOOOOOOOooooXXXXoooOO++@@+OOooooXXXXXooXX...XXX.............XXXoXooooooXXXXXXXXXoooOOOOO++OOO+@+@@@++OOOO++@@++++OOoooXoOO+++++@@@@@@@@++++OX. Xo@#+Ooo...XXoOOOOoXXXoo++OO",
"++++XoO++++@@@@@+++++++++@@@+@@@++++++++++++++++++@@@@@@@@@@+++++++O++OOOO++++++++O++@@@+@@+++@@@@@+++@##$#@OOO+++@@########################@@@@@#@@++@@#########$%&&#++@++#@+OXXXXXXoooooooooOOOO++OO+@@@@@++@#$####@@@@@@@@###########$#OoXXO+@@@@@@++++++++++++@@@@@@@@+++++++++OOOOOOO++O+##$$@+@++#@@@@@@@@@##@@##########@++OOOOOOO+++@@++@@@@@@@@OXXo+@+OOOoo....          ...XXX..........XXooooooOOOOOOOOOOOOOOOOOOOOOOOOOooooooooXXXXXXXoXX.XXX...XX..XXX..XXXXX..XXooooO+++++@@++OooXXXXXXX....X.......XXoXX...XXoXXXXooooooooOOOOOOO+@#$%%&&&&&%$$$$++++++++OOOO++++OOOOOOOOO+++++++++++OOOOOOO++++@@@@@+OOOoooooooXXXXXX.  ....XXXXX..XXooOOoooooooooOOOOOOOOOOOOOOOOOX..............  ... ............XXXXXXXXXXXXXXXX... XXo$#ooX                    ",
"++++++++++++++@@++++++++++@@@@@@@+++@@@@++@@@@+++++@@@@@@+++++++++++++++++++OOOo@@@@@@###+OOO+++@@++++@@#$%$#@+OoXXXXXXXOOOOOOOO@@@@@@@@@@+++++++++Ooooo .XoO++@+@$%%#OoOOOOOOOoooooooooooooooOO .oooooOOoooXXoOOOOooooXXXooOO++++++++++#@+oXXXX++OOooooooooXXXXXXXooooO++++++++OOOOOOOOOO++++@@#%&$@##+++++++++++OOOOoooOOOOOoXX...................XXXXOO++@@##@@OoXXXXX.......     .     . ..XXXooOOOOOOO++OO+O+++++++++++++++++++++OOOOOOOOOOOOOooXXXXXXXXXXXoOoooooooooooOOOOOO+@@@+++++++OOooXXooXXXooooXoooooOOOoXXooOOOOOOOO+++++@@@###@@#$%%&&&&%$####@@@@@@####@++++OOOOO++@@@@@############@@@@@@@#######@++++O+++OOOOOOOOooXXXooooOOOOoOO+@@####@@@@++++++++++OOOOOooooXX.......XXX....   .............. ....          ..Xo+@+@O##oOoX......          ...",
"O@+OOOOOOoXXoO++@@++++++++@@@@@@@+++++@@@@@@@@@@@@@+++++++OOoooooOOO+++++OO+++++++@@@####@+++++OOOOOOO++@@$$$#@OOOOOOoooooooooXXXXXXXXXX.....   .XoOoooOOOooXXX..oo.o$$#++@+++oOOOOOOOOOOooooooo.XoOOOOOOOOoooOOOOOooooooooOooooXXXXXXooooOOoX...XXXXXXXXoXXX.......XXoo@@@@@@@@@@@@@@@@@@$$##%$%**&%%$@@@@@@@@@@@@@@@+O+@@+OOooooooooOOOOOOOOOOOOOO++++@@@#$$$$$$#@+OOOooooooooXXXXXXXXXXX..XXXXooOO+++OO+@@+++++@@@@@@@@@@@@@@@@@@@@++++++++++++OOOOoooooooooOOOO++OOOOO+++OOOO++@@#$$##$$$##@OOOOO+OOOO++OOO++++OO++++++@@@+OOO+@#$$$$$%%&&***=****&&%%$$%$$$%%%%%$$$$#@@@@++++@@##$$$$$$$$$$$$$#########$$$$$$##@@##@@@@@@@#@+++OOOOOOOOOOoooooO+@$$$$$$$$$$$$$$$$$$$$$$$$###@OoXoooooooOOOoXXoooXX..........XXXXXX.XXXXXXXXXoooO@#$#@+%=$@O+OoX.XXooooXXXXo ...",
".ooX.XXXXXXXXXXXXXXX..XXXXXXXXoooooooOO+++OOooOOOOoOOOOoooooOO+OOOOOOOOOOOOOO++++O+@##@@@#$$#@++++OO++++@@##$$$#####@@@+++++++++OOOOOOOOOOOOOOOOOOOOOOOOOOOOOOOOO++XO#$%$#+@@@+oOOOOOOOOOOOOOooXooOOOOOOOOOoooooooooOOOOOoooooooooooooooOO+++OX....XXXooooooooooXXXooO+@$$$$$$$$$$$$$$$$%%&*%&&&&*****&%$%%%%%%%%%%%%&%#$%%###@+++++++++++++++@@@@@@@###$$$$$$$$$%$##@@@@+++++++OOOOOOoOOOOooooOOO+++@@@++@##@@@@####$$$$$$$$$#########@@@@@@@@@@++++OOOOOOOOoOOOO++@@++++@@@@@@#$$##$%%&&&&&%$###@@##@@@@@@@@@@@@+++++@######$$$$$%%&&&&**==-----===*&&&%%&&&&*********&%$$%$$##@#$$%%&&&&&%%%%%%%%%%%%%%%%%%&&%&&&&&%$%$$$$$$$$###@@@@@+++OOoooooO@#%&&%&&%%%%%%%%%%%%%%%%%%%%%$#@+OOooOOooO++OOOOoXXXXXXXXXXXXoooooooooooooooO++@##$$$$$*--%$#@+OOOOOOOOOO++@XXX.",
"X#@OooooO++++oXXXXXX....XXXXXoooooOOOOOOOOO++OOOOOOOO+++++++++++OOO++++@@@@@@++@####$%%$$%%$#@@@@@@@@@@##$$$$$%%%$$##$$$@@@@@@@@++++++++++@@@@#@@+OO++++++++++++oo@#$#+##@#$#@###@@@@@+++++@@#$$@+ooOOOooOOOOO+@oooooooOO++O+++++OOOOOO++@@@@+OOOOOooooooooOO++++OoOO+@#&&&&&&&&&&&&&&&&**--==-======-=**********=*&**&&&&&%%%$#@######$#####$%%%%%%%%%&&&&&&&&&&%%$#$$$$$$$$$$##@@@++++++O+++@@@#########$%%$$%%%&&&&*******&&&&%%%%%%%%%$$$$$$$$$#@+++OO++OOO+++@@#####$$$$$$$%&&&*=****===*&%&&&&&&&&%%%%%%%$$$$$$$$$$%%$$%**=*****==------==--=======**==---:::;;;;;-=====**&&**=----===============****======**=**&**&&&&%%%%%%%%$$+++OOooo++@#%*-;-;---------------========*&&%$#@###@@#$%$#@@++++OOOOOOOOOOooO+++@@@@@@@@#$$%%%%&*=*&&&==$$$###@@@@@@##$$#@+o",
"+*$OOOOOOoooXXXXXXXXXXXXXXXoooooOO++++++++@#$##@@@@@@@@@@@@@@@@@@@###############$&&&&&&%$##$%%$$$$$$%%%%&&*&&%%%&&%%%%$$##################@@@@@@++@@@@@@@@@@@@++++@%%#$#$$$&%##########@+++#$&*%@ooOOOOOO+@+O+$++OOOOOOO++++@@+++@@#####@@@@@@@@@++++OO++++++++OOOO@$%&------------------;:;-;;;;--;-==========-;;-------===-*&$%&***&&&%%%&**==****============*&%%%%%%%%%%%%%%$$#@@@++OOooOOO+@#$$%%%%$%&&%%%%&&*************===*************&*=&$@#$O+++OO++%&&&*****==--==*=-;;:>:--;:>>:;----------=======****&&&****==-;;---;;:>>:::;;::>>>>::>>>>:::>>>>::::;;;;;;:::;-=***=---;;::::::::::;;;;;;;;;;;;;;;;--;;;;;---====**&&%%%@@+++OOo##$%*-:>>>>>>>>>>>>>>>>>>>>>>>>>:;;;;--=======--&&&&**&&&&&&&&&&&&&&&&&&&&&&&&&&&*******=*%*&$;;;-=**&&&&&&&*==-*&$@",
"++oXOOoOO+OoO+OO@oo#@+++++@@#####@####$%%%%$$$%%$##@@@#$$#####@####$$$%%$$@@##@@%%%$$$$$##@##$%%&&&&&&&&&&&&&&&&&&&&&&&&%%%%%%%%%%%%%%%%$&$$%$$%%%%%%%%%%%%%%%%$$$$%%&***&&&%%%%$$%&&%$#O#$$$###&%$+OOOOOO++++++###########$$$%%%%&&**====*****&&&%%%%%%$$#@+OooOOOO#*-:>>>>>>>:>>>>>>>><<<<<<<<<<<<<<<<>>,,<<<<<,,,,,,,,,,,>>::=-;:>::;--;;;:::::::::::::::::::::;--=***********----&#O@####@++@#$%&&&&**********=*====================*********&=**$#$#++@$#++**=----=--;;:;;;;;;;;;;;:;-=**==**=****==***===*=----=---=======****======***=====-;-;;;-;;-=--=*&%*-;;->::;-=**&&&*-:,,,,,,,,,,,,,>>>>>>>>>>>>>>>>>>>>>::>>::;;1,:-=====&#@@+++++++*::*&%%&&&*&%%%%%%%%%%%%%%&&&&&&&&&&&&&&&&&&&&%%%%%%%%%%%&&&&&&*&&&&***==------------;-&*=:;;;;;;;;;;;---;;;>;*%",
"o.O@++@@#$##$#++@+o#$%%#####$$%$$$#$$$%%%%%$####%&%$$$$#$#######@@##$$%$#$$%*&##%#@@@##@@#####$%%%%&&**************&&&&****&&%%%&&&&&&%%%&%%&%%%&&&**************&%%&*------;---====----$#&=&+O@#@$%#OO++++++++OO+++O+++++@#############$$$%%%%%%%%%$$$####@@++OOOOO@%->1<<<,,>>>>>>>>>>>::::::>>>>>>>>>,>>:;-==$%%%&&**---==***====****&&&&**====**&&%%$$%&*==---;-----:=&&*--=*==***$o+$%$$#@##$%=;;-===--;;::>>>>>>>>,,,,,,,>>>>::::::;;;;;;;:---*$@+@@@###@@@##$$$$$$$$$%%%%@@@@@@@@#@+oooOOOOOOOOO+++++++++@#%%%%%%%%$#@@@#%$#@+OOO+++++OOOOO++++OOO++OoooooXoO#%%%@&=&$%$#%&$#&-::,>>::;;;;;;;;;;;;;::::::>>:>::::::::;::;>>>>::;;=&#+@#+o+++++@@++O++OO+oOOOOOOOOOOOOOOOOoXXO+oO@+++OOooooOOOOOOOOOOOOOOOOOOOOOOO+++@@###########@%*%&$$@@#$%&**&&&%%%$$$$=;=",
"#@$&%##$$$&*$+O+OOO#%$%%%$$#@@@+$$$$$$$$$$%%&&%%*==**=*%$$$###$%%%$$$$$$$&&$$@@$#$$$$$###$$%&&&&&&**====;=*-=&%*&&&**=======--=====******&&&**&&****&&&&&&&&&&&&$$$$$%%%%&&&&&&&&&%%%&*===*$&%#+@O@$#++++++++++++OOOOoooOOOOOOOOoooooooooooOOOOOOOOoooooOOO++++++++OO+#%==-;:;&#########+++++++++++++++++@++OOOoooooooooX.XXO@$&$#+OO+#%&%#+OoOOOoX..XoOXXXXXXXXooOO+++@*@oOOoXoOO++@$$+O+@OO@@#$*-;:>>>>>>>>>>>>>>>>>>,,,,,,,,,,,,,,,,,>>>>>>>>>>>>=&$#+@@@@@@++OOOoOOOOOOOO+++++++++++++++++++++++++++O+++OOO++++OOOO+++++OO++%%$$#@@++++++++++++++OOOO+++++++++++++++O+#%%%%$#++OooO+@@@@++++OOOO++++++++++++%$#@@++@@###@##@@#$%&=-;*%#+@@+o+++++OO++@#$@@@o++++@++++++++++++++++++++++++++++++OOOOOOOOOOOOOOO++OOOOOOOOOOOOOOOOOOOO@oo@+O$%XooOO++++++OOOOoX#&%",
"$$##&%#%&%&&#++OO++o@@$%$%&&*&%$$%%%%%%%%%&*====-;::;;--%%%$@@#$%%%%$$$$%%$@+@%*&&&%$#####$%&&&&&&****************&&&&&&&%%%%%%%%$$$$$###@#@@#@##@+@@@@@@@@@@@@@@#@@+++OOOOOOOOOOO++++@@%&#o#$#@#OooO+++++++++++++++@@+++++O++++@@@@@@@@@@+++++++++++++++++@@@@@++OooOOOoo+@#@@++++++++++++++++++++++++++++++++++++++++++OOO+#%&##+OO+@@$#+OooOOOOOOOOOOOOOOOOOOOOOooXXXoooooOOOOOO@@+OOOOOoO+O+@#&;>,>:>>>>>>>>========&&**==--====*******&&&&&&&*&%@++O++OO++OOOOOOOOOO++++++++++OOOOOOOOOOOO+++++++++O++OOOOOO++O++@@@@++++++++@@@++++++++++++++O+++@+OO+++++++++++++@##$$%%%#O+#+XXO$@OoO++OOOOO++++++@@+++++@@+OOOOO++@@++++++++++@&$#@@OOOOOOO+@@+++@@+@#@++++++++++++++++++++++++++++++++++++++++++++++++++++++++++++++++++++++++++++OO@#OOOOOOO++++OOOOO+@#$",
"%%$#$&&&*&%$##@@@%$OOO+#@#%&&&%%&&&&&&**==*****=--;:>>>:=**&$@#&&*===*&&$@###%&%%%##@@@+@#$$##########@@@@+++#$%$##@@+++++++++++++++++O++O+OO+O++++++@@@@@@@@@+++@@@@@@@@@@@@@@@@@@@@@+@@+@O#@@##OooooO+++++++++++++++++++++++++++++++++++++++++++++OOO+++++OOOO+#OOoOOOO+++++++++++++++++++++++++++++++OOOOOOOOOOOOOOOO@+OOOO+@#@@+OOooOOOOOOOOOOOOOO++OOOO+OOOOOOOOOoO++++++OO+++##+OOOoXo+Oo+Oo+#&&%#$#@++@#$oooXX....XXXXXXXXXXXXXXXXX.......XX+##@@@+OO+@@OOOO+++OOOO++@@++++++++++++++++O+@@@@@@@++++++++++O+@##@+++++++++OOO+++++++@@++OOO+++@@@@@+++@@++++++++++++@@###$#@@@@@+O+++++++++@@@@@@@@@@@@@@@@@@++@@+@++@@++@@@++++++%$#@+OOOOOOOO+@@@@@@++@@++++++++++++++++++++++++++++++++++++++++++++++++++OO++OOOOOOOOOOOOOOO+++OOOOOO+OO++++++OOOOOO+++++@@",
"&*=&%&*%%&&*&$#%#@#@$%&=**==--;;;;;---;;;---;;;;:>:;;:>>:;;:;==;,,>>>:::=$OO+@#++++@@@@@@@@@@@+@@@@@@@@++++++@@@@@@@@@@@@@@@##@@@@@@++++++@@++++++++@@+++@@@@@@@@@@@@@@@@@@@+++++@@@@@@@@@##$$++#++++OO+++++++++@@@+++++++++++++++++++++++++++++++++OO+++@@@++OO+@OOoOOO+++++++++++++++++++++++++++++++++++++++++++++++++OOOOOOOOOOOOOOOOOOOOOOOOOOOOOOOOOOOOOOOOOOOOOOOOO+++OOO+O++@$$@OooooOOOOOOOooooooooooooooooooooooOOoOOOOO+++++OOOOOOOOOOOO@##@@+OooO++OO++++++++O+++++O+++++++++O++++++++++++++++++++++OOO++@++OOO++++++++@@@@@@+++++O+++++++++@@@@@+++++++++++++@@###$#@+@#$+o++++++++++++++++++++++@@@@+++@++@@+++OO+++@@@@@##$@+++OoooooO@#####@++++++++++++++++++++++++++++++++++++++++++++++++++++++++++++O+++++++++++++++OOOO+O+++++++++++OOOOO++++@@",
"@$$##$$#+@$&%+O@++@@#&$@%%%%%%%%%%%$$$$$#$$%&&&%%$$@OO#*--;:>>;-*%$##$$$*%@OO+++@@@@@@###@+++@@@@@@@@@@++++++++@@@@@@@@@@@@@@@@@@@@@+++++++@++@+++++@@@@@@@@@@@@@@@@@@@@@@@@@@@@@@@@@@@+@#$$#%++$@@@@++++@@@@@@@@@@@@@@@+++@@@##@++++++++++++++++++++++++@@+++OOo+OooOOO+++++++++++++++++OOOOOOOOOOOOOOOOOOOOOOOOOOOOOOOOOOOOOOOOOOOOOOOOOOOOOOOOOOOOOOOOOOOOOOOOOOOOOOOOOOOOOOOO+++#%$+++++ooOXo+@+OOOOOO++++++++++++O++O++++OO+++++++OOOOO+O++O+O@@@++OoXXoOOO++++++++++++++OO++++++++++++++++++++++++++++++++++OOOO++++++@++++@++++@@@++++++++++++++++@@@++++++++++++++@@###$#++@#@+oOO++++++++++++++++++++++@+++++OO++++++OOOOOOO+++##@+++Ooooooo+#@@@++@@+@+++++++++++++++++++OOOOOOOOOOOOOOOOOOOOOOOOOOOOOOOOOOOOOOOOOOOOOOOOOOOOOOOOOO+OOOOOOOO++++OOOO++++@@",
"ooXoO+OO++#$@OOoO@$@XX..... .    ....   ...XXXXXXXXooooo+#$$%*$o.XoOOOOo+#$@+oo+@@@@@@@#@###@@@++++++@@@@@@@@@@@@@@@@@@@@@@@@@@@@@@+++++@@@@@+#+++@@@@@@@@@@@@++++@@@@@@@@@@@@++++@@@@@+++@#@%##$@##+O+#+++++@@@@+++++++@@@@@@@@@@@@@@@@++++++@++@@@@++@@@@@+@@@OOOOOOOO++++++++++++++++++++++++++++++++OOOOOOOOOOOOOOOOOOOOOOOOOOOOOOOOOOOOOOOOOOOOOOOOOOOOOOOOOOOOOOooOOOOOOOO+++@##+O+@++OoO+OOOOOO++OOOOOOOOOOOOOOOOOOOOOOOOOOOOOOOOOOOO++++O+o@@#+@+OoOooO+oO++@+++++@@#@++++++++++++++++++++++++++++O++++O+++++++++@@++++++++++++++++++++@++++++@@+@@@++++++++++++@@@@@##@@@+++++++++++++++++++++++++++@@@@++@++@@++@@+@#@@+++++@@@@@@+ooOOOooo+@@++OO@@O@++++++++++++++++++++++++++++++++++++++++++++++++++++++OOOOOOOOOOOOOOOOOOOOOO+OOO++OOOOOOOOOOO+@#O+@@",
"OOO@@OOOOOO+%%#@@@@+OOOOO+++OOOO++++++++++++++++++++++++++++@@@@@++@@@++@###+O++++@@@@@+@++@@@++++@@@@+@@@@@@@@@@@@@@@@@@@@@@@@@@+++@+@@@@@@@+@@@@@@@@@@@@@@++@@+@@+@@@@@@@@@+++++++@@@@++@#@%$$#@@@+O++++++++@@@++++++@@@@@@@++@@@+++@@+++++++++@@@@+@@@@@@@OO+oooooOO++++++++OOO++++++++++++++++++++++OOOO++OOOOOOOOOOOOOOOOOOOOOOOOOOOOOOOOOOOOOOOOOOOOOOOOOOOOOOOOOOOOOOOOOO+++@#@+++OOOOoOoOOooOOOOOOOOOOOOOOOOOOOOOOO+OO+OOOOO++OOOOO+OOOOO+O@@#@@+OOO+OOOOOO+++++++++++++++++++++++++++++++++++++++++++++++++++++++++++++++++++++++++++@@@++++@@@@@@@@@@+++++++++@@@@##@@+++OOO+++++++++++++++++++++++++++++@++++++@@@++++++@+++@@@@@++OOooooo+@++@++++++++++++++++++++++++++++++++++++++++++++++++++++++++++++OO++OOOOOOOOOOOOOOOOOOOOOO+++OOOOOOOOO+++@+++#",
"+++@+OOOoO+#*-==###@+OOOOOOOOO+O+O++O++O+++++++++++++++++++@@@@@@@@+++@@##@@OO+++@@@@@++++@@@@@@@@@@@++@@@@@@@@@@@@@@@@@@@@@@@@@@@@@@@@@@@@@@+@@@@@@@@@@@@@@@@@@@@@@@@@@@@@@@@@@@++++@@@++@@#%$$@@@@+++++@@+++++++++++++@@@@@@@@@@++++@@++++++++++@++@@@++@@@+OOOooooOO+++++++++OO+++++++++++OOOOOOO+OOO+OOO++OOOOOOOOOOOOOOOOOOOOOOOOOOOOOOOOOOOOOOOOOOOOOOOOOOOOOOOOOOOOOOOOOOOO+@##@++OOOOooooOOOOOOOOOOOOOOOOOOOOOOOOOO++O++OOOO++OOOO++OOOO+@@@@@+++OOOOooOOOO++++++++++++++++++++++++++++++++++++++++++++++++++++++++++++++++++++++++@+@@@@@@+@@o@$@@@+@@+++++++++@@@@#$#@++OOOO+++++++++++++++++++++++++++++++++@+++++++++++++@@@@##@+++Oooooo+++++@++++++++++++++++++++++++++++++++++++++++++++++++++++++OOOOOOO++OOOO++OOOOOOOOOOOOOOOOOOOO++++++++OOOO+++#",
"+OO++OOO+++@$#@+@##@OOO++OOO+OOOOOOOO++OOO+++++++++++++++++@@@@@@+@+++@@#@@@+++++@@@@@@+@@@@@@++@@@@@@@@@@@@@@@@@@@@@@@@@@@@@@@@@@@@@@@@@@@@@@@@@@@@@@@@@@@@@@@@@@@@@@@@@@@@@@@@@++++@@@@@@##%$$++@@+++++@@@@@+++++++++@@@@@@@@@@@@@+@@@+++++++++++O+@@@+++@@+OOOOooooOO++++++++++OOOO+++++++OOOOOOO++OO++OOOOOOOOOOOOOOOOOOOOOOOOOOOOOOOOOOOOOOOOOOOOOOOOOOOOOOOOOOOOOOOOOOOOOOOO+@$#@++++OOoOOOOOOOOOOOOOOOOOOOOOOOOOOOOOOOOOOOOOO+OOOOO++OOOO+@@#@@O++OOOooooOOOO+++++++++++++++++++++++++++++++++++++++++++++++++++++++++++++++++++++++@@@@@@@@@@@*$@@@@++@+++++++++@@@@#$#@++OOOO+++++++++++++++++++++++++++++++++++++++++@@+OO@@+@#$$@+++OoOOoo+@@++@@++++++++++++++++++++++++++++++++++++OO+++++++OO++O+++OOOOOOOOOOOOO++OOOOOOOOOOOOOOOOOOO++++++++++OOO+++#",
"ooOOO++++@++@+oXO+@+OoO+++OO+OOOOOOOO+OOO++++++++++++++++++++@@@@@@@++@@#@+@+++++@@@@@@@@@@@@@@+@@@@@@@@@@@@@@@@@@@@@@@@@@@@@@@@@@@@@@@@@@@@@@@@@@@@@@@@@@@@@@@@@@@@@@@@@@@@@@@@@@@++@@@@@@#$%$#@+@@+++++@@++@@@@++++@@@@@@@@@++@@@@++@@+++++++++++++++++@@@@++OOOOooooOO++++++++++OOOOOOO++++OO++OOOOOO++OOOOOOOOOOOOOOOOOOOOOOOOOOOOOOOOOOOOOOOOOOOOOOOOOOOOOOOOOOOOOOOOOOOOOOOOO@##@++++OooOOOOOOOOOOOOOOOOOOOOOOOOOOOOOOOOOOOOOO+OOOOO++OOOOOO+#$@O+++++++OOOOO++++++++++++++++++++++++++++++++++++++++++++++++++++++$+++++++++++++++++++++++++++$$+++++++++++++++++@@@@#$#@++OOOO+++++++++++++++++++++++++++++++++++++++++++++@@++#$$##@+OooOOoO+@@++@@+++++++++++++++++++++++++++O+OO+++++OO+++++++OO+OO+++OOOOOOOOOOOOO++OOOOOO++OOOOO++++++OOOOOOOOOO++++++#",
"O++++++++@@@##++++@+OOO++OOOOOOOOOOOOOOOO+++++++++++++++++++++@@@+@++@@@#@@+OO++@@++++++@@@@@@++@@@@@@@@@@@@@@@@@@@@@@@@@@@@@@@@@@@@@@@@@@@@@@@@@@@@@@@@@@@@@@@@@@@@@@@@@@@@@@@@@@@@@@@@@+@#$%$$#@@@+O+++@+++@@@@@@@+@@@@@@@@@@@+++@@@@+++++++++O++@++++@@@@++++++OOoooooOO+++++++++OOOOOOO++++++OOOOOOO+OOOOOOOOOOOOOOOOOOOOOOOOOOOOOOOOOOOOOOOOOOOOOOOOOOOOOOOOOOOOOOOOOOOOOOOOOO+@@++++OOOOOOOOOOOOOOOoOOOOOOOOOOOOOOOOOOOOOO++++++++++++OO++OO+##@+++OOO++OOOO+++++++++++++++++++++++++++++++++++++++++++++++++++++++$++++++++++++++++++++++++++++++++++++++++++++++@@@@#$#@++OOOO++++++++++++++++++++++++++++++++++++++++++++@@+++@#$$#@+OooooXoO++O+++++++++++++++++++++++++++++OO++OOOO++OO+++++++OO+OO+++OOOOO++OOOOOOOOOOOOOO+++OOO++++++OOOOOOOOOOOO+++++#",
"###@++++++++#@OO+@@+++++OO++OO++++OOOOO+++++++++++++++++++++++++++@@+@@@#@++++++++++++++@@@+@@++@@@@@@@@@@@@@@@@@@@@@@@@@@@@@@@@@@@@@@@@@@@@@@@@@@@@@@@@@@@@@@@@@@@@@@@@@@@@@@@@@@@++@@@@@@#$%%$#@##++++++++++@@@@+++@@@@@@@@@@@@@@+@@@+++++++++++@@@+++@@#@@+++@@+OooXXooOOO+++++++O+++OOOOO++++OOOO+OO++OOOOOOOOOOOOOOOOOOOOOOOOOOOOOOOOOOOOOOOOOOOOOOOOOOOOOOOOOOOOOOOOOOOOOOOOO+@@+++OO+++OOOOOOOOOOOOOOOOOOOOOOOOOOOOOOOO+O++++++++++++OO++O++##@@@+OooOOOoOOO++++++++++++++++++++++++++++++++++++++++++++++++++++++X+++++++++++++++++++++++++++++++++++++++++++++++@+@#$#@++OOOO++++++++++++++++++++++++++++++++@+++++++++++@+O+@@#$#@++OOoooooO+++++++++++++++++++++++++++++++OOO++O+OO++OO+++++++OOOOO+++OOOOO++OOO+OOOOOOOOOO+++OOO+++++OOOO++++++OOOOO+++#",
"$$#+O++O++O+##+oOOOO++++++++OOO+++OOOO++++++++++++++++++++++++++++@#@+@@@@+@@++++@@@@@@@++++@@@@@@@@@@@@@@@@@@@@@@@@@@@@@@@@@@@@@@@@@@@@@@@@@@@@@@@@@@@@@@@@@@@@@@@@+++@@@++@@@@@@++++@@@@@#$&%$#@##@+++++@+++++++++++@@@@@@@@@@@@@@@@+++++++++++@@++@@@++@#@++++++OoXXXXooOOOOO+++O++@@+++OOO+++OOO++OOOOOOOOOOOOOOOOOOOOOOOOOOOOOOOOOOOOOOOOOOOOOOOOOOOOOOOOOOOOOOOOOOOOOOOOOOOO++@@++++++++OOOOOOOOOOOOOOOOOOOOOOOOOOOOOO++++OOOO+++++++++OO+OO+#$$#@+OOOOOOoOOO++++++++++++++++++++++++++++++++++++++++++++++++++++++++++++++++++++++++++++++++++++++++++++++++++++++@+@#$#@++OOOO+++++++++++++++++++++++++++++++++++++++++@@++++++@##@@@++OOoooO+++++++++++++++++++++++++++++++++OO++++O+++OO+++++++OOOOO+++OOOO+++OO++++OOOOOOOO+++OOO++++OOO++++OO++++OOO+++#",
"@@+OOO+OO+O+##+OoooOO+++++++OO+++OOOO+++++++++++++++++++++++++++++@@++@@#@+++++++@@@@@@@++++@@@@@@@@@@@@@@@@@@@@@@@@@@@@@@@@@@@@@@@@@@@@@@@@@@@@@@@@@@@@@@@@@@@@@@@@++++@@@++@@@@@+++++@@@@#$&%$#@##@++++@@+++++@++++@@@@@@@@@@@@@@@@@+++++++++++@@++@@@++@#@+++++OoXXXXXooOOOOOOOOOO+@@@++OOOOOOOOO+++OOOOO++OOOOOOOOOOOOOOOOOOOOOOOOOOOOOOOOOOOOOOOOOOOOOOOOOOOOOOOOOOOOOOOOOOO+++@@@@@@+OoooOOOOOooOOOOOOOOOOOOOOOOOOOOOOO+++OOO++++OO++++O++O++#$$@@++OoooOOOOO++++++++++++++++++++++++++++++++++++++++++++++++++++++++++++++++++++++++++++++++++++++++++++++++++++++++@#$#@++OOOO++++++++++++++++++++++++++++++++++++++++++++O+@+O+#@@@+++OoooooO++++++++++++++++++++++++++++++++OO++++O+OOOO++++++OOOOOOO+OOOOOOOOOOOOOOOOOOOOOOOOOOOOO++OOOO+++OOOO+++OOO+++#",
"OOO+O+++OOO+@#+OOO+++++++OOO++++++O+++++++++++++++++++++++++++++@+++@@@@@@@+OO+@@@@+++@@@@@@++++@@@@@@@@@@@@@@@@@@@@@@@@@@@@@@@@@@@@@@@@@@@@@@@@@@@@@@@@@@@@@@@@@@@@@@@@@@@@@@@@@@@@@++++@@#$&%%#@@@+++++@@++@@@@@@++@@@@@@@@@@@+++@@@++++++++++++@+++@@++@@@++++OOoXXXXXooOOO++O+++OOO+++++OOOOOOOOOOOOOOOOOOOOOOOOOOOOOOOOOOOOOOOOOOOOOOOOOOOOOOOOOOOOOOOOOOOOOOOOOOOOOOOOOOOOO+++@@+O@+OOooXoOOOOOOOOOOOOOOOOOOOOOOOOOO+++OOOO+++++OO++OO++++++@###@@@+OooOO+OO+++++++++++++++++++++++++++++++++++++++++++++++++++++++++++++++++++++++++++++++++++++++++++++++++++++++++@#$#@++OOOO++++++++++++++++++++++++++++++++++++++++++++++@@OO@##@OO+OOooooO+@+++@+++++++++++++++++++++++OO+++++++OO+OOO+++++++OOOOOOOOOOOOOOOOOOOOOOOOOOOOOOOOOOOOOOOOOOOO++++++OOOOO+O+#",
"OO++++OOOOOO@@+OOOOO+++++OOO++++OOOOO+++++++++++++++++++++++++++@+++@@@@@@@+OO+@@@@+++@@+@@@++++@@@@@@@@@@@@@@@@@@@@@@@@@@@@@@@@@@@@@@@@@@@@@@@@@@@@@@@@@@@@@@@@@@@@@@@@@@++@@@@@@@@@@@@@@@#$%%$#@@@++@++@@++@@@@@++++++++++++++@@+@@@+@++++++++O+@+++++++@@+++++OOooXXXooOOO+++O+@+OooXoOO+OOOOOOOOOOOOOOOOOOOOOOOOOOOOOOOOOOOOOOOOOOOOOOOOOOOOOOOOOOOOOOOOOOOOOOOOOOOOOOOOOOOOO+++@#+O++O++OoooOOOOOOOOOOOOOOOOOOOOOOOOO++OOOOOO++++OO++OOO+++++@###@##@+O+@++OO+++++++++++++++++++++++++++++++++++++++++++++++++++++++++++++++++++++++++++++++++++++++++++++++++++++++++@#$#@++OOOO++++++++++++++++++++++++++++++@++++++++++++@@+O+@@@##@++++++OOO+@@++@@@++@+++++++++++++++++++O++++++++OOOOO++++++O+OOOOO+OOOOOOOOOOOOOOOOOOOOOOOOOOOOOOOOOOOOOO++++++OOOOO+O+#",
"OO+++OoooOOO++++ooooO+++++OO+++OOOOOO+++++O+++++++++++++++++++++@@++@@@@@@@+O++@@@@@+@@@++@@@@++@@@@@@@@@@@@@@@@@@@@@@@@@@@@@@@@@@@@@@@@@@@@@@@@@@@@@@@@@@@@@@@@@@++@@@@+++++@@@@+++@@####@@$&%%#@@#@+@++@@@+++++++++++++++++@@@++@@@@@@+++++++++++++++++@@@@++++OOOooooooOO++++O+@@+OoXooO++OOOOOOOOOOOOOOOOOOOOOOOOOOOOOOOOOOOOOOOOOOOOOOOOOOOOOOOOOOOOOOOOOOOOOOOOOOOOOOOOOOOO+++@#@O+O+@@@+oOOOOOOOOOOOOOOOOOOOOOOOOOOOOOO++OO++++++++++++++++@##@@@@++OO+OOOO+++++++++O+++++++++++++++++++++++++++++++++++++++++++++++++++++++++++++++++++++++++++++++++++++++++++++++@#$#@++OOOO++++++++++++++++++++++++++@+++++++++@++++@@+++OO@###@@#@OOOOOOOO+@+++@@++@+++++++++++++++++++++++++O++OOOOO+++++++OOOOOOOOOOOOOOOOOOOOOOOOOOOOOOOOOOOO++OOO+++OOOOOOOO++++OO+#",
"++++++OOOOO+++++OooO+++OO++++++++OOO++++++OO+++++++++++++++++++++@++++@@@@@+++++@@@@@@@@++@@@@@@@@@@@@@@@@@@@@@@@@@@@@@@@@@@@@@@@@@@@@@@@@@@@@@@@@@@@@@@@@@@@@++@@@+++++++++++++++++@@@@@@@@#&&&#@##@@@++@@@+++++++++++++++++@@@+@@@@@@@+++++++++++++++++@@@#@@++++OOOoooOOOO+++++++++++OO+++OOOOOOOOOOOOOOOOOOOOOOOOOOOOOOOOOOOOOOOOOOOOOOOOOOOOOOOOOOOOOOOOOOOOOOOOOOOOOOOOOOOO+++@#@++@#+oOOoOOOOOOOOOOOOoOOOOOOOOOOOOOOOOO++++++++++++++++++++@##@++@@+OoooOOOO+++++OO+O++++O+++++++++++++++++++++++++++++++++++++++++++++++++++++++++++++++++++++++++++++++++++++++++++#$#@++OOOO+++++++++++++++++++++++++++++++++++++@+++@@++@@+O+#$#@@@+OoooooO++++++@++++++++++++++++++++++++++++OOOOO+++++++++OOOOOOOOOOOOOOOOOOOOOOOOOOOOO+OO++O++++OOO++++OOOOOO++++OOO+@",
"++++++@@+++++++++OOO+++OOO++OO+++++OO++++OOO+++++++++++++++++++++@+@@++@+@#@++O++++@@@+++@@@@@@@@@@@@@@@@@@@@@@@@@@@@@@@@@@@@@@@@@@@@@@@@@@@@@@@@@@@@@@@@@@@@@@@@+++++++++++++++++++@@@@@@@@$&&&$###@+++++@+++++@++++++++++++++++@@@@@@@+++++++++++++++++@@###@@+++++OOOOOOOOO++++OO@#$$#++++OOOOOOOOOOOOOOOOOOOOOOOOOOOOOOOOOOOOOOOOOOOOOOOOOOOOOOOOOOOOOOOOOOOOOOOOOOOOOOOOOOOO+++@##@+@@@+++OOOOOOOoOOOOOOOOOOOOOOOOOOOOOOO++++++++++++++++++++@#$$#@@@@@+OOOOO+++++++++++++++++++++++++++++++++++++++++++++++++++++++++++++++++++++++++++++++++++++++++++++++++++OOO++++#$#@++OOOO++++++++++++++++++++++++++++++@+++++++++++++++@@O+#%$#+++OOOoOOO++++++++++++++++++++++++++++++++++OOOOOOOO++++++OOOOOOOOOOOOOOOOOOOOOOOOOOOOOOOOOO++++++OOOOOOO++++++OOOOO+O+#",
"@++OO+@@@++++@++Oooo++OOO++++++++O++O+++++OO++++++++++++++++++++@@++@++@@@#@++O+++++@++++@@@@@@@@@@@@@@@@@@@@@@@@@@@@@@@@@@@@@@@@@@@@@@@@@@@@@@@@@@@@@@@@@@@@@@@@@++++++++++++++++++@@++@###$&&%%$$#@++++++++++@@@@@+++++++++++++@@@@@@@+++++++++++++++++@@#@@@@@+++++OOOooOOOO++OOO+#$$#@+++OooOOOOOOOOOOOOOOOOOOOOOOOOOOOOOOOOOOOOOOOOOOOOOOOOOOOOOOOOOOOOOOOOOOOOOOOOOOOOOOOOO+++@##@@@+@@++OOOOOoOOOOOOOOOOOOOOOOOOOOOOO+++++++++++++++++++++@###$#####@@++++++++@+++++++++O++++++++++++++++++++++++++++++++++++++++++++++++++OO++++++++++++++++++++++++++++++++OOOO++++#$#@++OOOO++++++++++++++++++++++++++++++++++++++++@@@@+O++@@@@##++++OoooOOO++OO+++++++++++++++++++++++++++++OOOOOOOO++++++OOOOOOOOOOOOOOOOOOOOOOOOOOO+OOOOOOOOO+++OOOOOOOO++++OOOO++++@#",
"++OOOO++++++++++OoXoO+OOO+OO++OOOOOOOO++++OO++++++++++++++++++++@@++++@###@+++O+@@@@@@++@@@@@@++@@@@@@@@@@@@@@@@@@@@@@@@@@@@@@@@@@@@@@@@@@@@@@@@@@@@@@@@@@@@@@@@@@++++++++++++++@@+@@@+@@###$%%%$###@+@++@@+++@@@+@@++++++@@@@@@@@++@@@@++++++++++@+++++++@@@++@++++++OOoooOOO++OO++++@@+++OOooOOOOOOOOOOOOOOOOOOOOOOOOOOOOOOOOOOOOOOOOOOOOOOOOOOOOOOOOOOOOOOOOOOOOOOOOOOOOOOOOO++++@$$#@+++OO+OOOOOOOOOOOOOOOOOOOOOOOOOOOOOOO+++++++++++++++++++@##@@@###@+OO++++++++++++++++++++++++++++++++++++++OO+O++O+++++OO++++O+++++O+++++++++++++++++++++++++++++++++++++++OOOO++++#$#@++OOOO+++++++++++++++++++++++++++@+++++++++++++@@@+++++@@+@@@++OooooooO++OO+++++++++++++++++++++++OO++++OOOOOO++++++++OOO+OOO+OOOOOOOOOOOOOOOOOOO++OOOOOOOOO+OOOO+OOOOOOOOOOOO++++@#",
"OOOOOOooOOOO+@+++OOOO+++OOOO+++OOOOOOO+++++O+++++++++++++++++++++@@++O@#@#@++++++@@@@@+@@@@@@@@+@@@@@@@@@@@@@@@@@@++@@@@@@@@+++@@@@@@@@@@@@@@@@@@@@@@@@@@@+@@@@+@+++++@@+++++++++@@@#@@@@#@@$%%%@@##@@@++@@@@++++@@@+++@@@@@@@@@@++++@@@@+++++++++@+++++++@@@++++++++OOoooooOOOOO++OOoooOOOOoooOOOOOOOOOOOOOOOOOOOOOOOOOOOOOOOOOOOOOOOOOOOOOOOOOOOOOOOOOOOOOOOOOOOOOOOOOOOOOOO++++++@$$#+O+++#@OOOOOOOOOOOOoOOOOOOOOOOOOOOOOOO++OO++++++++++++++++@##@@@#@@+OO++OO++++++++OOO+OO++++O++++O++++++++OOO+O++OO+++OOOOOOOOOOO+OOOOOO+++++++++++++++++++++++++++++++OO++++OOO++++#$$@@+OOOO++++++++++++++++++++++++++++++++++++++++++++@@+++O@#@++@+OOOOOOO+++O+@@++@++++++O++++++O++++OOO+++++++++++++++++OO+++OOO+OOOOOOOOOOOOOOOOOO+OOOOOOOOOO+OOOO++OOOOOOOOOO+++++@$",
"OOOOOOOOOOO+#@+oO++OOO+++++++O++OOOO+++++++++++++++++++++++++++++@@@++@#@OO++++++@@@@@++@@@+++@@@@++@@@@@@@@@@@@@@++@@@##@@@++@@@@@@@@@@@@@@@@@@@@@@@@@@@@++++++++++++@@@+++@@+@@@@@@@@@@@@@$&&%$#@##@+++@@@++++++@@+++@@@@@@@@@@@@@@@@@++++++++++++++++++@#@+@@@+OOOOOooooOOOOoOoOOOOOOoOOOooOOOOOOOOOOOOOOOOOOOOOOOOOOOOOOOOOOOOOOOOOOOOOOOOOOOoooOOOOOOOOOOOOOOOOOOOOOO++OO++++++@@@#@@@@++++OO++OO+++OooOO+OOOOOOOOOOOOOO+O+++OO++++++++++++++@####@@@@@+@#OooOO+++@@+OOO+@@@++++++++++OOOOOO+++++++++++++++O+OOOOOOOOOOOO++++++++++++++++++++++++O++++++OOOO+++++OO++++#$$@@+OOO+++++++++++++++++++++++++++++@@@@@@++++@@@@@@@@@++@@@@+O++OOO+OOO++++++++++OO++++O+++++++++++++++++++++++++++++++OO+++OOO+++++O+++OOOO+OOOOOOOOOOOOOOOOOOOOOOOOOOOOOOOOOOO+++@$",
"OOOOOOOOOOOO++++++OooO++@++++++O+OOO+++++++++++++++++++++OOOOO+++@++@+@##+oOOO+++@@@@@++@@++++@@@@++++@@@@@+@@@@@@@@@@@@@@@@@@@@@@@@++@@@@@@@@@@@@@@@@@@+@@####@@@++@@@@@@@@@@@@@@+@++@@@++@%*&%&%#@#@+++++++++++@@++++++@@@@@@@@@+@@@@@@@@+++++++++++++++@##++@@+++OOooooOOO++++OOO+++OOO++OOOOOOOOOOOOOOOOOOO+OOOOOOOOOOOOOOOOOOOOOOOOOOOOOOOOO+++OOOO++++OOOoooooooOoOOO+OO+++++@#++#@@@@++++OOO+@+O++OoOOOOOOOOOOooooOOOO++++OOOOOOOO+++++++++@######@@@@+OoOOOooO++OOO++OooOO+++++OO++OOOOOOO++O+++++++++++O++++++OO+++++++++++++++++++++++++++++O+++++++OO++++@@+++@++@$#+@@+OO++@@+++++++++++++++++++++++@+++++++@@@@@@@@@@@@@@@@#@@+O++OOO@+oO++++++++++#@OOOO+++++++++++++++++++++O++++++++++++OO++++O+++@+++OOOO++OOOO+OOOOOOOOOOOOOOOOOoOOOOOO+OoXooO++@#",
"+OOOOOOOO++@@@@@@+OoOOoO++OoO+++OOOOOOOOOOOO+++++++++++++++++++++@@@@@@@##ooo+@++@@@@@++@@@@+@@@@@+++++@@@++++++@@@@@@@@@@@@@@@@@@@@@@@@@@@@@@@@@@@@@@@@@@####@@@@@@@@@@@@@@@@@@@@@+++++@@@@$&*&**%$@OO+@@@@@+@@@@@@++++++++@@@@@++@++@@@@@+++@@@@@@+++@@+@$@OOO++++OooooOOOOOOOOOOOOOOooOOOOooooOOOOOOOOOOOOOOOOOOOOOOOOOOOOOOOOOOOOOO+++++++++++OOOOOOOOOOOOOOOOOOOOOOOO+++++++++@#@+@@@@@@+++OOooOOOOOOooOooOOOOOOOOOOOOO++++++++++++++++++++++@####@@###+oXOXXX.....XoO+OOOoO++@++OOO++++++++O++OOOOOOOOOOOO++++++++++++++++++++++++++++++++++++++OO++++++++++++++OO++OO@$$#+++OooO+++++++++++++++++@@@@@@@@@+++++++@@@@+@@@++@@@@@@###+O++OOO++oo++++++++++@@OOO+@+++@@++++OO+++++++OOOOO+OOOOOOOOOO++++++OOOOOOOoO+OOOO+OOOOOOOOO+OOOOOOOOOOOOOOOOOOOOo+OOO+@#",
"+OOOOOOOO+@@#@+OOOOO+OO++++OO++++OOOOOOOOOOOOOOOO+++++++++++++++++@@@@@@$$OXoO++@@@@@+++@@@@@@@@@@+++++@@@++++++@@@+++@@@@++@@@@@@@@@@@@@@#@@@@@@@@@@@@@##@@+@@@@@@@@@@@@@@@@@@@@@+++++@@###$&&&&&&%@OO+++++++++@@@@++++++++++++++++++++@@@+++@@@@@@@@@@@@@%#OO+OOOooooooOO+++OOoooOooooOO+OOOOooOOOOOOOOOOooOOOOOOOOOOOOOOOOOOOOOOOOO+++O++++++OoooOOOOooooOOOOOooooooooOOOOOOOO@++@@++@@@@@++OO++OoO@+OOOoXOOoooooOOOOOOO++++++++++++++++@@@@+@@@#@@@@+@@@@Oo+..XXoX..XooOOOOOOOOOOOO+++++++++++++OOO++++++++++OOoOOO+++++++++++++++++++++++++++++OOOOO++++OOO++++++OOOOOO@$$$++OOoOO++++++++++++++++++++@@@@@@@@@@@@@####@#@@&%#@@@#####+O+@+Oo++oXO+O+@@@@+OO@@O+@@+++@+++OOOOOOOOOOOOOOOOOOO+OOOOOOO+OOOOOOOoO+++O++++++@++OOOOOOO+OOOOOOOOOOOOOOOooOO++@+OO+@@",
"++OOOO++++O+@+OoXooooO+++++++++++OOOOOOOOOOOOOOOO+++++++++++++++++@@@@@@$$+Ooo+@@@@@@@@@+++@@@++@@++++@@@@@@@@@@@@++++@@@@++++@@@@@@@@@@@@@@@@@@@@@@@@@@@@@+@@##@@@@@@++@@@@@@@@@@@@@@@@@###%&&%$$%$@@+O+++++++++@++@++++++++++++@@@@@@@@@@+++++++++++++@@@%$@+@+++OOoooooooOOOOoXooooooO++OOOOOOOOOOOOOOOOooOOOOOOOOOOOOOooooooOOOOOO+++OO+++OOO+++OOOOO+OOOOOOOOOoOOOOOOOOOOOOO++oO+++@@@@@+OOOOOO+@@+++OoXXoooooOOOOO+++++@@@++++++++++++++++@@@@@@+++@+O@#+O.XXXooOooooO+++@++OOOO+++++++++@@@@@++++++++++++++@@@@++++++++++++++++++++++++++++++++++++++++OO+++++++@@++O+@@@++O++@@@++++++++@+++++++@@@@@@##########$#######@####@@@@@#@OO@++oOOX.XOO+++++++#&#O+@++++@@++++++++++++++++++++++OOO+++++++++++++OO+++OOO++OOO++OOOOO++OOOOOOOOOO+OOOooXOOOO@OOO+##",
"++OOOO++++O+@@OooooooO+++++++OOOOOOO++OO++++++++++++++@@+++++++++@@@@@@@$$@+Oo+@@@@@@@@@+++@@@@@@@++@+@@@@@@@@##@@+++@@++@@@+@@@@@@@@@@@@@@@@@@++++++++++@@@@@@@++@@@@@@++++++@@@@@@@@@@@#@#%&%%$$%#+@#+@@@@@@@@@+@@++@@@@@@@@@@@@@@@@###@@@@@@@@@@@@@@@###%%####@@+OooXXXXoooOOoXXooooooOOOoOOOOOOOOOOOOOOOOOO+OOOOOOooooXXXXXX+++++++++OOO++OOO++++OOO+++++OOO++++++++++OOOOOOO+OO+++#@@##@+OOO+O+#@+oooXooooOOOOO+++++@@@@@##@@@@@@@@@@@@@@@@++@@@@@@@#@+@#+oXXXXXooooooOOO++OOOOOOOooooOOOOOOOO+++++++++++@@@@@@@@@@@@@@@@@@@@@++++++O+OOOOOO++++@@@@@@@@@+++++++++++OooooOO+OOO+++O+++++++@@@@+++++++@@@@+++++++++++++++OOO++++++++O+@@O+@++oXoX  o@+++OOOO@@OOO+@++@@@@@+++++++++++++++++++++++++++++++++++++OOO+OOOO+OOOOOOOOOO++OOOOOOOOOOOOOOooXOOOo+OOO+#$",
"O++OOOOOOooO+++OoOO+++++++++O++++OOO++++++++++++++++OOO+++++++++++@@@@@@#$##+O++@@++++@@++@@@@+@@@@+@@@@@+@@@@@@@@@@@@++++@@@@@@@@@@@@@##@@@@@@@@@@@@@@@@@@#@@++++++@@@@@@@@@@@@@@@@@@@@@#@@#%&%%$&%@+@++++++++++++++++++@@@@@@@@@@########$$$$###@#####$##&&$$###@+OoX.XXoOOOOOoXXXoOOooO+OOOOOOOOOoooOOOOOOO+OOOOOOoooooooooooO++OOOOOOoooOOooXXXXoooooXXoooOOOOOOooXXXXXXXXXoo+O+@####@##@+OoO+OO+@+++OOOO+@++++++@@@@@@@@@@@@@@@@@@@@@@@@@@@oO+@@#####$#@++OOooooXXoOOoXXXXX.XXXXX............XXXoooooOOOOOOOoXXXXoOOOOOOOOOOoX..XoooooooooooooOOOOO++++OOOOooooooXXX..XXoOOOOoooXXXoOOOOOOOoooXXXXXXoooooooXXXXXXXXooXXX...........XO@@O+@+OOXX.  .XXXXXoooX .X.XOooOOOOOOOOOOOOOOOOOOOOOOOO+++++++++++++++OOoooXOO++O+++@++@@@++++++++++++OOOOOOOO.oOOO+oooO@@",
"O++OO+O+..   XO+XoO++++O++++++@++++++++++++++++++++++O+++++++++++++++@@#$%$#@++++@++++@@@@+@@@++@@@@@@@@@++++OO++@@@@@++++@@@@@@@@@@@@@@@@#############@@@+++@@@@@@+@@@@@@@@@@############@+@$&*%$*=%+OOooooooooooooooXXXoooooooooOOOO+++++@###@++++++++@@+$$##@###@+o.   .XXXXX.   .XX..XoooooooooXXXXXXoooooooXXXXXXXoooooooooooXXXXXoXXXXXXX..........................XXooOOOX+@+#%$#@###@+OoXXXX.oO++++OoOOoXooooOOOOOOoooooXXXXXXXXXXXXXXX.XXO+#$$$$@#$#+@+oooXXXoXX....        ......  ... ..........      ..XX..       ...... .....XXXXXX.........XXXX..........X. .XXoO++++OX.............       ....XX.........XXXX..          .o+@O+@+OOX..          ...                                    .   ..XX..    . ..XX.XXooooOOOooooooooooooooooooOO.XoO+@oXoO+@",
"+++OO+@@$@oO@Oo@OOOOOO+++++++++++++OOOO++++++++++++++++++++++++++++++@##%&**$+@$@@++OOoo@@@@@@@@@@@@@@+++@+OO++O+++++@@@@@@@@@@@@+++@@@@@@##@@##@@@@@@@@@@@++OOO+@@OXXo+ooOOOOOOOOoooooooXXoO@#%=%&=&@O++OOOoXXXXXXXXXX.........X..X....... . X..XoooO++##@+@@@@@#@+OX..           ......XooooooXXX..   .......XXXXXXXXXXXXXXXXXXXXXXXXXXX.XXXXXXXoXXX...X...     .XO+++@@#########$$$%&%$##@+OoX.                                    ...oooOOO++++@#$%&&%$#@@@@+++OOOOoXXXXX.....  ....X++XXX .ooooooXXXXXXXXXXXXXXXXXXXXXXoXoXooooooooooooooooXXX....XXXXXoXXXXXXoXXoooXXXXXO++++++OoooooooXXXXXXXXX.....XXXXXXXXooXXXXoOX............oOO#@@#+@+Oo              .......       ..    ....XX.                       ..            ..                .XoO ... ....XXX",
"+++OOO+@#@+@#@O@@@++++++++OOO+++++OO+O+++++++++++++++++++++++++++++++@@#**&%@OO@OOooooXXXXXXXXXXooOOooXXoOOoXooXooOOoOO+++OOOOOooooooOOOOOOOOOOOooooooooooooXXX...X.  .XXXXX..  oo.  .....Xo+@$%=&%&&@+#@+#@+++++++OOOOOoooooooooooXXXXX...OOOOOO+++O++@##@@$$%&%$#@++oX.       ..XoXXXXoOOOOOOOOoX.. ......XXXoOOOOOOOOOOOOOOOOOoooooooooooOOOoooooOOOOoooOOOoooO+@####%%%$$$$$$$%%$$%&&%$###@++OooooXXXXXXX..XXXXXX.......XXXXooooOOOOO+++@#$$$###$%%&%$$%$########@@@@@+OO+++OOooooooO@@oO+oOOOOOOOOOOOOOOOOOOoO++O+@@@@@@@@@@@++OOooooooooooO+OoXXooooXoooX....XoooX. .XoooOooooXXX......XXXXXXXXXXXXXoooOOOooOOOOOOOOooooooooooooooOOO+++@++@+oX...            .............   .X..OX..XXXXXXXXXXoooXooooooooOooXXX..XX.     ..     .....  ..XXooooX..XoooOOOOO",
"+OOOOOooO+++++oOooO+@@++@@+OOO++++++++@@@@@@@@@@@@#@@@@@@@@@@@@@@@@@+++@%%$+oX......XXXXXXXXXXXX..XXX.  .XX....  ..XX.XXXXXXXXX..XXXX..XXXXXXoXXXXXXXXXXXXXXXXXXXX.. ..XXX.....XXXXXX..XXooO+#$%&&&&*%#$@+#$###@######@@@@@@@@@+++@@++++++O+@@@+@@##@##$%%%%%&&&&%$#@+OooXXXoooOOO+@+OO+++++++@@++OoXXXooOOOOO++@++++@+@@@@@@@@@@+++++++++++@@++++@@@@#############$$$%$**&&%%%%%&**%$%&&%%$$$$##$$#@@##@++++O+++OOOOOOOOOO+++++++@@@@@@#$$$$$$%%%&&%%%$%%%%%&&&&%%%$$$$$###@@@@@@@@@@@@@+O@@##+#########@@@@@@@@@$$$#$$##########@@@++OOOOOOOOO+++OX.XXX...X....  .....   ....X..XXXX..XXXXXoooooOOOooooXXooooOOOOoOO++$+OOOOOOOOOOOOOOO+@@@+O+O++oOXXXXXXXXXXXXXXXXXXXX.........  XOo XXooooooooooOOOOoooOOOOOOO+OooXoXXoXoo.. .  oOX....XXXXooooOO+++oXXoOOOO++++",
"+++OOoooooOOooXXOOO+++OOO+++@@@+++++++++O++++++++++++++@@++++++++@++OOO++@@OooX ...XXXooXXXXXXXXXXoooooXXooXXXX..XXoooXXXooOoooooooooooooooooOoooooooooooooooooooooO++OoXXXoooOOOO+@@@@@+@@#$%&&*=--;;==&#$%%%%$$$$$$$$#########@@#$############$%%%%&***=***&&&&&&%#@@+++++++++@@#####$$###$$$$$#@+OOO++@@############$$$$$$$$$$$##$$######$$$#$$%%%%%%%%%%%$$$$$$%%%%&&&****&&&&**%$%**&&%%%%$$%%%$$%$#@##@##$########@@#####@@@@@#####$%$$$$$%&***&&&&*&%&&*****&&&&&%%%&%%%%%$$$$####@@$$#$##$$%%&&&%%%%%%%%%%%%$#@@@@@##$$$$$$$$##########@@@@+oXXXXX..X.XooXooXXXXXX... ..XXXXXXoooOOOOOOO++++++OOOOOOOOOOOOOOO+++$#+++OO+@@@@@@@@@#%%%$##@+Oo++++.XoOOoX...XXXXXX.XoOOOoX.oX .O+oXoO+OOO+++@@@+OO+++++++++OOOO+oooXXXXooooOOOO+Oo....XooOOoooO++++@#+++++++++",
"OOoX...XXXooXoXXXXX.  ..  .XXXXXXXX.................XXXXX.......XXX...XXoO+O+@@OOOOOOOOOOoOooooooooOOOOO+++OO++O++++@@@++@@@@@@@@@@@@@@@@@@@@@@@@@@@@@@@@@@@@@####@###@+OO+++OOo@#@@$&&$$$$%&**=--;;-;:;=&&&&&&&&&&&&&&%%%%&&&&&#$$$$$$%%&&&&&&&&****==-======------=*&%$$$$$$###$$%&****&&**==-*&%#@++@@#$$$%%%%%%%&%&&&&&&&&&&&%%%&&%%%%%%&*&&&&&&&&&&&%&&%%%$$####@#$&&**==--===-==-;;-===*&&%%&&***&&&&*%$$%%%%%%$$$$$$$$$$#####$$$$$$$$$%&****==---=*===*****====***=***&&%%%%%%%%$@O+@$%%*&&&&&*&*********&%$$#@#####$$%%%&&&&&&&&%%$$###@@@##+OOOOOooOO+@++@$$#@+OOoOoooooooOOO+++O++++++OOOOOOOOOOOOOOOOO++@@@@@@$$#@@#@@@##$$$%%%%%$$$#$@@#@@OoooooooooooooooooooooXXXXXO@+Oo++$#@@#$$#################@++++@++++OooOO+##$#++@oXX...XO+OOOOO+++###@+++OOOOO",
"o...XXXXX.XXXoXoXX.   XoX...  Xo                          ...   .....XoooOOO+#$$########@@@@@@@@@@@@@####$##@##@@@+@@##@#####@#######$####$$###$########$$$$$$$$=&$#######@++OOO@$$##%&&&&**=-;:::>>::>:;;----;;;::;;;;;;;;;;;;;*===*=-;:::::::::>>>>>>,>>,,>>>>>>>>:;;-=====----;--;;;;--=----;=*&$@++@#%&*&*&*****************=*&*=**&****=-==*********&&&&%%%$@+@@#&=:;;;;;:::;::;--;;;---=***=========******===****&&&&&&&&%%%%%%&&&&**&&**====----;-----=======*&&%%&&&&&&&&&%%%$$$+OOO@$&=******************&&&&&&$%$@@$%$$%%%&&%%********#@#@+OooO+O+@@#$##$%$#@@@@+++@+++++++++++OOOOOOOOOOOoooooooXXXXXOOOOO++++#$##$%%%%%%%%%%%&&&&**%&##%#$#@++@@##$$##$#####+O+++oX.++#%$@@$@@@@@###%%$$$$$$$#########@@+@@##@@@@++@%%#@##@OOOoXXo+++@++@@$$#@+@@+++++++",
"o..oO+OooooooOooooX.   ......XO+XXXXXXXX....... ........XXoooooXoOOOOOO++O++@@#$$$$$$$$$$$$$$$$$$$####$$$$$##$#@@@@@@@@@@@######$$$$$$$$$$%%%%%%$$$$$$$$$$$$$$#####$$$##@@+++++@@#%&$#%****=--;;;;:>::::>,>>,,>>>:::;;;;;;-------;;-==---=======----=--;--::;--==**&%%&&&&&&&***==*&&&&&&%%%%$$$%%$#+O+@$*=;;;;--------------==-;-==--======-;-----===**=**&&%&&$Oooo+$======**&&&****&&**&&&&%%%%%%%$%%&&%%%&&%%%%$$$$$$$$$$$$#######$$$%%$$##$$%%%%$$$$%$###$$%%%$#$$$$$%&******&&%$$##@OO+$=;--;;::>>;;;;;;;;;::::;;-;-*&%&&******&&&%%&&**==&%$#@+OOO++@#@@@@@@#@OO@##@++@@#@+OOOOOOOOOOOooXXXXXooooOOOO++++++++++@@@@@@@##$##$$%&&&&====*&&&%%&%%$$$$$$%&&&&&&&****%$#@++OO##$&&&&=%&**&%%%&&&&&%%%&&%%%%%&&**&&%&&&&&&&%%$##+O@$@+OoooOO+@#$$##$&*%$#$%$$$$$$$",
"OXXoOOooOOO+O+O+OooOOOoO++++@@+OO++OOOOOOOooooooooooooooOOOOOOOO+@@@++++###$$@@#$$$%%%%%%%%%&%&&&%%$$$$$$$$####@##$$#######$%%$$%%%&%%&&&&&&**&&*********&&%%%$$$$%&&%$#@@@@@@++O+$**%%&&%$#@@@@+@+@##$&*=***%#@####@@@+++OOOOOO##$#+oooOOO@@@@@@@@++++@OO@@@@@@+++++++++++++OOO+@@++++#$#####@@###@+OO@%=;:>>::>>>>>:::::::::::>;-;:;-=-----;;----====**&&&&%%%#+OOoo+$@++++++++++@#####@@@##@@+++@@@++##@@@@+OoOOOOO++++++OOOOOO+++++++++OOO++++++OOOOOOO+++++OOO+@##$%$#@@@#######@@@@@OO@$&*=-;-*&&===*&&*=--=*&*==*****************$&&&=&$%*&%#+OOoOO+@#@+++O+@+OO++++++++++OooooOOOOoooOooOOOOOOOO++++++++OO++++++$+OO+OO+OOOOOOOOoO+oOo.oo@#@$@@@@@@@@@@@@###$$$%*%$@OoX.+#&===-;-=*******=====********&&===--=*%%%$$$$$$@++OO@@+XXXoOO++#&&%$$%&&&*&%&&&&&%%",
"OOoXXoOOO+@+@##@@@@##@Oo++OOO@#X@@++@++++++++++++++O@%$+##@@+++O++@##$$$%%$#$%&&%%%%%%%%%&&&%&&*********&**%###%#@@%&=*@$&&&*=*%$$$%%&*&*==--------------==--;;*==*****&&&%$$$#@+++@@@@++@@@++@@@@@+OoO+@+OO+++++@@++++++++++++++++++++++++++++OOOOOOOOOOOOOOOOOOOOOOOOOOOOOOOOOOOOO+++@@@@@++++$##@@@@#@@@@@@@#&&&&****====---;;;;;::;;;;;;;;::::::::::::::;-%$OOOooooO########@@@@@@@@@@@@@@@@@@@@@@@@@@@+++@@@@@@@@@@@@@+++@@@@++++++++++++++++@@@@@@@@@@@@@@@@@@@@@@@@@@+@@+++@@+++@++OOoO@#$$@+OOO+OOoXXooOOOOOOOOOOOOOOOOOOOoooOOOO++++@@@@##@++OoooO+@@@++++++++O++OOOO++OOOOOOOOOOOOOOOOOOOOOOO++OOOOOOOOOOO++OO++OOOO++OO+++OOOOOO+++OOOOOOOOOOOOOOOOOOOOOOO+++@@@+OX  oO@#@+@@%%%%%%%%$$#@@##@+++OOOOO++++@@++OooooXXXX..ooo++OOXo#$$#$%&*&%$$$&%$%*=*&=-=",
"+++++++++@@@@######@@@@+@#+Ooo+XoOO+@@@@#########$$##@@@#$$$$$$$$$$$$$$$%%$##$&*&&&&&&&&&*****===========--=&$$$$#O$**&&%%&*&%%&%%&&**====--;;::;------->>;::>>>;;:>>:-=*-*%$$#@ooOOOO+++++++++++++++OO++++++++++++++++++++++++++++++++++++++OOOOOOOOOOOOOOOOOOOOOOOOOOOOOOOOOOOOOOOO+++@@++++O++++OOOOOOOOOOOOO....XXXXXXXoooooOOO++@@@@@@@@@@#$$%%%&&*====*&##OOoooooo@@@@@@@@@@++++@@@@@+++@@+++++++++++++++++++++++++++++++++OOOO++++++++++++++++++++++++++++++++++++++++++++@##@@@++OOoooO+++OOoOOOOOOOOO++OOOOOOOOOOOOOOOO++OOOOOOOOOOOOOOO+@@@@+OooO+++OO++++++++++OOO+++OOOOOO+O++OOOO++OOOOOOOOOOOOOOOOOOOO+++O+OOOO+++OO+++OOOOO++++OOOOOOOOOOOOOOOOOOOOOOOOO++@@+oX   ..XXXXX .oOOOooooXXXOOoooooXXXXXXXXXXoooooOOOOOoXXooO+oo+o.O@#&==---=**&%%&&&**$%*=",
"$$$$$$$$%&%%%%%$$#@@@#$$@#@+Oo+@@@######$$$##@@@###########@@@@@##$%%&&&**&%&*=============---==---------;-=*%$##@ooO#&=*%&&**====--;;;:::::>>>>>,>>:::;::>--;;;;;;;;:::-:=$@++OooOOOO++OOOO+++OOOO+@@+OO++++@++++++++++++++++++++++++++OOOOOOOOOOOOOOOOOOOOOOOOOOOOOOOOOOOOOOOOOOOOOOOO++OOOOoO+++OooooooOOoooOoooOOOOOOOOOOOOOooooooooooooooooXXXXooooXXXXO+oOOOOooooO@@@@@@@@++++++@@@@++++@@++++++++++++++++++++++++++++++++++++++@+++++++O+++++OOOO++++O+++++++++++++OO+++++@###@@++OOoXXooOoooooOOOOOO++++OOOOOOOOOOOOOO++++++++++OOOOOoooo+@@@@+oOOOOOO++++++++++++OOOO++OOOOOOOO+OOOOO++OOOOOOOOOOOOOOOOOOOO++OO++OOOO++OOO+OOOOOOOOOOOOOOOOOOOOOOOOOOOOOOOOOOOO+@++oX  XXooooOOoXXXXXXooOoooO+OOO+OOO+++++OOOOoO++OO++OOoooXO@oo@O.Xo+%>>>>>>::;;:;=%$$%%&-",
"&&&&&&&&*==**==*&%%%&&&&#$$$%$%=&%$##%&*&&%%$$$$$$$$$$$$********==-;;;::;**=;:;;;;;;;;;;;;::::::::::::::-=*&$#@@@##++%-;;:--;>>>:::::::::;--=*&&&&&&&&&&###@@@@+++OO+#%&&*&#+OOOOO+++++++OO++++++OO+@#+OO+++++++++++++++++++++++++OOOOOOOOOOOOOOOOOOOOOOOOOOOOOOOOOOOOOOOOOOOOOOOOOOOOOOOOOOoooo@@+OooooooOOOOOOOOOOOOOOOOOOOOOoOOOOOOOOOOOOOOOOOOooOOOoooOoO@O@+++OOO++++++++++++++++++++++++@+++++O+++++++++++OOO++++O+++++++++++++++++++++++++++++OOOOOO++++++++++O+++OOOOOOOOO+@@@@++OOOoooOoooOOOOOOOOOOOOOOOOO+OOOOOOO+OOO++OOOOOOOOOOOOOOO+@+++OoOooXoO@#+++++++O++OOOO+OOOOOOOOO+OOOOOOOOOOOOOOOOOOOOOOO++OOOOOO++OOOOOOOO+OOOOOOOOOOOOOOOOOOOOOOOOOOOOOOOOOOOOO++@+OoX..XOoooOOOOOOOOOOOOoooOOoooOooOOOOooOO+++++++++O++OOOoo+OXOOXXX+$**&&&&**=;:;=%@+#+#*",
"========-;;;;::;:;;;;-=******%#%&&**&&&&&&&&&&%%%%%%%%%%%%&&&&&&&&&%%%%%$$####@+@@@@@@@@######$%&%$%&*&$&%%$#@++@+@#&-:>>>>:;-----=*&%$$#@++OOOOooOO++@@@@@@@@@@@+++++++@###+OOOOO++++OOO+++++@@+OO+@@@+++++OO+++++++++++++++++OOOOOOOOOOOOOOOOOOOOOOOOOOOOOOOOOOOOOOOOOOOOOOOOOOOOOOOOOOOoooooo@@+OoXoooooOooooooooooooooooooooooooooooooooooooooooOOOOOOOOO@@@@++OOOOO+++++++++++++++++++++++++++++++++++++++++++++++++++++++++++OOO++++++@@+++++++++++++++++++++++++++++++++OoOO++@@@++OOOoOOooOOOOOOOOOOOOOOOOOO++OOOOOOOOOOOOOOOOOOO++++++++++OO++OoooooO+@++++++OO++OOOOOO++OOOOOOOOOOOOOOOOOOOOOOOOOOOOOO++OOOOOOOOOOOOOO++OOO++++++OOOO+OOOOOOOOOOOOOOO+OOOOOOOOO@@@+OoXXooOOOOOOOOOOOOOOOoooOOOoOOOOOOOOOOOOOOOOoOOOOO++OOOoo@+..ooXXO+OooXooOOOooO#&&%++$O",
":::::::::>>::::;;;-*&&&**&&&&$+++@#$#+OXOO+@@@OOOOOOOOoooooooooooooooOOO@%%#+OooOOOOOOOOO+++@@++++++O+++##$$#@OO@@@#%%$$#@@@@OooOOOOOOOOO+++++++++++++++++++++++++++++++++@#@+OoOOOO+OOOO+++++@@@++OO+@@++++OOO+++++++++++++OOOOOOOOOOOOOOOOOOOOOOOOOOOOOOOOOOOOOOOOOOOOOOOOOOOOOOOOOOOOOOOOOOOO@@+OoXXXoooOooooooooooooooooooooooooooooooooooooooooooooooooOO+++OOooooOO++O++O+++++++++++++++++++++++++++++++++++++++++++++++++++++++++OOO+++OO++++++++++++++++++++++++++++++++OO+++@@@@+OOooOOOoOOO+++++OO+OOOOOOO++OOOOOOOOOOOOOOOOOOOOOO++++@@@OOO+OOO+@@@++O+++++OO++OOOOOO++OOOO++OOOOOOOOOOOOOOOOOOOOOOOO++OOOOOOOOOOOOOO+++OO+++++OOOOO+OOOOOOOOOOOOOOOOOOOOOOOO+@@@+Ooo.XoOOoooOOOOOOOOOOooOO+OOOOOOO+++++++OOOO++OOOOOOOoOoO#+XXooXXooooXXXooOoXXO#&-;-&%$",
"::;-=*&&$%$#@@@+OOoX..Xoo.oOO+ooOOOoooOOOOOOOOOOOOOOOOOOOOOOOOOOOOO+++++#$$+OOOO+++++++++O++@@++@@@@@@@@@#$$#+OO+@#OO++++O++@@@++OOOOOOO++++++++++++++++++@@@@@@@@@@@+++++@@+OooOOO+++++++++++++++@+oO+@@++++OO++O++++++OOOOOOOOOOOOOOOOOOOOooooooooOoooOoooooooooooooooooooOooooOOOOOOOOOOOOOOO##@OoooooOOOOOOoooooooooooooooooOOOOOOOOOOOOOOOOOOOOOooOOOOOOO++OOooooooO+O+O++OOOOOO++@@@@@+++++++++++++++++++++++++++++++++++++O+++@@+++++++++++++++++++++++OO+OOOOOOOOOOOOOO++++++@##@+OooooOOOOOO+++++++OOOOO+++++++++++++++++++++OOOOOOOOOO@#@++++OO++@@@++++++++++++OOOOO++++OOOO+OOOO++O+OOOOOOOOOOOOOOOOOOOO+O++OOOOOO++++OOOOOO++OOOO++OOOOOOOOOOOOOOOOOOOOOOOO+@@@+OoX.XOOooOO++OOOOOOOOOoOOOOooOOOOOOOOOOO+++OOOOOOoo@+OOOO@+ooooX.XOOOoOOO++OOOoO+#%==&$",
"+++OOooooOOooOOoO+++++++@O@@O@+++++OOO++OOOOOOOOOOOOOOOOOOOOOOOOOOOOO++++OOO+@++++++++++++++++++O@@OO@@O@#$#+OOO+@$+O++++@+@++OO++++++++++++++++++++++++++++++++++++++++@##@+OOOOOOO+++@++O++++OO+@+OoO++++@++++OO+++OOOOOOOOOOOOOOOOOOOOOOoooooooooOoooooooooooooooooooooooOooooOOOOOOOOOOOOOOO##@OoooooOOOOOOOOOOOOOOOOOOOOOOOoooooooooooooooooooooooOOOOOOOOOOOooooOOO+OOO+++OooOOO++@@@@@@@@+++++++O+++++++++++++OO++++++++++OOO+++++++++++++OOOOOO++++++OOOOO++OOOOOOOOOOO++++++@##@+OOOoOOOOOOOO++++++OOOOO+++++++++++++++++++++O+OOOOOOOOO+@@@@@+XXXooO++++++++++++OOOOO+++OOOO++OOO+++++OOOOOOOOOOOOOOOOOOOO++++OOOOOOO+OOOOOOOOOOOOOO++OOOOOOOOOOOOOOOOOOOOOOOOO+@+OoXXXooOOOO+OOOOOOOOOOOooOOooooooOoOOOOOOOOOOooOOO++OOO@@O@#@OooX.X+ooooOOOOOOOOooooO+O+",
"++++++++++OO+++++++++++OOOO++++++++OOOOOOO++++OO++OOOO++OOO++++O++++OOOOO+++O+++++++++++++++++++++++++@+@#$$@OO+O+@+OO@@++++++++++++++++++++++++++++++@+++++++++++++++++@##@+OOOooOOO++++++++++OO++++OOOO+++++++O+OOOOOOOOOOOOOOOOOOOOOOOOOOOoooOOoooOOOooOOOOOoooooooOOoooOOooooOOOOOOOoooOOOO+@@+OoXooooOOOoooooooooooooooooooOooooooooooooooooooooOOOOOoO+++OOoooooOO+++OOOOO+++OOOOO++++@@+++++OOOOOOOO+OOOOOOOOOOOOOOO+OOO++++OOOOOOO++++OOOOOOOOOOOOOOOOOOOOOOOOOOO++++++++++++@##@+OOOOOOOOOOOOOOOOOOOOOOO++++++++++++++++++++OOOOOOOOOOO+##@@+ooOOOOOO+++++++++O+++OOO++OOOO++++O+OOOOOO++OOOO++OOOO++OOOOOOOOOO+++OOO++OOOO+++++OOOOOO+OOOOOOOOOOOOOOOOOOOOOOOOO+++OoX.XoooOO++OOOOOOOOOOOOOOOOOooooooooOOOooooooooooooOOO@@O@#@oXXX.XoooOOOOOOOOOOOOOOOOO+",
"++++++++OOOO++++++++++OOOO++++++++++OO++OO++O+OO+++OOOO+OOOO++OO++++OOOOO+++O++++++++++++++++++++++@@@@@@#%%@OO+O++oOO++++++++++++++++++++++++++++@+++++++++++++++++++++@#$#++OOOOOO++++++++++++++++++OOOO+++++++OOOOOOOOOOOOOOOOOOOOOOOOOOOOOOOOooooOOOooOOOOoooOooooOOoooOooooooOOOOooooooOOOO@@+OoooooOO+OOooooOOOOOOOOOOOOOOOOOOOOOOOOOOOOOOOooooOOOOOoO+++OoXoXXo++++OOOooO@@++++OOOOOO++++++OOOOOOOO++OOOOOOOOOOOOOO++OOO+++OOO++OOOO++++++OOOOOOOOOOOOO+++OOOOO+++++++++++++++@#@@+OOOOOOOOOOOOOOOOOOOOOOO+++++++++++++++++++++OOOOOOOOOOO@#++OooooO+++++O+++++++++OOOO+OOOOO+++O++OOOO++++OOOO++OOOO+++OOOOOOOOO++OOOO+OOOOOOO++++OOOOOOOOOOOOOOOOOOOOOOOOOOOOooO+++OoXXXXoOOOOOOOOOOOOOOOOOOOOOOooOOOooO+OOO++OO++OOOOoOOO++O++OoX..XXXXoOOOOOOOOOOOOOOOOOO",
"++++++++++OO++OOO+++++++++++++++++++++++OOOOOOOO++OOOO++OOOOOOOOOOOOOOOOOO+++++++++++++++++++++++++@@@@@@@#@+OOO+@OXoOO+++++++++++++++++++++++++++++++++++++++++++++++++@#$$@++O++++++OOO+++O++@@++++++OOOOOOO++++OOOOOOOOOOOOOOOOOOOOOOOOOOOOOOOOooooOOooooooooOOOOooOOooOOoooooooooooooooooOOO@@+OooooooO+OOOOOOOOOOOOOOOOOOOOOOOOOOOOOOOOOOOOOOooooOOOOOOO+OOooOoXoOOOOOOOooX++++++OOOOOOOO+OOOOOOOOOOO++OOOOOOOOOOOOOO++OOOOOOO+++@++OO+++++++++OOOOOO++++++++++++OOOOOOOOOOOOOO+@##@+OOOooOO+OOOOOOOOOOOOOOOOOOOOOOOOOOOOO+OO++++++OOOOOOOOO@@++OooXoO+++++O++++++O++OOOOOO++OOOOOO+OOOOO++++OOOOOOOOOO++OO+++O++OO++OOOOOO+OOOOOOOOOOOOOOOOOOOOOOOOOOOOOOOOOOOOOOoO+++OooXXXoOOOOOOOOOOOOOOOOOOooOOoOO+++OOOO++++++OO+++++OooOO+@+++. XoXooOOOOOOOOOOOOOOOOOOO",
"++++++++++++++OOO+++++++++++++++++++++++OOOOOOOOOOOOOO++OO+OOOOOOOOOOOOOOO++++++++++++++++++++++++++++@@@@@@+@++++OOoOOO+++++++++++++++++++++++++++++++++++++++++++@++++@#$$@++OOOOOOOOoOOOOOO+@++OOO+++OOOOOO+++OOOOOOOOOOOOOOOOOOOOOOOOOOOOOOOOOooooooooooooooOOOOooOOooOOOOoooooooooooooOOOO++++OooooooOOOoooooOOOOOOOOOOOOOOOOOOOOOOOOOOOOOOOOooooOoooOOOOOOOO++ooOOOOoOOOooooOOOOO++++++++++++++++++++++++++++++++++++++++++++O+++++++++OOO++++++++++++++OO+O+OOOOOOOOOOOOOOOOOO+##@+OOoooO++OOOOOOOOOOOOOOOOOOOOO+OOOOOOO+OOOOO+++OOOOOOOO+@@+++OoXXoOO+++++++++++++OOOOOO++OOOOOO++OOO++++OOOOOOO+OOOO+OO+++++++O+OOOOOOO+OOOOOOOOOOOOOOOOOOOOOOOOOOOOOOOOOOOOOOOO+++OoXXXXXOOOOOOOOOOOOOOOOOOoOOOoOO++OOOOOOOOOO+OO+OO++OoO+OO@+++. OOo+OOOOOOOOOOOOOOOOOOOO",
"++++++++++++++OOOO++++++++++++OO++++++++++OOOOOOOOOOOOOOOOOOOO++OOOOOOOOOO++++++++++++++++++++++++++++@@@@$$####++@#oOOO++++++++++++++++++++++++++++++++++++++++++++++++@@$$@+OOooooooOOOoOO++++++OOOO++OOO++++++OOOOO++OOOOOOOOOOOOOOOOOOOOOoooOoooooooooooooOOoooooooooooOoooooooooooooooOOOOO+@+OooXXXooOOooooooOooooooooooooooooooooooooOOOOOOooooooooOOOOOOoo+OOoOOooXoOOOooooOOOOO++++++++++++++++++++++++++++++++++++++++++OOOOOOO++++OOOOO++++++++++++OOOO+++++++++++++++OOoO+##@+OOoooO+OOOOOOOOOOO++++++OOOO++OOOOOO+OOOOOOOO+OO+++++++#@+++OOXXXXXOO+++++++++++OOOOOO+OOOOOOOOOOOOOOOOOOOOOOO+++OOOOOOOOO+OOOOOOOOOOO++OOOOOOOOOOOO+OOOOOOOOOOOOOOOOOOOOO++OO++++oX. ..XoOooOOOOOOOOOOOO++OO+OOOO+OoooOOooOOOOO+OO+OOoOoOOO+OoOoXoooooooOOOOOOOOOOOOOOO++",
"+++++++++++O++OOOO++++OO++++++OOO+++++OO++OOOOO+OOOOOOOO+OOOOO++O+OOOOOOOO++OO+++++++++++++++++++++@@@@@@#%&$@+#OO@%oO+++++++++++++++++++++++++++++++++++++@++++++++++++@@$$@OOoOOOOOO+++OOO+++OOOOOOOO++O+++++OOOOOOO++OOOOOOOOOOOOOOOOOOOOOooooOooooooOoooooOOooooOOOOOOOOOOOOOOOoooOOooOOOOOO+++OoXXXXXooooooooOOOooOOOOOOOOOOOOOOOOOOOOOOOOOOOooooooooO+++OOoXoooooOOoXXO++OOO++++OOOO+++++O+++++++++++++++++++++++++++++++++++++++OOOOO++++OOO+++++++O+++++++++++++++++++++++OOO+@#@+OOooOO+++++OOOOOOOOOOOOOOOOO++OOO+OOOOOOOOOO++OO+++++O+@+O++OOoXXXXoO++++++OOO++OOOOO+++OOOOOOOOOOOOOOOOOOOOOO++OOOOOOOOOO+OOOOOOOOOOO++OOOOOO+OOOOO++OOOOOOOOOOOOOOOOOOOO+++O++++oX. ..XoOooOOOOOOOOOOOOOOOOOOooO+OOOOOOOOOOOOOOOOOOOooooOO+OXoOo.Xo.XXooOOOOOOOOOOOOOOO+",
"+++++++++++O++++O+++++O++OO++++OOO++++OO++OOOO+++OOOOOOO++OOOO++++OOOO+++++++++++++++++++++++++++++@@@@@@$&&$+O+OoO$o+++++++++++++++++++++++++++++@++++++++++++++++++++++@$$@OOoOOO+++++++++++++OOO++OOO+++O++OO+++OOOO++OOOOOOOOOOOOOOOoooOOooOoOOoooOOOOooooOOooooOOOOOOOOOOOOOoooOoooooooOOO++++OoXXX.XoooooOOoOOOooOOOOOOOOOOOOOOOOOOOOOOOOOooooooooOoO+@@+OoXXXoXXO+OXXo++++++++++OOO++++OO+++++++O+++++++O+++++++O+++++++O++++++++OOOOO+++++++++++OO++++++++++++++OOOOOO+++++OO+@@@++OOOOOOO++++OOOOOOOOOOOOOOOOOOOOOOOOOOOOO+OOOOO++++OOO+@+O@@+OOoooooOO++++++++++OOOOO+OOOOOO+OOOOO++OOOO+OOOOOOO+O++OOOO+OOOOOOOOOOOOO+OOOOOO+++OOO+++OOOOOOO+OOOOOOOOOOOOOOOOO+++OoXX..XoOooOOOOOOOOOOOOOOOOOOOO+@@+++++@@+O++OOOOOO+o+OOOO++XXOo.XoXoOOOOOOOOOOOOOOOOO++",
"++++++++++OO++++++++O+++OOO++++OOO++++OO+OOOOO+++OOOOOO+++OOOOO+++OOOO++++++++++++++++++++++++++++++++@@@$%%#+OOOOX@o+O+++++++++++++++++++++++++++++@+++++++++++++++++++++$$@OOoOOOO+OOOO++OO++++OO++OOO++OOOOOOO++OOOO++O+OOOOOOOOOOOOOOOOOOOOooOOooooOOOooooOOooooOOOOOOOOoOOOOooooOOOooooooOO@@+OooXXXXoOOOOOOoooooooOOoooooooooooooooooooooooooooooOOOO+@@+oXX.XXXXo#OoXO+++++++++++++++++OOOOOOOOOOOOOOOOOOOOOOOOOOOOOOOOOO++OOOOOOOOO++OOO+++++OOOOO+++++OOOOOOOOOOOOOOO++++++++@@+++OOO++ooOOOOOooOOOOOOOOOOOOOOOOOOOOOOOOOO+OOOOO++++OOO##@+@#@+OOOoOO+++++++OOO++OO+OOOO++++++++++++++++++++++++++++++OO++++++++++++++++++++++O++OOOOOO+OO+OOOOOOOOOOOOO+OOOOOOO++++OOoX.XOOOOOOOOOOOOOOOOOOoOO+OO+++OOO+OOOOOOOOOOOOOOO@@+Oo@$@OoOX.oXoO+O+OoooOOOOOOOOO++",
"++@@@+++++OO+O++++++++++++++++++OO+++OOO++++++O+++++OOOOOO+OOOOO++++++++++++++++++++++++++++++++++++++++$$$#@+O++OOOoOO++@++++++++++++++++++++++++++++++++++++++++++++@@@@$%@++ooOO+OOOOO+OOOO+++OOO+OOO++OOOOOOO+OOOO+OOOO+++OOO+OOOOOOOOOOOooooOOooOOOOOoooOOOoooooOooooooooOOOOOooooOOOOOOooo@@@OooXXXooOOOOOOooooooooOOOooooooOOooOOOOOOooooOOOOOOOOOOOO@@OXXXXXXXXoOOoOO+OOOOO++++++++++++++OOOOOOOO+OOOOOO+++++++OOOOOOOO+++OOOOOOOOOO+OOOO++++++O++++O+++OOOOOOOOOO++++++++++++++@+OOO++OooOOOOOoooOOOOOOOOOOOOOOOOOOOO++OOOOOO++++++++++@##@@##@OooOO++++O++++OOO+++OOOOO++++OOOOO++++O++++++++++++++OOOO+++++++++++OO+++++++++OOOOOOOOO+OO++OoOOOOOOOOOOOOOOOOOO+++OoXXXXoO++OOOOOOOOOOOOOOooOOOO+Ooooo+OooOOOOOOOOOOOOO@++OO@##OoOX.XO+oXO+OoooOOOOOOOOOOO",
"+++++++++OOOO++++++++++++++++++++++++OOO+O++++OO++++OOOOOO++OOOO++++++++++++++++++++++++++++@@@+++++++++@#$$#+OOOOOooOO+++++++++++++++++++++++++++++++++++++++++++++++@@@@$%#@+OoOOOOOOOOOOOOOO++++++++++++++++++OOOO+++OOO+@+OOO+OOOOOOOOOOOooooOooooOOoOooooooooooooooooOoooOOoOooooOOooOOoooo@@@+ooooooOOOOOOoooooooooOoOooooooXXXooOOOooooooOOOOOOOooooX+#oXXXXXXooOOOOOOOOOOOOOO+OOOOO++++++++++++++++++++++++++++++++++++++++++OOO+++++++++++++++++++++++++++++++++++++++++++O+@@@#+OOoO+OOOOOOOOOOOOOOOOOOOOOOOOOOOOOOOOOOOOOOOOO+OOOOOOO@##@@@@@+OOOOOOO+@@+++++OOoooOOOOOOOOOOOOOOOOOOOO++++++++++O+OOOOOOOOOOOOOOOOOOOOOOOOOOOOOOOOOOO+++++++O++++++++++OOOOOOO+@+OXX...Xo++OXOOOOOOOOOOOOOOOooOOOOoooXOOO+OOOOOOOOOOOO+OOoO@$=@ooX.XO+oXoOOooOOO+++++OO+O",
"++++++++++O+O+++++++++++++++++++++++++++OO+O+++OO++++OOOO+++OOOO++OOOOO++++++++++++++++++++++++++++++++++@$$#@+OOOOOOOO+++++++++++++++++++++++++++++++++++++++++++@@@++++@$&#@+OooOOOOOOOOOOOOOOOOOOOOOOOOOOOOOOOOOOO++++OO+++OOOOOOOOOOOOOOOOOOOOooooooooooooooooooooooooooooooOoooooOooOoooOOO++++OOooO+OOOoooooOOOooOOOOOOOOOOOooooooOOOOOOOOOOOOOOOOOOOo@$OoXXXXXoOOOO++OOOOOOOOOOOOOOOO++++++OOOOOO++OOOOOOOOOOO+++++++++@++O+++OOO+++++++@++OOO+++++++O+++OOOOOOOOO++++++++++++@#$@+OOooO++++++OOOOOOOOOOO++OOOOOOOOOOO++++++++++O+OOOOOO+@##@+@@++++OooO++OOOOO+++++OOOOOO++++++++++++++++++OOOOO++++++++++++O+++++++++++++OOOO++OO++++++O++OO++O+oO+oO+OOOOOOOOO+@@@+OoX.Xoooo+@OOOOOOOOOooOOOooXooOOOoXXO+ooOOOOOOOOOOOO+OOOO+#,%XXXXXXOooOOooOOOO+++++O++O",
"++++++++++++OOOO++++++++++++++++++++++++OOOO++OOO+++++OOO++++OOO++OOOOO++++++++++++++++++++++++++++++++++@#$#@++OO++++++++++++++++++++++++++++++++++++++++++++++++@@@+++++$%#++oOOOOOOOOOOOOOOOOOOOOOOOOOOOOOOOO++OOOO+++OOOOOO++OOOOOOOOOOOOOOOOOoooooooooooooooooooooooooooooooooooooooooooooOOO+++OoX++OOOoooooOOoooooOOOOOOOOOOOOoooooOOOOOOOOOOOOoO+OOO+#+XXXXoooOOOO+OOOOOOOOOOOOOOOOO++++++OOOOOOO+OOOOOO+++O+++++++++++++++OOOOOO++OO+++++OO++++++OO++++OOOOOOOOOO++++++++++@@$$@+OooooOOOOOOOOOOOOOOOOO++OOOOOOOOOOOOOOOOOOOOOOOOOOOO+++@#@++@@+OOOoO+++OOO++OOOO+++O++O++++++++++++++OOOOOOOOOOO+++++++++++++++++++++++OOOOOOOOOOO++++oOOoo++OOOOOOOOOOOOOOOOOO@@++OOXXXoOOO++OOOOOOOOOooOOoooooooOOOoX++ooOOOOOOOOOOOO+++OooX=#oXXXX.oooOOoOOOOOOOOOOOO+O",
"+++++++++++++++OO+++++++++++++++++++++++++++++++OO+++++OOOOO++OO+++OOO++++++++++++O++++OOOOOOO++++++++++@#$$#++O++++++++++++++++++++++++++++++++++++++++++OOOO+++++@++++++#%#+Oo++OOOOOOOOOOOOooO++++++++++++++O++++OOO+OOOOOOO++++OOOOOOOOOOOOOOOooooooOOOoooooooooooooooooooooooooOoooOooooOOOO+++OoooOOOOOOOOOOOOOOOOOOOOOOOOOOOOOOooooOOOOOOOOOOOOOO+OOOO#+XXXooooooOOOOO+OOOOOOOOOOOOOOOO+OO+++O++++++++++++++++++OOOOOOOoO+++++++OOOOOOOOOO++++++OOOO++++++OOOOOOOOOOOOOOO+OOO+@###@OoO+++OOOOOO+++OOOOOOOOOOOOOOOOOOOOOOOOOOOOO++++OOOOOO+@@@+@@#@+OOOOOO++++OO+++OOOOOOOO+++++++++++++++++++++++++++++++OO+OOOOOOOOOOOOOOOOOOOOOOOOOOOOOOOOO++++OOOOOOOOOOOOOOOOO++++OoX.XooooOOOOOOOOOOOOOOoooO++OOOOOOXOOo+@OXOOOOOOOOOOO++OOo@@+oXXXXXooooOOOOOOOOOOOOOOO",
"@@@@+++++++++++++O+@++OO++++++++++++++O+++++++++OO++++++OOO+++++++OOOOO+++++++++++O++++++OOOOO+++++++++++#$$#@OOOOOOOOO++++++++++++++++++++++++++++++++++++++++++++++++@@@#%#+OO+++OOOOOOooOOOooOOOOOOOOOOOOOOOOO+++OOOOOOOO++O++++O+OOOOOOOOOOOOOooOoooOooooooooooooooooooooooooooooooooooooooo+++OoXooooOOOOOOOOOOOOOOOOoooooOoooooOOOoooooOOOOOOOOOOOOoO+@#$+ooOoooooOOOO++OOOOOOOO+++++++++OOOOOOOOOOOOOOOOOOOOOOOOOOOOOOOO+++++++++OOO++++OOOOOOOOOO++++++++++++OOOOOOOOOOOO++OO@@##+OOOO+OOOOOO+++++OOOOOOOOOOOOOOOOOOOOO+OOOO++++++++OOOO+@@@@@##@++OOOOOO+++++++++++++OOO++++++++++++++++++++++++++++OOOOOOOOOOOOOOOOOOOOOOOOOOOOOOOOOOOOoOOOOOOOOOOOOOO+OOOOOOOO+@@@+OoXoooXoO+OOOOOOOOOOOOOOOO+OOOOO++oOOo+@+OOOOOOOOOOoOOO+++OOOo..XXXooooOOOOOOOOOOOOOOO",
"@@@@++++++++++++++++++OO+++++++++++++OOO++O++O++O++++OOOOO++++++++++O+++++OO++++++O++++++++++O+++++++++++@#$#@++OooooOO+++++++++O++++++++++++++++++++++++++++++++++++++@@@$%#++O++OOOOOOOOOOOOOOOOOOOOOOOOOOOOOOOOOOOOOooOOO++OOOOO++OOOOoooooooooooOOOOOooooooooooooooooooooooooooooooooooooooOO++OoXXoooOOOOOOOOOOOOOOOOOooooooooooOOOOOOOOOOOOOOOOOOOoOo+@#$#@+OoXXooOOOOOOOOOOOO+++++++++++OOOOOOOOOOOOOOOOOOOOOOOOOO++++++++++++++OOOO+++++++OOOOOOO+++++++OOOOOOOOOOOOOOOOO+@@@#$#+ooOOOOOOOOOOOOOOOOOOOOOO+++++++++O+OOOOOOOO+++++++OOOOO+++@@@@+++OooO+++O++@@++++++OOOOOO+++++++++++O++OOOOOOO++++++++++++++++++++++++++++OOOOOOO+++++++OOO+OOOOOOOOOOO+OOOOOOO+@##$#+oXXoO@@OoOOOOOOOOOOOO++OOoooooOOO@@OoO++++OOOOOOOOOOOOooooooX.X..XooXO++ooOOOOOOOO+OO",
"++++++++++O++++++++++++O++++++++OO+++OOO++++OO++++++OOOO++++++++++++++++++OO++++++OOO+++++++++++++++++++@@@@@@@#OOoooO++@@@++++++++++++++++++++++++++++++++++++++++@++++@@$%$@+OOOOOOOOOOOOOO++++OOOOOOOOOOO+++OOOOOOOOOOOOOOOOOOOOO++OOOoooOoooooooOOOOooOooooooooooooooooooooooooooooooooooooOOOOOOoXXoOOOOOOOOOOOOOOOooooooooooOOOOOOOOOOOOOOOOOOOOOOo+oO@O++#@OXXXoOOOOOOOOOOOOOOOOOOOOOOOOO++++++++++++++++++++++++++O+OOOOOO++OOOOO+++O+++++OOOOOOOO++++OOOOOOOOOOOOOOOOOOO++@@###+OoO+++++OOOOOooooOOOOOOOO+++++++OOOOOOO++++++OOOOOOOOO++@@@+++OOOoXoO+@++OoooOOOOOOO++++OOOOOOOOOOOOOOOOOOOOOOOO+++++++++++++++++++++++++OOOOOO++++++++++OOOOOOOOOOOOO+++OOOOO++@#$%#+o..XoO+OOOOOOOOOOOOOO+++OoXooOOOO#$#+OooOOOOOOOOOOOOOOO+@ooOOoXXXooXXO@+ooOOOOOOOO+OO",
"+++++++++OOO++++++++++++O++++++OOOOOOOO++OOOOOO+OO++OOOOOOOOOOOO+++OOO++++++++++++++++++++++++++++++++++@#@##@+++OOooO++@@@+++++++++++++++++++++++++++++++++++++@@@@+++++@#%#++OoOOOOOOOOOOOOO+++OOOO+++++++OOOOOoOOOOOOOOOOOOOOOOOO+++OOOOoooooOOOOOOOOOOOOOOOOOooooooooooooooooooooooooooooooo+@OoOoXooOOOOOOOOOOOOOOOoooooooooOOOOOOOOOOOOOOOOOOOOOOoO+OO@@#@OoXoXXooOOOOOO++OOOOOOOOOOOOOOOOOOOOOOOOOOOOOOOOOOOO+O+OOOOOOOOOOOOOOOOOOOOOOO+++++++++++OOOO++++OOO++++++OO++++++OOOO@@@@OoOOOOO++OOOOOOOOOOOOOOOOOOOOOOOOOOOOO++OOOOOOOOOO+++@@##+OOOOOOoooO+O++++++++++OO++++++++O+++++++++++++++++++++++++++++++++++++++++++++++++++++++OOOOOO+O+O++OOOOOO+OOOOOO++O++++@@+OX.XOOOOOOoooooooooooOOOOooooooOOOOOOOOOOOOOOOOOOOOOOO++@OoOoXXoOOoXXoooooooOOOOO++OO",
"O++++++++OOOO+++++OO++++OO+++++OOOOOOO++++OOOO++O+++OOOOOOOOOOOO++++OO++++++OOOOOOOOOOOO++++++++++++O+++#$##@+##+++OOOO++++++++++++++++++++++++++++++++++++++@+@@@@+++++++@$@++OOOOOOOOOOOOOOOOOOOOO++++++O+OOOOOooO++OOOOOOOOOOOoOOO++++OOOOOOOOOOOOOoooooooooooooooooooooooXXooooooooooooooooo@#+OOoooOOOOOOOOOOOOOOOOOOOOOOOOOOOOOOOOOOOOOoooOOOOOOOOO+++@##OOoXXXooXoOO+OOOOOOOOOooooOOOOOOOOOOooooooooOOOOOOOOOOOOOOOOOOOOOOOOOOOOOOOOOOOOOOOO++++++OOOOO+++OOOOO+++++O++++++OooO@##@+OoooOOOOOOOOOOOOOoOOOOOOOOOOOO+++++++++++++++++++++++#$#+O+++OoooOOOOOOO+@@++++++OOoOOOOOOOOOOOOOOOOOOO+++++++++++O++++++++++++OO++++++OOOOOO++++++++OO++OO++OOOOOO+OOOOOOoOO+@+OO++OoXoOOOOOOOOOOOOOOOOOOOOOOOOOOO++OOOOOOOOOOOOOOOOOOOOOO+OOooOo.o#oOoXXXoOoooOOOOO++OO",
"O+++++++++++++++++OOO+++OOO++++O+OOOOOOOOOOOOOOOOO++OOOO++++++++++++O++++OOOOOOOOOOOO++++++++++++++++++++%&@@@o+++++++++++++++++++++++++++++++++++++++++++++++++@@@+++++@+#$#++OOOOOOOO++++OOOOOOOOOOO+OOOOOOOOOOooOOOOOoooOOOOOoooOOO+++OOOOOOOOOOOOooooooooooooXXXXXXXXXXooooooooooooooooooooo++#@OOOooOOOO++++OOOOOOOOOOOOOOOOOOOOOO+OOOOoOOOOOOOOOOOOOO++++O++OXXoOooOOOOOOoOOOooooooOOOOOOOOOoooooooooooooooooooooOOOOOOOOO+++OO++OOOOOOOOOOOOOOOOOOOOOOOOOOOOOOOOOOOOO+++++OOOO+@@+OO+OO+++OOOOO+++OOooOOOOOO+++++++++++++++++++++++++++++@##++@@+oXoOOOOO++++++++++++OOOO+++++++++++++++++++++++++++++++++++++++++++++++++++++++++++@@@@@oO+@+OOO++++++++OO++++++@#@++++OOo..oOOoOOOOOOOOO++++OOOOOOOO++@@@++OOOoooooooooO+OOO++OOOoOOXo@XooX.XooooOOOOOOOOOO",
"++++++++++++++++++OOO++++OO++++O+OOOOOOOOOOOOOOOOOOOOO++++++++++++++OO++OOO+OOOOOO+O+++++++++++++++++++@+$%O++XOOOO++++++++++++++++++++++++++++++++++++++OOO+++++++++++@@@#%#++OOOO+OO+++@@+OOOOOOOOOOOOOOOOOOOOOOOoooooXXXoOOOoooooOOOOOOOOOOOOOOOOOOOOOOOOOOOOOoooooXXXXXXXXXXoooooooooooooooo@#$@OOooO+++++++++OOOOOOOOOOOOOOOOOOO+OO+OOOOOOOOOOOOOOOOOoOOoOOXO+OoooOoooOO+++OOOOOOOOOOOOO+++++++++++++++++++OOOOOOOOO+++++++++++++++++++++++++OOOOOO++++++OOOOOOOOO+O+O++++++++OO++@@+OOOO++++++++++++++OOOO@@@@@@@@++++++++@+++++++++++++++O+@++@#+ooO+OoooO++OOOO++OOO+++++++++++++++++++++++++++++++@@@@@@++++++++++++++++@@@@@@@++++OOOO.oO+++O+++++@@@++O++++++@$@OOO++o.   XoO++OOOOOOOO+@++OOOOO+@@@@@@@++OOO++++++++++OO+@@+OOOX.ooXXXXXXoXXoooOOOOOOOOO",
"++++++++++++++++++OOO++++++++++O+OOOOOOOOOOOOOOOOOOOO+++++++++++OOOO+++OOOOOOOOOOO++++++++++++++++++++@@+%%$@+#ooooOOO++++++++++++++++++++++++++++++++++++++++++++++++@@##$%$@++oooOOOOO+++OOOOOOOOOOOOOOOOOOOOOO++oX.XXXXXoOOOooooooooOOOOOOOOOOOOOOOOOOOOOOOOOOOoooXXXXXXXXXXXXXXXXXoooooooooo#%#++oXoOO++++++@@@@@@@@@@@@@@@@@@@@@@@++@@@@@@@@@@@@@@@@$@@@+OOOOOo   .XXXooOOOOoOOOOOOOOOOOOOOOOOOOOOOOOOOOO+++++++++OOOOOOOOOOOOOOOOOOOOOOO+++++OOoooOOOOOOoooOooOOoOOOOOOOOOOOOOOO@$%%@OoOOo@@@@@+++++++++++@+@+@@@@@+++++++OOO+@@@@@@@++OOOX+@@@@#@OOOOoX...  ...XXXooOOOOO++++++++OO++++++++@@@@@@@@@@##@@@@@@@@+++@@@@@+++@@@@@@++OOooXXX.XoO++@@XO@+++@$+OooXXXXO@@OXoO+o     .o++++++++++@@@++++++@@######@@++++$+XO@+@OOoooO++OOoX..XXXXXOOoXXoooOOOOOOOOO",
"+++OOoooOOO+++++++OOOO++++OOOO+++++++++++++++++++++++++++++++++++++O+++OOOOOOOOOOO++++++++++++++++++++++@%&&$@@oXXoooOO+++++++++O++++++++++++++++++++@@@@@@@@@@@+OOOOO@####%#@++ooooooooooooooooooooooooooooooooO+OoXXXXXXXXooooOOOOOOOOOOOOOOOOOOOOOOOOOooooooooooXXXXXXXXXXXXXXXXXXXoooooooooo++##+OoX.X.XXXXX@@@@@@@@@@@@@@@#####@@+++++@@@@@@@@@@@@@@#++@#@@#OXX    ............XXXXXXXXXXXXXX.XXXXXXXXXXXXXXXXXXXXXXXXXXXXXXXXXXXXXXooXXooooooooXX.XXXXXXXXX.XXXXXXXXXXXXXooXXooo+++++OooXXXXXXX..  ................X.XXXX.....XXXoooooooooo+##@###@OoXXXXX.XXXoooXX..   ..               ......X.XXXXX.XXXXXXXXXXXXXXXXXXXXXXXXX............  .XXo    .XXXX..       .oOOOooX.     ooooooooooooooXXooooooooXXXXXXXX            ..XooO+OX.XoXoO@+ooooooOOOOOOOOO",
"++OooXXXooOOOOOO++OOOO++++OOOO++++++++++++++++++++++++++++++++++++++++OO++OOOOOOOOOOOOOOOO+O++++++OOO+++@$%@++O#OOOooOO+++++++++++++++++++++++++++++++++++++++++++OOoO+@@@#$#+++OooooooooXXooooooXXXXXXXXXXXXXXXoooOOOOOOOOoooOO+@++OOOOOO++++++++OOOOOOOOOOOOOOoooXXXXXX.XXXXXXXXXooooooooooooooo@#@OoX   . ....     .............                     .X.XO@##oXXoOoX..                       ....................XXXXXXXXooooXXXXXXXXXXXXXXXXXXXX............X.XXXXXXXXoooooOooooooooXXoOoXXXXX..............  . ............XXXX...  ..XXXoooO+++@@#@+OXXooooooXXXXXX..............................XXXX.....................              ...                        .oOOooXooX..                                              .  .oXo++oXXoooOOoooooooOOOOO+++O",
"+OOoX...XooOOOOOO++OOOO+++OOOO++++++++++++++++++++++++++++++++++++++++O++OOOOOOOOOOOOOOOOOOOOOOOOooXXXXXX+@@++#*#@++OO+++++++++++++++++++++++++++++OOOOOOOOOOOOO+++OooOO++@$#+++++OOOOOoooooOOOoooooooooooooooooXXo+@#@+++++OOO+##@@+++++++++++++++++@@@@@@@@@@@@+OOOoooXXXXXXooooooooooOOOOOOOOOOO+++OoXXXXoooo..............XX......XXXXXXXXXXXXXXXXXX..ooO++OOOo..XXX....                ......XXXXXXXXXXXXXoooooooooooooooooOOOooOOooooooooooXX...XXXXXXXXXo+++++++@@@@@@@#@@@@@@@+@#@@+OOOoooooooOOOOooXXXXoXooXXXXXXXXXXXXooooooooooooooooooXXo+@###+ooOOOooooooXXXoooXXX.XXXXXXX...XXXXXXXXXXXXXXXooooooooooooooooooooooooXX....       ...   ...           ..    .XoOoXXoXXoXX            ......   ......            ..XX. XoX.XOoX.oo. XooX..ooXoooOOOOO++++",
"OOOoooooooOOOOOOOO+++++++OoooO@@@@@@@@@+++++++++++@#@@+@@++O+++OOOOooX..oooXX.....XXXX...................X+##+#$$$#+oXo+OOOOOOOOOOOOOooooooXXXXX.............XXXXoooXXXXoo+$$$###@@@@+++OO++++OOOOOOOOOooooooooXXXXoO++OOOOOOOO+++@@@++++@@@@@@@@@@@@@@@+@$%&%%&&%#$#@@$++@+++O@@@@@@+++++++++++++OOOOOOOoXXoooXXXXXXXXXXXXXXXXX+OoX..XoooooooooooooooXXoooOO++++++OooXX......XX.....X.  .  .....XXXoooooooooooOoooooooOOOoooOOOO++@#@@++++++++++++OOOOOO++++++@@@##$$$$$######$$$$%%%%%%$$#@++O++++OOOOOO+++OOOOOOOOOOOOOoooooOOOoOOOOOOOOOOooooOOOOO+++@@@@++++++++++OOOooOOoOoooXXXXXXXoooooOO++OO+OOOOOO++O++OOOOOOOooXXXoooooooooooXX......XXXXXXXXXXXX........XXX...oOoooOOoXX......................  ...XXXXXXXXXXX.....X..X...XXXXXoo ..       .. ..........",
"OOOOOOOOOOOOOOO+OO++++OOOoooooO++++++++++++OOOOooo+@+oooOo...XX                             .............o@$#+++@#$@o  .                     .....XXXX..OOOOOOOOOOoooooo++@$$$#$%$###@+@@@@@@+++++@@@@@++oO+OO+OOooo+@@+++++@@#######$$$$$$$$$%%%$$$$$##@#*-;=&*=-*&&$%*$#$@@$$&%%%$$$$######$$$$$$$$$$$$@OO+++OoOOoooooooooXXXX+Oo...XXXXXXXX..XXooooooooOO++@@@@@@+OoXXXXXooooXXXX...     .XXoooOOOOOOOOOOOOOOOOOOOO+++++++@@@@##$$$$#############@@@@@####$$%%%%%%$$$$$$$$$%%%%%&&&&*&&&&%%%$@###@##@@@#$$$###@@@@@+++++++++++@@@@@@@@@++++++++++OO+++@#####@@@@@@@@@@@Oo@+oOoooooooooooOOOOOOOOO++++++++++O++@++++@@@+OoOOO+OO++++++OOooooXoOOoXXXXoooooXXXXXXXoooooooO+OoOOOOooXXXXXXX....X..X..XXXooX....XOOOooXX....... ....XXXX.XOoXX .                     ",
"OOOOOOOOOooooooooXXXX...      ..........XXXX.......XX.....                ............   ...XXXXX....XXX.X+##+OOO++OX. .XXXXXX....................XXXXXXooooooooOOOOO+++@##$%$%%%$$$$%&&%%%$$%%%$$$$$$$$#@@@++####$$##$$$$$$%%%%&&&&&&&&&************&&&%&*&==&*=:;-==&$%#+@+#*=====****&&&&**&&&&&&&&&&%$$$$$#@@##@@@@@@++++++++++++++++++++++++OOO++++++++@@#####@@OOooO++++OOooooXoX..XXXXXoOOOO++++@@@@@@@@@@##$$####$$$%$$$$$$$$$%&&%%%%%%%%%%$$$$$$$$$$$%%%&&&%$$$%%%%%%&&&&&*****&&&&%%%%%$$$$%%$#@#$$$$$#########@@@@@@@@@@@@@@@@@@@######@@@@@@@#$$%%%$@$&&%$$$$$#$#@OX++++OOOOOOO++++++@+@@@@#@@@@@@@@###@@@@@##@@@+++@@@@@@@@++OOO+++@@+OOoooOOOOOOOOOOOOOOOO++@@+OOoOOO++++++OOoooOOoooXooooOOOoooooOOOooXXXXooooXXXX...XXXX.XOXX.                      ",
"ooooooooooXXXXX...         .......    .. .......XX...XXXXXXX............................XXXXooooooooooooooO+++++OoXXXXXoooXXooXXXXXXXXXXXXXXXXXXXXXXXXXXOOOOOOOO+@@@###$$%%%%%&&&&&&&%%%&&&&&&**********&%$#@@$&&%&&&%%&&&&&***==============-----;;-----;-$$&&-==;;==*$$#O+++$&======--===============*&&***&&%%%%%%%%$$$$$$$$$##$##$$###########@##$$%%%%%%%%%$$###@@@@@@@@@@@@@@@+@+++@@+OOO+@##$$$$$$$$$%%%%$%%%&%%%%%%&&%%%%%%%&&&&&&&&&&&&&&&%$$$$#@@@#$%%%%%%&****&&***&&&*=----===******&&&&&*&%$$$$%%%%%%%%%%%%%%%%%%%%%$$$$$$$$$$$$$$%%$$#####$$%%&&&&*********&$##$$O@@@++++++++@+@@@@@@###$$$$$######@########$$$####$$$$%%%%%%#OoO+++++++++++++++++O+++++@@@@@@@@@@@@######@@@+++++@@@##@@@++@@+++OOOOOO++++++++++++OooXX.XXXOXO+X.....   .     .......",
"oooooooooXX....          ..XXooooooooooooooooooooOoooOOOoOOOoXoooXXXXXXXXXXXXXXXXXXXXXXXooooOOOOOOOOOO++OOooO++++OOOO++OOOOOOOOOOOOO++++++++++++++@@@@@@+++@@######$$$$$%&*=-----;;;;-*****======--------=%#++#*&&*=-----------;;;;;;;;;;::::::::>>>>>::::;*=;=--;::;===*&%#%*&&====---;;;----==--------*****=*********&&&&&&&&&&%&&&&&%%%%%%%%%%&&&&%%%&*******&&&&&%%%%$$$$$$$$#$$#$#@@###++@#%%&&&&&&&&&&&&&%&&%%%%&&&&%%%%%%%%&&*&%%========**&&%$#@@@@@@#$%**&&&&&&&&&&&&&&*----;----------====-=*&&&&*=-------======*&&&***&&&&&&&&&&&*&&***&%$###$$$%%%%$*%%&=-=***%@+##@$#@+++@####$$$$$$$%%%%$$$%%&&%%%$$$%&&&%%%%%%&&&%%%&&&&&*-*@oO+OoO+@##$$$$$$$$######$$$##@@@##$$$$$#######@@@@@@@##$$$##@####@@@@####@@@#######@@@@++Ooo@++oo@oooXXXXXXXXXooooXXXXXX",
"OOOOOOO+OOoXXX...       .XXooooOOOOOOOoooooOOOOOO+++++++OOO+OoOOoooooooooXXXXXXXX.X.XXXXXoOO+@@@@@@@@#####@++@@@@@@@################$$$$$$$$####$$$$$$$$$$$$$$$$%%%&&***=;::>>>::;;:>>::--===--;;;;;----:;*#+O@%&-;-;;:;;;;;;;;;:>>>>>>::::>>,,,,<<,,,>>:-;;:>;::>::;%$&&*=&&;;:;;;;:::::::::::::::;;;;;-===--;-=======**********&&&&&&&&&&&&&&&**===*****========***&&&&%%%%$$$##$$$$$##@@@OO@%&**====*******&&**&&&&&&&&&&&&&*******==---------=**&%#@###++#&=-------===--;::>-;;;;::;;;;-----=--;-=&%$%&*-;::;;----;;;;--=-;;-;;;;;-=====---;:;-*%%$$%&****&&&%%%%%%%&=-$+OO+@#$%%$####$$%%%&&&&%%&&&&&&&***===*=******&&&&***&$##$%%%$#@@+++++@#$%%%%&&&*&&&&&&&%%%%%%%%%%%$%%%%%%&&%%$$$$$$$%%&&&&%%%%%%%$%$$$$$$$$$$$$$$$$$#####@+#O+$OooOOOOOOOOOOOOOOOOOOOOO",
"########@@++OOOOoX...XXXooOOOOOOOO++++++++@@@@@++O+++OO++OO+++OOOOOOOOOOOOOOOOOOOoXoXoooo+@#$%&&%$%%%%%%&&$#$%$@#$$$%&&&&%%&&&&%$$$$$$$$%%%%%%&%%&&&&&&&%%&&**=====-----;::::>>:::::;::::::;;;------====:>-%+O+@%;::;::>>::>>>,,,,,,,,>>:;;;;;------==******&$##@@@$&$@+@@$&$$**&&&&&%%%%%&&***=========::::::>>::::::::::::::::;;;;;;;;----------===-------------===**********&&&**&**&%$#@OO#&--;;;--========**=====****=====**=*&&******==----===*&#@++OoO#=;:;;;;;;---===*&%%$$###$$%&&*====***&&%$@OoO@##@++@@#$$#$$%&****&&&**===============*&%%&&*-;--;:::::::::--&@OooO++@###@+++@@@@@@&%%$$%%&&%%%%&&**=======***&&&%$$%&**&%%&%$#@+OO+@##$%&&&***********&&&***==**&&&&****==**&&%%&&&&***==*==*&&%%&&&&&&&&&***&&%%%$$$$$$$#$@+##+++OOOooooo++++++++++++",
"$$$$$$$$$$#@@@+++OooooOO+@@@@##############$$$$$#@@@@++@####$$$$########@@@@@@@@@OOOOOOO+#$%*====*&&&*==-=&%**%@$&&&*--=****=***********======----;;;;;-----;;::::>>>>>>;:;-=-;--;;;;;;:>>>>::;;;;;;;;;;>,>*@@@+#&=-=**==*******&$#$$&**:&+o++OXoooooXXXXO++OoX..XXo@%$OOoO#OXXoXXXXXXXXXXXXXXoooooooooo+#$$@@@#%%%%%%%%%%%%&&&&&&**===---------------;;------;;--==------;;;::::;:;;;;-=&%$+O@%;;:::::;;;:::::;;-;;;;;;;;;;;;---;;:::;;::::::::;;;;-*$@+++@@$%%%&&&$#@@##@OXXXXooOoXoXXXoXXooXoOOooO+@+Oo+@@+OoOO@#@+OoXoO++OXXOoooooO+@@@++OOoO@#$$#####$$$$%&********;;$++@+XO+@#$&**=**=******==*&%$$%*==--=====----------***======-=*%#@+++O++@#%&**====================------=====--==*=====--------=***=============**&&&%%%%&%%%&&#+#@%&###@@@+@@@@@@@@@@@@@",
"**&&&&&**&%$$$$#@@+oooooo+$&***=&&&&&&&&&&&%%%%%%%%%&&%%%%%%%%%%%%%%%%%$$$$$$###@@+OOOOO+$*----===========&$$##@$&*==-;;;;;;;;;;;;----------=====**=&%*:=======---=*&%$$$$$$$##%%$#$$%%%%%$%%%%&*&&&&**==**&$@+Oo.X++X.o.+#+ooo..XXXXoXX$@ooO+OoooooOOOOoooOOOOooOO+#$%@O+@OooXOOOOO+++++++OOOOOooooooooXXXXXXXXXX..XXXXXXXXXXXXXXXXXXXXoO+@@+OoOOOOOOOOOOOOOOOOO+OXo@#@%%%%%%%%&&**===---=&@ooO##$&***==--;;;-;::::::>>>>:::::::::::::::::::::;;-;;-&#@+O+#%$+OoXXXooOoooooOOOooOOOO+OOOOOOOOoO++OO+@@@@+++OOoooOOOOOOOOOOOOOOOOOOOOOOOOoOooooooO@##@+OOOoXXXoooOOOO+++@$%#@+++++++#%&*==***&&&&&&****=====***********===****==========&%@##+++oOOXo#&*=========================-;::;-=---------==--==---;;;;:::::::::::;;;*&*-;-=*&&**=---*%$$*&&&**&&*%$$%&$#&&&&",
";-----;:;;-***&$@#+OOOoOo+%**--=-----=--======**=-==--=****&&**&***&&%%%%&*&%$%%#@+OOOOO+#%%%#@+@%$#%@oO+##+++@@+OO+@@@@@@###$$%#@@@++++@@+OOOooOooOoX+%%$@OoooooooooOOOOOOOoO@#@++OOOooooOOOOoooooooOOO@@$&%#+OoOo  oOoOOOOOOOOO++++++OOOOoooooooooOOOoooooOOOOXXX+@@#@oo+o.ooOOOOOO+++OOOOOOOOOOOOOOOOOOOOOOOOOOoooooooooOOOOOOOOOOOOOOOOOOOOOOOOOOOOOOOOOOOOOO+##+ooo............XO@##$%%@OOO   .XXXXXooOOOOO$###########$$$$###@+++OOO++@@@###$$%$++OO+#$#+OoooooOOOOOOOO+OOOOOOOOOOOOOO+OO+++++@@@@@@+OooOOOOOOOOOOOOOOOOOOOOOOOOOOOOOOOO+OO+@##@+OOOOooOooOOOOO+++O@#@OooXXXXXoOOOXXXXX.XXXXX.XOO+@+oooXXoooooXXXoOOOooO+##@+OooO+$$@##OooO+OoO@$%$OXO+++@@@@+++++++@@++OOO+@@@@+OoO@$%%%$#@+++++@#$&*****&&&&&&&&**===**=**********&%&&%$%&&&****&==&%**%****",
",,>::>>>>>>:;;=*##@++OOO++%=---=;;;;;;;;;;;;;:::::::>>:::::;;;;;;:;;---====*&&*=$#++OOOOoooooOOOO@@@OO+@#$%%#@@#@OoOOOoooooooOOOOO++++OO++++++OO++++++++++@@++@@@++++++++@@+O+++++++++++O++OOOOOO+OOO++@@@$#+oXoOOOOOOOOOOOOOOOOOOOOOOOoooooooooOOooOoooooooooOoooXO@@#@+oO+oOOoOOOOOOOOoooOOOOOOOOOOOOOOOOOOOOOOOOOOOOOOOOOOOOOOOOOOOOOooooooooooOOOOOOOOOOOOOOX+##+OOOOOOOOOOOOOOOOOOOO+++OOoXXXooooXXXXXooooooXXXXXXXXXooOOooooooooooooOOOOOO+OO+#$+OOO+@#@+OOOOOO+++OO+OOOOOOOOOOOOOOOOOOOOOoooO++@@##@+OOOooooOOOooooOOOOoooOOOOOOOOOOOOOOOOoO+@+OooOOO+++OOOOOO++++#$#+OoXX  XXXOoooooOOOOOOOOOOOOOOOO+++OOOOOOOoooO+++++++OooooO+##+@@oXXXooXXXooooooooooooooooOOOOO+OOOOoX.  .XooooooooooXXXXX..XooO+++@@++OX....XoO##@+XoOOOOoXXoooooO+OOOO+++@o@$@O@##@@@@",
"1<,>>>,,,<1<>:;-%$@+OoOO@+%;>>;-;;;;;;;;;;::::::;;;----------======**&&&%$%&%$##@@@+OOooooOOOOOOOO+++++++##$##@@@##@+OOOOOOO+OOOOOOOOOO+++OO+++++++OOoooO+++OO+++++++O++O@#@@@++++++++++++OOOOO+++OOO++@@@$#+OoooooooooooooXXXXXoooooooooOOOOOOOOOooooooooooooooO+oO##@OOoO+OoooOOOOOOOOoooOOOOooooooooooooooooOOOOOOOOOOOOOOOOOOOOOOOOOOOOOOOOOOOOOOOOOOOOOOOOOOOOOOOOOOOOOOOOOOOOOOOOO+@@@+OoX..XXooooooooooooXXoooOOOOOOOOOOOOOOOOOOOOOOOOOOOOO++$$+OooO++OO++OOOO++++O+OOOoooooooOOOOOOOOoooooooO@##@@++OOooooooooooOoooooOOOOOOOOOoooooOOOOOO+@@#@+OooOOOOOOOOOO++++#$#+OoX++..OoooOOOOOOOOOOO++OOOOO+++++OOOOO+++OOO+++OOoOOOOOOOO##+++ooXoOOOooXXoOOOOOOOOOOOO++OOOOOO+++OooooooOOOOOOOOOOOOoooXXXoooOOO+@++OOoooXXX.OOo.XXXXXXXXXoOOoXXoooooXXXoooooOOOOOOOO",
";-;,>;---;>>::>>=%$@oo+O@+@##$$$+++++OOOOO++++@@+OOoX.XXX.XX. .XXXXXXXXXX.oOOo. oOOOOooooO+++++OOOOOOOOO+@@@@###$$$@OOO+++++O+++++++O++++++++++++++++++++++++++++++++++++@#$#+++@@@@@+++++OO+OO+++OO++@@@@$#@@OoooooooooooooooooooooooooOOOOOOOOOOoooooooooooooooOoO@@$#+oOOOOoooooooooooooOooooOOOOOOOOOOOOOOOOOOOOOOOOOOOOOOOOOOOOOOOOOOOOOOOOOOOOOOOOOOOOOOOOOOOOOOOOOOOOOOOOOOOOOOOO+@@+ooXX..XXooooooooooooooooOOOOOOOOOOOOOOOOOOOOOOOOOOOOOO+@$$+OoooOOooOooOOoXXoO++OooOOOooooooOOOOOooooOOOO+@##+OOOOO+OOoooooOOOOOOOO++OOOOOoOOOOOOO++OOO+@##$#+OO+++++OOOOOO++@$%$@OoXO##oo++OOOOOOOOOOOOOOOOOoOOOO++OOOOooOOOOooOOOOOO+++++++@$@++ooXoO++OooooOOOOOOOOOOOOOO+++++++++OOOOOOOOOOOOOOOOOOOOOOOOOOOoXooO++OOoooXoXoooXXXooooooooooooOO. XoooXXXoooooooooOOOO",
"*%&-*#O+++#$$%*=-&$@oO+OXXoXXXXXXXXXXXoXoooooXXXooOOOO++OOO+OooOOOOOOOOOOoOOooO++OoooOOOOO+++OOOO++++++++++++@#$#@+OO+@@@@@+++++++++++++++++++++++++++OO++++OO+++++++O++@@@##+@#@+++++++OOOOOOOO++++++@@@#$@++oXooooooooooooooooooooooooooOOoOOOOOoooooooooooooooooO++#@OoOoo+OOOOOOOOOOOOOOOOOOOOOOOOOOOOOOOOOOOOOOOOOOOOOOOOOOOOOOOOOOOOOOOOOOOOOOOOOOOOOOOOOOOOOOOOOOOOOOOOOOOOOOOOOO+++OooXoooooooXXXXXXXXooOOoooooooooooooOOOOOOOOOOOOOOOOOOO++@#OOoXXoooooooOOOOoooXXoOOO+OOOOOOOOOOOOoooOOOOOO++++OOOOOOOOOOOOOOOOOOOOOOOOO++++OOOOOOOoooooOO++@+OOOOOoooOOOOOO+++$%$@+Oo.X##X.OO+OoooO++OOOoOOOO+OOOOOOOO++OOO+++OOO+++++++OOOOO#%@+OoOoXXoooXXXOOOOOOOOOOOOOOOOOOOOOOOOOOOOOOOOOOOOOOOOOOoOOooooooXXXoOooooooooooooooooooooooooXXoO@@+OooooooooOOOOOOOOoooO",
"$@+++ooOOoooXO++%%#+OOOO++OoOoXoOOOOOOOOOOOOOOOOO+++++++++OOO+OO++++++++OOOOoo+#+OOoooOooOOOOOOOOOOOOOOOO+#$$$%&$@OOOOOOOOOOOO++++++++++++++++++++++++++++++++++++++++++++OOOO+@++++OOOOOO+++++OOOOOOO+++$%#+OoooooooooooooooooooooooooooooooooOooooooOOooooOOOOooo+#@+ooOOOXO+OOOOOOOOOOOOOOOOOOOOOOOOOOOOOOOOOOOOOOOOOOOOOOOOOOOOOOOOOOOOOOOOOOOOOOOOOOOOOOOOOOooooooooooooooOOOOOOOOO+@@+oXooooooooooooooooOOOOOOoooooooOOOOOOOOOOOOOOOOooooooO+O++O+oX.XooooooOOooooOOOoooOOOOOOOOOOOoOoooOoOOOOOOOOOOOOoooOOOOOOOOOOOOOOOOOOOOOOOOOOOOOOOOO++OOOOOOOOOoooXooOOOOOOOo@$#+OoXXoO+ooOXOOOOOOOOOOOoOOOO+OOOOOO+++++OOOOOOO++++++OOOOOOO#%#+OoOooXXXX.XoOOOOOOOOOOOOOOOOOOOooOOOOOOOOOOOOOOOOOOOOoOOOOOOOOOoooooooooooooooooooooooooooooooooX.oOXXXXooooooooOOOooooO",
"++OooO+++++oO@@O+#+OOo.o#OXo+oXoooOOOOOOOOOooooooOOO++OO++OOO++OO++++++OOOO++OO+++OOooX.XoOOOOOOOOOOOOOO++@$%%$@@OOO++OOOO++++++++++++++++++++++++++++++++++++++O++++OX.#$#+OOOO+++++++++OOOOO+++OOOOO+++#%$@+ooooooooooooooooooooooooooooooooooooooOOOOOOoooOOOOoo+#@#@+oO+OOoOOoOOOOOOOOOOOOOOOOOOOOOOOOOOOOoooOOOOOOOOOOOOOOOOOOOOOOOOOOOOOOOo@#+o+@OOOOOOOOOOOOOOOOOOOOoooooooOOOOOOO@#+OoXoXooooOOOOOoooooooooooooOOOOOOOOOOOOOOOooOOOOOOooo+@++OO+oX .oooooOooooooooooOooooOoOOoooooOooO+OOOOOOOoXoooOOOOOOOOOOOOOOOOOOOOOOOOOOOOOOOOOOOOO+OOOOOOO++OOOOOoOOOOOOOOO@$$@+ooXo+ooOO+ooooOOOOOOOOOOOOoOOOOOOOOOOOO+OO++++OOOOOOOOOOOO+$#@OooXOoXXX.XO+OOOOOOOOOOOOOOOOooooooooooooOOOOOOOOOOOOoOOOOOoOOOOOOoooXXXXXoooXoXXoooooooooooooX..XXoooXXoooXooooooooooOO",
"++O++OOOOoOOO+@+++OOoXX.OOOoooooooOOOOOOOOOOOOOOOOOOOO++++++OOOOOOOOOOOOO++++++++++OOoXXXoOOOOO++++++OOOO+O@@@+O++++O+OO+++OO++++++++++++++++++++++++++++++++++++O++OOOOO##+OOOXO+++++O+++OOOO++++++OO+++#%$@OoooooooooooooooooooooooooooooooOoooOOOOOOOOOooOOOOOoo+@@@@o.+%@oOOOoOOOOOOOOOOOoOOOOOOOOOOOOOOOOoooOOOOOOOOOOOOOOOOOOOoOooOOOOOOOOoOO+OoXOOOOOOOOOOOOOOOOOOOOoOOOOooOOOOOOO@#@OoXXoOooOOOOOOOOOoooooooooooooOOOOooooooooooOOOOOOOOO+@##@+OoX.XXoooOOOooOOOOOOOOOooooooOOoOoooooOoOOOOOOOOOooOOOOOOOOOOOOOOOOOOOOOOOOOOOOOOOOOOOOOOOOOOOOOOOOOOOOOOOOOOOOOO@#$#+OOoOoO@XoOoooooooOOOOOOOOOOOOOOOOOOOOO++OOO+++OO+OOO+OoooOO+$#@+ooo.XXO+oXO+OOOOOOOOOOOOOOOOoooooooooooOOoOOOOOOOOO+XXXXOOOO++++++OooXXXXooXXXXXXooooooXXXXXXX...XXoooooooooooooooOOoOO",
"+++++OOOOoOOO+@+OOOoooooooooooOOOOOOOOOOOOOOOOOOOOOOOO++++++++OOOOOOOO++O+++++++@@++OooXoO+OooO++++++OOOOOO+@@+OO+++++OO++++OO+++++++++++++++++++++++++++++++++OOOOOOOOO..XoO++OOOOO+++++OOOO+++++++O++++#$#@OoooooooooooooooooooooooooooooooOooooOOOOoOOOOOOOOOOoO+@@@@+.X@+OOoOOOOOOOOOOOOOOOOOOOOOOOoOOOOOOOOOOOOOOOOOOOOOO+OO+OO++oXOOOOOOOOoXXXXooOOOOOOOOOOOOOOOOOOOOOOOOoOOOOOOOOO@#@OooooOOOOOOOOOOOOoooooooooooooOOoOOOOOOOOOOOOOOOOOOOOoo@$$+OXXoXXXoOOOOOOOOOOOOOOOOOooooooOOOOooooOOOOOOOOOOOOOOOOOOOOOOOOOOOOOoOOOOOOOOOOOOOOOOOOOOOOOOOOOOOOOOOOOOoOOOOOOOO#%%#@OooXo+XXooooooooOOOOOOOOOOOOOOOOO+OOoooOOO++OOO+++@@+O+++@@$@+++oooOX .OOOOOOOOOOOOOOOOOOOOoooooooooooOOOoooooOooo++o+@OOOO+OOOoooooXXXoooXXXXXXXXXXXXXXXXX.X..XXXXoooooooooooooOOooOO",
"+++++OOOooOOO+@@+OOooXXXXXXooOOOOOOOOOOOOOOOOOOO++OOOO++++OO+OO++OOO++++OOOO++++++++OoooooOOOOOOOOOOOOO+++++++++++++++OO++++OO++++++OO++++++++++++++++++++OOOOOOOOOOOOOOOooO+OoOOO++++OO++OOOOO+OOOO+++++#$#@OoooOoooooOOOoooooooooooooooooooooooOOOOOOOOOOOOOOOOoO+@@@@+oXoOOoooOOOOOOOOOOOOOOOOOOOOooooOOOOOOOOOOOOOOOOOOOOOO+OoO++OoooOOOOOOOOOOOO++OOOOOOOOOOOOOOOOOOOOOOOOOOOOOOOOOO@#@OooooOOOOOOOOOOOOOooooOOOOOOooOOOOOOOOOOOOOOOOOOOOOOOooO#$@oXXoXXXoOOOOOOOOOOoOOOOOOOOOOOOOOOOOOOOOOOOOOOOOOOOOOOOOOOOOOOOOOOOOOOOOOOOOOOOOOOOOOOOOOOOOOOOOOOOOOOOOOOOOOOOOOO@$%#@+O@O+@ooooOOOOOOOOOOOOOOOOOOOOOOOOOOOOOOOO+++++++++OO+++++#%#++OOoXOO. XOoOO++++OOOOOOOOOOOOOOOOOOooooOOooooooOOoo+$+@@oooOOoooXXXoooooooXXXXXXXXXXXXXXXXX..XXXXXXXooooooooooooooooOOO",
"+++++OOOOoOOO+@+++OOoX...XXooOOOOOOOOOOOOOOOOO+O++OOOOOO+OO+++++++OOO+++OOOOOOO+++++OooXXoO++OOOOOOOOO++++OOOOO++++++++O++++OO++O++++O++OO++++OO+++OOOOOOOOOOOOOOOOOOOO++O+@+oO+++++++O+++OOOOOOOooO+++++#$#@OoooooooooOOOoooooooooooooooooooooooOOOOOOOOOOOOOOOOoO+@@@++OooXooOOOOOOOOOOOOoOOOOOOOOOoOOOOOooOOOOOOOOOOOOO+OOoOOOo++ooOooOOOOOOOO++OOOOooOOOOOOOOOOOOOOOOOOOOOOOOOOOOOOOO@#@OooXoooooooooooooooooooooOOoooOOOOOOOOOOOOOOOOOOOOOOOOOO+@+ooXXXoooooOOOOOOOOOOOOOOOOOOOOOOOOOOOOOOOOOOOOOOOOOOOOOOOOOOOOOOOOOOOOOOOOOOOOOOOOOOOOOOOOOOOOOOOOOOOOOOOOOOOOOOO@#$#+OOo@+@#OOOOOOOOOOOOOOOOOOOOOOOOOOOOO+++++OOO+++++OOOOOO+OOO@%#+OoOO.XOo .oo+++++OOOOOOOOOOOOOOOOOOOOoooOOoooooOOOooX@@OO++ooooooooooooooooXXXXXXXXXXXXXXXX...XXoXXXXoooooooooooooOooOOO",
"++O++OO+OoOOO+++OOOoooXXXooooOOOOOOOOOOOOOOOOOOO++++++OO+OO++++++++OOOOOOO++++++++++OooXooO+OOOOOOOOOO++OOOOO+++++++++++++++++++O+++++++O++++++O+O+OOOOOOOOOOOOOOOOOOOOOOOOOOoOO++++++++OOOOOOOOOooO+++O+#$#@OooooooooooOOoooOoooooooooooooooOOoooOOOOOOOOOOOOOOOoO+@@@+O++OoooOOOOOOOOOOOOOOOOOOOoooO+++OOOoooOOOOOOOoOOO+OOoOOo@+XoOOOOOOOOOOOOOOoO+OOOOOOOOOOOOOOOOOOOOOOOOOOOOOOOOOOO@#@OooXoOoooooooOOOOoooooOOOOoooooOOOOOOOOOOOOOOOOOOOOOOOO@@+OOoXXXoooooOOOOOOOOOOOOOooooooooooOOOOOOOOOOOOOOOOOOOOOOOOOOOOOOOOOOOOOOOOOOOOOOOOOOOOOOOOOOOOOOoOOOOOOOOOOOOOOOOOo+$$@+oXooo+oOO++OOOOOOOOOOOOOOOOOOOOOOOOOOOOOOO+++O++++OOOOOOOO+$#+OXXXo.XX..OO@@+OOOooOOOOOOOOOOOOOOOOOOOOooooooooOoooXO@+o++oooooooooooooooXXXXXXXXXXXX....X...XXooXXXooooooooooooooooOOO",
"++O++OOOOoOOOO@++OOooXXXooooooooOOOOOOOOOOOOOOOO++++++OO++O++++++++OOOOO++++++++++++OooooO+OOOOOoooOOO++OOO+@@@++++OOOOOOOOO+OOOO++++O++O+++++OOO+++OOOOOOOOOOOOOOOOOOOOOOOooOOoO+++++++OOOOOOOOOOOOOOOO+#$#@OooooooooooooooOOooOoooooOOoooOOOOoOOOOOOOOOOOOOOOOOoO+@@@@OOOOooooOOOOOOOOOOOOOOOOOoooOOOOOOOOOOoooOOOOOOOOOOOOO++@OooooOOOOOOOOOOOOOoO++OOOOOOOOOOOOOOOOOOOOOOOOOOOOOOOOOO@#@OooXooooooooooooooooooooooooooOOOOOOOOOOOOOOOOOOOOOOooO@##+OXXoXXXoOOOOOOOOOOOOOOOOoOOoooooOOOOOOOOOOOOOOOOOOOOOOOOOOOoOOOOoOOoOOOOOOOOOOOOOOOOOOOOOOOOOOOOOOOOOoOOOOoOOOOoOo+#@+OOoXXXOooo+OOOOOOOOOOOOOOOOOOOOOOOOOOooOOOO++OOO+++OoO+OO++@$#@+Oo.XXXX.XO+@++OoooooOOOOOOOOOOOOOOOOOOOooooOooooOooOO@#@OOXOOOoooXooooooooXXXXoooXXXXXXXXXXXXXooXXXXooooooooooooooooOOO",
"+++++OOOooOOO+@@++OOoX.XooooooOOOOOOOOOOOOOOOOOO+++++OOO++++++++++++OOOO++++@@@@@@@++OOooOO++OOooooOOO++OOOO+++OOOOOOOOOOOOO++OOOO++OOOO++++++++++++OOOO+OOO++OOOOOOOOOOOOOoO++OO+++++++OOOOOO+++++OOOOO+#%$@OooooOOooooooooOOOoOOooooOOooooOOooOOOOOOOOOOOOOOOOOOO+@@@+OXooooOooOOOOoOOOOOOOOOOoOOOOOOoooOOOOOoOoOOOOOOOOOOO+@#@ooOOoOOOOOOOOOOooOooooooOOOOOOOOOOOoOOOOOOOOOOOOOOOOOOOO@#@OooXoooooooooooooooooooOoooooOOOOOOOOOOOOOOOOOOOOOOOOOO+#$@OXooXXXoOOOOOOOOOOOOOOOOOOOOOOOOOOOOOOOOOOOOOOOOOOOOOOOOOOOOOOOOOOOOOoOOOOOOOOOOOOOOOOOOOOOOOOOOOOOoOOOOOOOOOOOOOO@$#+OoXoOo+oooOOOOOOOOOOOOOOOOOOOOOOOOO+OO++OOO++OO+++OOO+++OO@#%$@@O++XXoooXo+OOOoooOOOOOOOOOOOOOOOOOOOOOoOOOOOOooOOooOo+@#@++OOOoooXXoooooooooXXooooXXXXXXXXooooXXXXXXooooooooooooooooOOO",
"+++++OOOOoOOO+@++OOooXXXooooOoOOOOOOOOOOOOOOOOOOOOOOOOO++++++++++++++OOO++++@@@@@@@@+OOoooO+@+OXooooOOO++OOOoOO++OOOOOOOOOOO++OOOOOOOOO++++++++++++++++++OOO++OOOOOOOOOOOOOOoO++O+++++++OOOOOOO++++OOOOO+#$#@OoooOOOOOooooooOOOoOOoooooooooooOooOOOOOOOOOOOooOOOOOO+@@@+O.XoXXOoOOOOOOOOOOOOoOOOOOOOOoooooOOOOOOOOOOOOOOOOOOO@#%o++oooOOOOOOOOOoooOOoooOOOOOOOOOOOoOoOOOOOOOOOoOOOOOOOOOO@#@OooXoooooooooooooooooooOooooOOOOOOOOOOOOOOOOOOOOOoOO#+O+@@@@ooXXXooooOoOOOOOOOOOOOOOOOOOOOOOOOOOOOOOOOOOOOOOOOOOOOOOOOOOOOOOOOOOOOOOOOOOOOOOOOOOOOOOOOOOOOOOOOOOOOOOOOOOOOOOo@##+OoooooOooo+OOOOOOOOOOOOOOOOOOOOOOO+++O++OOO+++++++OO++OOO+@@$@@+OO+OoXo+XXoXXoOOOOOOOOOOOOOOOOOOOoooooooooooooooooo+X+o@$O#oooooooooooooooooXooooooXXXXXXoooooXXXXXXooooooooooooooooOOO",
"++O++OO+OoOOO+@+++OoXXXo@OooOOOOOOOOOOOOOOOOOOOOOOOOOO+++++++++++++++++++++++++@@@@@+OOoooO++#@oOOOoXXOOOOOOooOOOOOO+OOOOOOO+OOOOOOOOO+++++++++++++++++++++++OOOOOOOOOOOOOOOOOOOOO++++++++OOOO+++++++OO+O$*%@OOOooooooooooooooooOoooooooooooooooOOOOOOOOOOOOoOOoOOO++@@++o.XXoOoooOOoOOOOOOOOOOOOOOOooOOOOOoooOOOOOOOOOOOOOooX..OOOOOOOOOOOOOOOOOoOOOOOOOOOOOOOOOOOOOOOOOOOOOOOOOOOOOOOOO@#@OooXoooooooooooooooooooooooOOOOOOOOOOOoO+OOOOOOOOOOOOOO+@@+OOoXXooOOoOOOOOOOOOOOOOOOOOOOOOOOOOOOOOOOOOOOOOOOOOOOOOOOOOOOOoOOOOOOOoOOOOOOOoOOOOOOOoOOOoOOOOOOOOOOOOoOOOOOOOOOo@###+OXXXooooOOOOOOOOOOOOOOOOOOOOOOOOOOOOOOOOOOOO++++OO++OO+O+@@#+++OOOOooXXoX.OOOOOOOOOOOOOOOOOOOOOOooooooooooooooooooooOoOOOOooooooOOOooXooooooXXXooooXXXXXXooooXXXXXXoooooooooooooooOOOO",
"++O++OO+OoOOO+@++++o..XooXXoOOOOOOOOOOOOOOOOOOOOOOOOOO++++++++++++OOOO++++++++++@@@@+OOooOO+O@%$XoOOX.XOOO++OoOOOOOO++OOOOOO++OOOO++OOOO+++++++O+++O++++++++++OOOOOOOOOOOOOOOOOOOOOO++++++OOOO+++++++++++$$$@OOoOOOOOOOOOOOOOOOOOOooooooooOOooooOOOoOOOOOOOOoOOoOOO++@@+O+o ooooooOOOOOOOOOOOOOOOOoooOO+OOoooooOOOOOOOOOOOOOooXXoOOOOOOOOOOOOOOOOOOOOOOOOOOOOOOOOOOoOOOOOOOOOoOOOOOOOOOOO@#@OooXooooooooooooooooooooooOOOOOOOOOOoOOo++OOOOOOOOOOOOO+@@+OOooXXoOOoOOOOOOOOOOOOOOOOOOOOOOOOOOOOOOOOOOOOOOOOOOOOOOOOOOOOOOOOOOOOOOOOOOOOOOOOOOOOOOOOOOOOoOOoOOOOOOOOOOOOOOOo@###@oXXXXXooO+OOOOOOOOOOOOOOOOOOOOOOOOOOOOOOOOOO+++OO+++O++OO+#%@++OO++oXXoOOXOOOOOOOOOOOOOOOOOOOOOOooooooooooooooooooooooOOOOooOOOoooooXXXoooXXXXXXXXXXXXXXXXXXXXXXXXXooooooooooooooOOOOO",
"++O++OOOOoOOO+@+++OoXXX...XoO++OoOOOOOOOOOOOOOOOOOOOOO++OO++OOOOOOOOOOOO++++++++@@@@++OooOOOO+$&@oXOOX.XO+++@@+OOOOOOOOOOOOOOOOOOOO++OOO+++++OOOOOOOOO+++OOOOOOOOOOOOOOOOOOOOOOOOOOOO+++O+OOOOO+++++++++#@O@#Oo.OOOOOOOOOOOOOOOOooooooooOOOOooooOOOOOOOoOOOOOOOooOOO+@@++@#+ooooooOOOOOOOOOOOOOOOooooOOOOooOOOoooOOOOOOOOOOOOOOOOOOOOOOOOOOOOOOOOOOOOOOOOOOOOOOOOOOOOoOOOOOoOOOOOOOOOOOOO@#@OooXoooooooooooooooooooooOOOOOOOOOOOoOoXO+OOOOOOOOOOOOO+@@+OOooXXooooOOOOOOOOOOOOOOOOOOOOOOOOOOOOOOOOOOOOOOOOOOOOOOOOOoOOOOOOOOOOOOOOOOOOOOOOOOOOOOOOOOOOOOOOOOOOOOOOOOOOOOOo@###+OoooX.XoOOOO++++OOOOOOOOOOOOOOOOOO+++OOO++++++OOO++OOO++O+@%$@+OOOOoooOOOOOOOOOOOOOOOOOOooOOOOoooooooooooooooooooooooooooooooOooXXXoXXoooXXXXXoXXX.XXooXXXXXXXXXXXXooooooooooooooOOOOO",
"+++++OOOoooOO+@@OOOOOoX. XXXo++OOOOOOOOOOOOOOOOOOOOOOO++OOO+OOOO+OOOOOO+++++++++@@@@++OOOOOO+OO@&#oXOOX.oOOo+#++OOOOOOOOOOOOOOOOOOO++OOOOOO++OOOOOOOOOOOOOOOOOOOOOOOOOOOOOOOOOOOOOOOO+++OOOOOOOOOOOOOOOO+$$$#@+XOOOOOOOOOOOOOOOOOOOOOOOOOOOOOOOOOOOOOOOOOOOOOOOooOOO+@@OOOoOooooooOOOOOOOooOOOOOOOOOOOoooooOOOoooOOOOOOOOOOOOOOOOOOOOOOOOOOOOOOOOOOOOOOOOOOOOoOOOOOOOOOOOOOOOOOOOOOOOOOOO@#@OooXooooooooOOooooooooooOOOOOOOOOOOOoO+@$@OOOOOOOOOOOOO+@@+OOoXXXooooOOOOOOOOOOOoOOOOOOOOOOOOOOOOOOOOOOOOOOOOOOOOOOOOOOOOOOOOoOOOOOOOOOOOOOOOoOOOOOOOOOOOOOOOOOOOOOOoOOOOoOOo@##@+OoooXXXXoOOO++++OOOOOOOOOOOOOOOOOOOOOOOOO++++++OO++OOO+++++%$##+OXooO++ooOOOOOOOOOOOOOOoooOOOOoooooooooooooooooooooooooooooooXXXooooooooooXXooooXXXXXXXXXXXXXXXXXXXooooooooooooooOOOOO",
"++++OOOOOoOOO+@+OOOOOoX.XooXoO+OOOOOOOOOOOOOOOOOOOOO++++OO++++OO+++OOO+++++++++++@@@++OOOOOOOOOO#*&+oOoXXoOo+@O+OOOOOOOOOOOOOOOOOOOO+OOOOOOO+++++++OOOOOOOOOOOOOOOOOOOOOOOOOOOOOO++OOOOOOOOOOOOOOOOOOOOO+%&#+@+XOOOOOOOOOOOOOOOOOOOOOOOOOOOOOOOOOOOoOOOOOOOOOOOooOOO+@@OOOOOOoooOOOOOOOOOOOOOOOoooOOOoooooOOOOOOOOOOOOOOOOOOOOOOOOOOOOOOOOOOOOOOOOOOOOOOOOOOOOOOOOOOOOOOOOOOOOOOOOOOOOOOO@#@OooXooooooooOoooooooOOOOOOOOOOOOOOOOoO+@$@OOOOOOOOOOOOO+@@+O....XooooOOOOOOOOOOOOOOOOOOOOOOOOOOOOOOOOOOOOOOOOOOOOOOOOOOOOOOOOOOOOOOOOOOOOOOOOOOOOOOOOOOOOOOOOOoOOOOoOOOOOOOO@@#+#@OoXXoooOOOOOOooOOOOOOOOOOOOOOOOOOOOOOOOOOOOO++++OOO++++OO+@$##$#@O+OO++oooOOOOOOOOOOOOOoooooooooooooooooooooooooooooooooooooXXXooOooooOOooooooOoooooXXXXXXXXXXXXXXXoooooooooooooOOOOOO",
"++O++OO+OoOOO+@++++OoooXooooooOOOOOOOOOOOOOOOOOOOOOOO++++++++++++++++++++++++++++++@++OOOOOOOOOO+$*&@ooOoo@#@+O+OOOOOOOOOOOOOOOOOOOOOO++OOOOO+++++OOOOOOOOOOOOOOOOOOOOOOOOOOOOOOO@@OOOOOOOOOOOOOOOOOOOOO+#%#+OOooOOOOOOOOOOOOOOOOOOOOOOOOOOOOOOOOOOOOOOOOOOOOOOooOOO+@@OOOOOooooOOOOOOOOOOOOOOooooOOooooOOOoooOOOOOOOOoOOOOOOOOOOOOOOOOOOOOOOOOOOOOOOOOOOOOOOOOOOOOOOOOOOOOOOOOOOOOOOOOOO@#@OooooOOOOOOOOOOOOOOOOOOOOOOOOOOOOOOOoOoXO+OOOOOOOOOOOOO+@@+O...XXooooOOOOOOOoOOOOOOOOOOOOOOOOOOOOOOOOOOOOOOOOOOOOOOOOOOOOOOOOOOOOOOOOOOOOOOOOOOOOOOOOOOOOOOOOOOOOOOOOOOOOOOOO@#@$@OoooOOOOOOOOooooOOOOOOOOOOOOOOOOOOOOOOOOO++++++O+++++@+OOO+#@@@+++++OoXXoOOOOOOOOOOOOOOoooooooooooooooooooooooooooooooooOoXXooOOOOoooooOOoooooooooooX...XXXXXXXXXXXoooooooooooooOOOOOO",
"++O++OO+OoOOO+@++++OOoooXXoooXoOOOOOOOOOOOOOOOOOOOOOOO++++++++++++++++++++++++++++@@@++OOOOOOOO++O@*&@O+Oo+#@OO+OOOOOOOOOOOOOOOOOOOOOOOOOOOOOO+++O+O+OOOOOOOOOOOOOOOOOOOOOOOOOOOO+++OOOO+O++OOOOOOOOOOOO+@&%#OoOOOOOOOOOOOOOOOOOOOOOOOOOOOOOOOOOOOOOOOOOOOOOOOOooOOO+@@OOOoOooooOOOOOOOOOOOOOOOOoooooooOOOoooooOOOOOOOOOOOOOOOOOOOOOOOOOOOOOOOOOOOOOOOOOOOOOOOOOOOOOOOOOOOOOOOOOOOOOOOOOO@#@OooooOOOOOOOOOOOOOOOOOOOOOOOOOOOOOOOoOOo++OOOOOOOOOOOOO+@@+OXXXXoooooOOOOOOOOOOOoOOOOOOOOOOOOOOOOOOOOOOOOOOOOOOOOOOOOOOOOOOOOOOOOOOOOOOOOOOOOOOOOOOOOOOOOoOOOOOOOOOOOOOOOOOOoOOo#@+++++OOOOOOOOOOOOOOOOOOOOOOOOOOO+++++OOO++++++OOO++OO+++OO+###@++oO+OX..o+OOOOOOOOOOOOOoooooooooooooooooooooooooooooooOOOooooOOOoooooooooooooooooXXXXXXXXXXXooooooXoooooooooooooOOOOO+",
"++OOOOOOooOOO+@+++++OOoo..XoOXoOOOOOOOOOOOOOOOOOO+++++++++++++++++++++++++++++++@++@@++OOOOOOOOOOOo+%*$+O..OoX+OOOOOOOOOOOOOOOOOOOOOOOOO+OO+OOO++OOOOOOOOOOO+OOOOO+OOOOOOOOOOOOOO..++OOO++++++OOOOOOOOOO@#%$@+oOOOOOoOOOOooooooOoOOoOOOOOOOOOOOOOOOOOOOOOOOOOOOooOOO+@@+OOOOOOOOOOOOOOOOOOOOOOOOOooooOOOooooOOoooOOOOOOOOOOOOOOOOOOOOOOOOOOOOOOOOOOOOOOOOOOOOOOOOOOOOOOOOOOOOOOOOOOOOOOOO@#@OoooooOOOOOOOOOOOOOOOOOOOOOOOOOOOOOOOOoO+OOOOOOOOOOOOOO+@@+OoooXXoOoooooooooOOOOOOOOOOOOOOOOOOOOOOOOOOOOOOOOOOOOOOOOOOOOOOOOOOOOOOOOOOOOOOOOOOOOOOOOOOOOOOOOOOOOOOOOOOOOOOOOO@$#@+++++OOOO++OOO++OOOOOOOOOOOOOOOOOOOOOOOOOOOOO+++OOOOOOOOOO@#%###+++OOo..ooOOOOOOOOOOOOOOooooooooooooooooooooooooooooOoooOOOOOOooooooooooooooXXXXooX.XXXooooooooooooooooooooooooooOOOOO+",
"++O+OOOOooOOO+@+OO++OooXoXXO+OoOOOOOOOOOOOOOOO++O+++OOOO+++++++++++++++++++++++@@++@@+OOOOOOOOOOOOOOo#**$OoXoOoo@@OOoOo+#OoO+OOOOOOOOOOO+++++O++OOOOOOOOOOOOOOOOO++OOOOOOOOOOO+OOOO+####@OOOOOOOOOOOOOOO@@##@+OoooOooO+OooooooOOooooOOOOOOOOOOOoOOOOOOOOOOOOOOOooooO+@+++OOOoooOOOOooooooooOOOOOOOooOOOOOooOOOOOOOOOOOOOOOOOOOOO+++OOOOOOOOOOO++OOOOOO++OOOOOOOOOOOOOOOOOOOOOOOOOOOOOOOOO@$$@OoXooooOOOOOOOOOOOOOOOOOOOOOOOOOOOOOOOOOOOOOOOOOOOOOOoO+++OX  .XOOXooooooooooOOOOOOOOOOOOOOOOOOOOOOOOOOOOOOOOOOOOOOOOOO++OOOOOOOOOOOOOOOOOOOOOOOOOOOOOOOOOOOOOOOOOOOOOOOOOOO@$%#++@+++OOOOOOOOOOOOoooooOOOOOOOOOOOOOOOOOOOOOO++++O+OOOOOOOO@##@#@@@OOOO+oooOOOOOOOOOOOOOOOOOOoooooooO++ooooooooOooooOOoooooOOOooooooooooooooooXXXXooXXXXoooooooooooooooooooooooooOOOOO+",
"++++OOOOooOOO+@+++++OX.XOooOOOOOOOOOOOOOOOOOOO++O++++OOO++++++++++++++@+++++++++@++@@+OOOOOO+++++OOO@O+&-=$ooOo+oooXXoOOO+OoOOOOOOOOOOO+OOOO++++OOOO++OOOOOOOOOOOOOOO++++OO+ooOXOOO@&*&%#OoooO+OOOO+OOOO###$#@+oXoOoOOoooooooooooooOOOOoOOOOOOOOOOOOOOOOOOOOOOOOOOO++++@++OooooOooooOoooOOOOOOOOOOOOOOOOOOOOOOOOOOOOOOOOO+OOOOOOOOOOOOOOOOOOOOOOOOOOOOOOOOOOOOOOOOOOOOOOOOOOOOOOOOOOOO+++@$#oXoOOooOOOOOOOOOOOOOOOOOooOOOOooOOOOOOOOOOOOOOOOOOOOOOo+#@+OOX..ooo+OOOOOOOOOOOOOOOOOOOOOOOOOOOOoooooOOOOOOOOOOOOOOOOOOOOOOOOOOOOOOOOOOOOOOOOOOOOOOOOOOOOOOOOOOOOOOOOOOOOOOO+@#$$#+@++OOOOOOOOOOOOOOOOOOOO++++++++++++++++++OOO++@@@++++++++#$#@#@@+OOOO+oXoOOOOOOOOOOOOOOOOOOoooooOOoXoO+OooooooOoooOooXooooooooooooooooooooOooXXX.XXXXXXooooooooooooooooooooooooOOOOO+",
"++++OOOOooOOO+@++@@+ooOO++OooO+OOOOOOOOOOOO+OOOOOO++++OO++++++++++++++++++++++++@++@@++OOOOOO+++OOOOOOO+$**&@ooooOO+$&=%.O+OOOOOOOOO+++++OOOOOOOOOO++++OOOOOOOOOOOOOOOOOOOO+ooOXoOO@*;-=&@OXXoOOOOOOOO+O##@###@o.ooo++OOOOOOOOOOOOOOOOooOOooooooooooooooOO++@@@#@@#$#++#OoXX..XXoooOOOOOOOOOOOOOOOOOOOOOOOOOOOOOOOOOOOOOOOOOOOOOOOOOOOOOOOOOOOOOOOOOO+OOOOOOOOOOOOOOOOOOOOOOOOOOOO+++++++@$#OXooOOOOOOOOOOOOOoooOOOOOOOOOOOOOOOOOOOOOOOOOOO++OO++OO+#@OoOo.XoXo+OOOOOOOooooOO+++++++++++++OOOOOOOOOOO+OOO+++++++OOoXXXoOOOOOOOOOOOOOOOOOOOOOO+++++++++OOOOOOOOOOOOOoOOOOO++@$@+OOoXooO+@++++++++++OOOOOOOOOOOOOO++++++++++++++++++++++++@$#@@@+OOOOO+oXoOOOOOOOOOOOOOOOOOOOoOoooOooXooOOOOOoXoooOOOooOOOOOOOOooOOooooooooooooooooooXooooXoooooooooXXoooooooooooOOO++",
"++++OOOOooOOO+@@@@+@OoooO+OooO+OOOOOOOOOOO+OOOOO+O+++++++++++++++++++++++++++@@@#@@@##@++O+++++++OO+O+OOoX@=%@@O+@+#&%*:%oo@+++OOOOOOOOOO++OOoOOOOO+++OOOOOOOOOOOOOOOOOOOOO+oO@++#@$-<,,;%@oXXooOOoOO++O@@+@#%$+++OoooooooooooooO@@+OoO+++OOOOOOOOOOOOOOOO++@@@#@@@@+oO@+Oo.   ..XXoooooOoOOOOooOOOOOOOOOoooOOOOOOOOO++O++OOOOOOOOOOOOOOOOO++++++OOOO++OOOOOOOOOOOOOOOOO+++++++++++++OOO@$%#@+OXOOOO+++++++++OOOOOOOOOOOOOOOOoooO++++++OOOOOOOOOOOoO++OoX...XXXX+Ooo++Oo++++++++++++++O+OOOOOooooooOO+++++++++++++OX..XOO+++++++++++OOOOOOOOOOOOOOOOOOOOOOOOOOOOOOOoOOOO++O@$$@+OoXXoO+@@+OOOO+@++++@@@@@@@@@@@@@@@@@@@@#@++##@+++++++++@%$$#@OooOOOOoXoOOOOOOOOOoO#@OoOOOOooooooOOoXXooO++OOooooOOooOOOOOooooOOOOoooooooooooooooooXooooXoooooooooXXXXXXXooooOOOO+++",
"+++++OOOOoOOO+@+@%&&$##oXoOooO+OOOOOOOOOOO++++OO+++++++++++++++++++@@@#@@@@@@@@####@###@OOOOOO+O+OOOOOOOOoXo#&=&%$++OXo*;&@+@@++OOOOOOOOO+++++++++@@++OOOOOOOOOOOoooooOOOO+OoO@#@&*%-<11>*#OooXXXoXoO+OO@@@@@$%%X.O@+OOX+++@@####@@@@@@@####@#@@+++OoooX             XoX@+oX      .........XXXXXXXXXXXXXO..XoXO#OO+OO++O+OOOOO+OOOOOOOOOOOO+++++++++++++++++++++++++++OOOOOO++++++OOO++O@%&#+OoXXXooooOOO+++++++OOOOOOOOOOOOooXXOOOOOOooooooXXXXXXX.XOOOX... .X XXXooOOOOOOOOOOOOOOOOOOOOooooooooooooooXXXXXXoXXoOOoXXooooooooooooooooXoooXXXoXXXXXXooooooooOOOOooooOOOOO+O+#$#+Oo.....XXXX..   XXXooO++@@@@@@@@@@@@@@@@@+OOOO+@+oo++oo+@$$$$@+OOoOOOX.oooooooooOOOOOOOOOoooooooXXooooooooOOOOoooOOoOOOOOOoooOOOOOoooooooooooooooXXXXXXXXXXXXXoXooooooooooOOOOOOO+++",
"+++++++OooOOO+@++@%%%:;oXooooOOOOOOOOOOOOO++++OO+++++++++++++++++++@@@#@@@@@@@@##$#@@@@+OOOOOOOOOOOOOOOOO+OX@&%%%$$%%$+#%*#oO++++++@++++OOO++@++++@@##@+++++++++++OOOOOO+@@+O+@#@%%%&%&:;%@OooX ..XXooXoOO@++@#%+.oo..o.XXXooOOOo  XooX.......                   ....OOXooX.                                  ...XooooooOOOOOOO+OOOooooooOOOO++++++++@+++++@@@++++++++++oooOO++@+++OOOOOO+#@oXX.........XXooooooooXXXXXXXXXX..  XXXXXX.....          XOOoX.                        ...............  ..           XXX...........................                         .XXo+##++OoX.                                           ..  X. ++OO+@@+++OOoOX       ...................    .     .X..o+oOOooOOOOOooooOOOooooooo+++OOoooXX....   .    ..OOOOOOOOOOoooooooooO",
"++++++OOOoOOO+@+@O.O%=&+OoooooO@OOOOOOOOOOOO++++O+++++OO++++++++++O+OO++@@++@@##%%#@@@@+OOOOOOOOOOOOOOOOOXoO+@+@+@&-;;*&+O+OooOOO++++OOooXXoooXXXooO+@@+++++++++XoO@@@+++@++##$&&#+$&OX$*#OoooX.... ...X..O++Oo+O .X  oX         ..               .XX.     . ....X...oo.XX..                                            .. ...... .   .............XXXXX.XXXXXXXXoooXXXXXXX.XXXXX.......  o+OoXX...                                                  oooooX    .                    ........XXXXXXXXXoXXXooooooXoooXX.....XXXXXXXXXXXXXXXX.......                         ..X+@OOOOooXXXXXXXXXXXXXX..............                       . .XO++@+++OOOo.                      ..ooXX.         XO .   .  ...                                     XXXXXXXXXX...       ",
"@+++++OOOoOOO+@+@@++OO+O@+OoooO#OOOOOOOOOOO+++++O++++++O++++++++++O+++@+@@@@@@##&&%#@##+  ......OOOOOOOOXX.O@@#++@++$&*$@+++o.XooOOooX. ..... ...  .XoooooooooooOOOOOOOOOoXX+$%=&#o#::&%-%+OooooXXX  .XOX.O+@OXXOXXX. XX..   .oOOoX.      ........XXXX.X...XXXXXXX..OoOoooXXX....X.............                                                                                           oooXXXXXX.      ...                                     ...oo.XoX.                             ......XXXXXoOooOOOO+++OOO+++++OOOOOOOOOOOOOOOOOOOooooXXX...                      .. O@OO+++++++++++++++XXXoooOO ..XXooooXXXXXXoooXX..  .XXooOOOoXo+@@@@@+++o@$+XXXXXXXX...........XXXXXooX..     .X.  X .      ..                                                          ",
"@@@@++++Ooooo+@@@o@+++oO+@+oOoo++++++++++++++++++++++++++OOOOOoooooOOO++++OOOOO+$%%#$##@...       ....o   X+@+++@#@OX .oO@+#OXO@@@@+@#@#@@+ooXXXXXXXXXXXXXXXXXXXX..     .XXO+O+#@+oX-;>,%@+Oooooooo. .XOOoOO+OooXO+OOOoO@+oO.XO@o.XoXXXXXXXXXXXoooooooooooooooooooooOOOOOOOOOOOOooooXXoXXXXXXXXXXXXXXXXXXX..     ........X..XX.........X...............     .              ..    ..  ... .XXXooXXXXXXXXXX...                     .........XXXXXXXXXXooOOOooooXXXXXXXXXXXXXXX.oXXXXX.....XXXXoooooooO+++++@@@@##@@@@@@@@@@@@@++++++++++++++OOOOoooooooooooooooOOOOOOOOOOOO++OOO++++OO@@@@@@@@@@@@+@++@+ooO++OooXXXooooOOO.oo.ooXXXXXXXooooO++@@@+o@+ooOO+OoooXXXXooooOoX.X XXooo..XX.XX.X+oXo#o  oooXoOooOOooooooXXoOOoXX...........        .                     ...",
"OoOOoooooX..oO@#$XX+@#O@OoXX+++#+OXXXXXXXXXXXXXXXooXoXooooXXoXXXXX.X..XXoooooooO@$&&&$#OX...     .....o.. X++++++@@+O..ooOO#+oO+@##@$$##@++OOoooooooooooXXXXXoXXX..........XoXXO+oX.o#$#@+OOOoooooOo...o+OoXXO++#$%$$$#$=*$#+OoXOooOooOoooooooOOOOOOO+++O+++++++++++@@@@@@@@@++@+++OOOOOOooOOOOoooooOOOOOOoooooooXoXXoXXXXXXXX.XXXXXXXXXXXXXXXXXXXX...............X..XXXXXXooXXXXXXXXXXXooOOO++OoOOOOOOOoooXXXXX....XXXXXXXXXXXXXXXXXXooooooooOOooOOO++++++OOOOOOOOOOOOOOOOO#@OOOooooXXoooooOOO+++++@#@@@####$#####$$$$$$$################@@+++OOooooooooooooOOOOOOOOOO++++OOO+++Ooo+@+@+OO+OO++@#++#@OOOO+@@+++O+++++@+O++OooO++OOOoooooO++@@@++@+oooooooooXoooooooOoXXoo . .X..XoXooXXO+OX@+o.oOOoO+OOOOOooOOOOOO++OOoooooooooooooX..........   . ..   ....X.XXooo",
"oXOOXXXXoOoOO+@#$++&@+oo.  .X.....         .     .... ..XXXoOOOOOOoOooOOO+OO++++@#%%&$@OXXXX..  ......OXX.XOO+@@@+@#@oXoXoO#@oOoO+++@+++++++++OO+@@@@@@+++++++++OOoooXXX.....  .XXXXX...+OOOooooOO++ooXo+@Ooo+%%&&*%%%$$**&%$#+O@O+@+O++++OO++++@@@#@@############$$$$$$$$#$$$#####@@@@@@++++++OOOOOO+++++++++++OO++O++O++OO+OOOOOOOOOoOooooooooooooooooooXXoooXooOooOOOOOO++OOOOOOoooOOO+++@@@@++++++@@+++OOOOoooooOOOOOOOOOO++OOOOOOOOOO++++++++++@@@#@@@+++++++++++++++++%$++OOOoooooOOO++@@@@@@#$$$$$%%%&&&%%%%%%%$$$$$$$$$%$$$$$$$$$$##@@++++OOOooooooooOOOOOOOOO++++++++@@@@++####@++@++@++OooOOOOoooOOOOoO+++++++++++.XXoOOoooOOOO++++@@@@@@OooOooooooooooOooOoXXX+o  .XXXoOOO+oO+@+o+##+O++O+@@+@@+O+++++++@@+OOOOOOOOOOO@@++OOoX....XoXXXoXOoooooooOOO++@@@",
"@O##OOO++#++@@#$$#O#*@o...   .  .X.  ......X. ...XoXXXoXoooO@@+++++++O@+@#@@@++@@@#@#@@+oooXX........X+OoXXooO@@++@$#OooXXO##OOoOO++@+O@O+@@@@++$$$$$$#########@@@+OOoooXXXXoXXXXXXX..oOOOOOooooO++@O++O+@+@+$=*&%%$@#@@@$*=%@@@@++@@+@@@@@@@@@####$$$%$$$$$$$%%%%%%%&&&%%%%%%%%$$$$$#$$######@@@++++++@@@@@@@@@@@@@@@@@@@@@@@@@@@@@+++++++OOOOOOOOOOoooOOOoooOOoO+OO++++++@@+++@@@+++++@@###$$###########@@@+++++O++++@@@@@++#@@@@@@@@@@@@@@@@@@@@@###$##@@@@++++++++++++++$&++++OOOOOO++@@####$$#$%%%$$%%%%&%%%%%%%%%%$$%%%%%&&%&&&%&&&&%$$$#@@@++OOoooooooOOOO++OO+++@@####$$$%$#%&&%%$#$$$%#@@Oo+@###@+OOOOOO+@+O++O+oo+OOoooooOo++OO++++@#@+O++Xo+OOoooooOooOooOoXXoO+o XOooO+O+@+@#+O+$######@@#####@@@@@@@@@@@+++@@@@@@@@@$$##+++o. ..XOOOO+O@+++O+++@@@#$$$%"
};
