/* XPM */
static char *d9f0fc502b81417eac6f7e2e8e466a49hoyLjicTrcDxyfu6[] = {
/* columns rows colors chars-per-pixel */
"192 192 29 1 ",
"  c None",
". c black",
"X c #202020",
"o c #2C2C2C",
"O c #543C1C",
"+ c #744C28",
"@ c #484848",
"# c gray33",
"$ c #646464",
"% c gray44",
"& c #7C7C7C",
"* c #80502C",
"= c #905C34",
"- c #A0643C",
"; c #A86840",
": c #B47044",
"> c #C87C4C",
", c #DC8854",
"< c #E88C58",
"1 c #F0945C",
"2 c #FC9C60",
"3 c #FCA470",
"4 c gray55",
"5 c #989898",
"6 c gray66",
"7 c #FCB080",
"8 c #FCB890",
"9 c #FCC4A4",
"0 c #FCD8C4",
/* pixels */
"                                                                                                                                                                                                ",
"                                                                                                                                                                                                ",
"                                                                                                                                                                                                ",
"                                                                                                                                                                                                ",
"                                                                                                                                                                                                ",
"                                                                                                                                                                                                ",
"                                                                                                                                                                                                ",
"                                                                                                                                                                                                ",
"                                                                                                                                                                                                ",
"                                                                                                                                                                                                ",
"                                                                                                                                                                                                ",
"                                                                                                                                                                                                ",
"                                                                                                                                                                                                ",
"                                                                                                                                                                                                ",
"                                                                                                                                                                                                ",
"                                                                                                                                                                                                ",
"                                                                                                                                                                                                ",
"                                                                                                                                                                                                ",
"                                                                                                                                                                                                ",
"                                                                                                                                                                                                ",
"                                                                                                                                                                                                ",
"                                                                                                                                                                                                ",
"                                                                                                                                                                                                ",
"                                                                                                                                                                                                ",
"                                                                                                                                                                                                ",
"                                                                                                                                                                                                ",
"                                                                                                                                                                                                ",
"                                                                                                                                                                                                ",
"                                                                                                                                                                                                ",
"                                                                                                                                                                                                ",
"                                                                                                                                                                                                ",
"                                                                                                                                                                                                ",
"                                                                                                                                                                                                ",
"                                                                                                                                                                                                ",
"                                                                                                                                                                                                ",
"                                                                                                                                                                                                ",
"                                                                                                                                                                                                ",
"                                                                                                                                                                                                ",
"                                                                                                                                                                                                ",
"                                                                                                                                                                                                ",
"                                                                                                                                                                                                ",
"                                                                                                                                                                                                ",
"                                                                                                                                                                                                ",
"                                                                                                                                                                                                ",
"                                                                                                                                                                                                ",
"                                                                                                                                                                                                ",
"                                                                                                                                                                                                ",
"                                                                                                                                                                                                ",
"                                                                                                                                                                                                ",
"                                                                                                                                                                                                ",
"                                                                                                                                                                                                ",
"                                                                                                                                                                                                ",
"                                                                                                                                                                                                ",
"                                                                                                                                                                                                ",
"                                                                                                                                                                                                ",
"                                                                                                                                                                                                ",
"                                                                                                                                                                                                ",
"                                                                                                                                                                                                ",
"                                                                                                                                                                                                ",
"                                                                                                                                                                                                ",
"                                                                                                                                                                                                ",
"                                                                                                                                                                                                ",
"                                                                                                                                                                                                ",
"                                                                                                                                                                                                ",
"                                                                                                                                                                                                ",
"                                                                                                                                                                                                ",
"                                                                                                                                                                                                ",
"                                                                                                                                                                                                ",
"                                                                                                                                                                                                ",
"                                                                                                                                                                                                ",
"                                                                                                                                                                                                ",
"                                                                                                                                                                                                ",
"                                                                                                                                                                                                ",
"                                                                                                                                                                                                ",
"                                                                                                                                                                                                ",
"                                                                                                                                                                                                ",
"                                                                                                                                                                                                ",
"                                                                                                                                                                                                ",
"                                                                                                                                                                                                ",
"                                                                                                                                                                                                ",
"                                                                                                                                                                                                ",
"                                                                                                                                                                                                ",
"                                                                                                                                                                                                ",
"                                                                                                                                                                                                ",
"                                                                                                                                                                                                ",
"                                                                                                                                                                                                ",
"                                                                                                                                                                                                ",
"                                                                                                                                                                                                ",
"                                                                                                                                                                                                ",
"                                                                                                                                                                                                ",
"                                                                                                                                                                                                ",
"                                                                                                                                                                                                ",
"                                                                                                                                                                                                ",
"                                                                                                                                                                                                ",
"                                                                                                                                                                                                ",
"                                                                                                                                                                                                ",
"                                                                                                                                                                                                ",
"                                                                                                                                                                                                ",
"                                                                                                                                                                                                ",
"                                                                                                                                                                                                ",
"                                                                                                                                                                                                ",
"                                                                                                                                                                                                ",
"                                                                                                                                                                                                ",
"                                                                                                                                                                                                ",
"                                                                                                                                                                                                ",
"                                                                                                                                                                                                ",
"                                                                                                                                                                                                ",
"                                                                                                                                                                                                ",
"                                                                                                                                                                                                ",
"                                                                                                                                                                                                ",
"                                                                                                                                                                                                ",
"                                                                                                                                                                                                ",
"                                                                                                                                                                                                ",
"                                                                                                                                                                                                ",
"                                                                                                                                                                                                ",
"                                                                                                                                                                                                ",
"                                                                                                                                                                                                ",
"                                                                                                                                                                                                ",
"                                                                                                                                                                                                ",
"                                                                                                                                                                                                ",
"                                                                                                                                                                                                ",
"                                                                                                                                                                                                ",
"                                                                                                                                                                                                ",
"                                                                                                                                                                                                ",
"                                                                                                                                                                                                ",
"                                                                                                                                                                                                ",
"                                                                                                                                                                                                ",
"                                                                                                                                                                                                ",
"                                                                                                                                                                                                ",
"                                                                                                ...                                                                                             ",
"                                                                                                ...                                                                                             ",
"                                                                                                ...                                                                                             ",
"                                                                                             ###%%%###                                                                                          ",
"                                                                                             ###%%%###                                                                                          ",
"                                                                                             ###%%%###                                                                                          ",
"                                                                                          @@@&&&666&&&@@@                                                                                       ",
"                                                                                          @@@&&&666&&&@@@                                                                                       ",
"                                                                                          @@@&&&666&&&@@@                                                                                       ",
"                                                                                          @@@&&&666&&&@@@                                                                                       ",
"                                                                                          @@@&&&666&&&@@@                                                                                       ",
"                                                                                          @@@&&&666&&&@@@                                                                                       ",
"                                                                                       &&&&&&@@@&&&@@@&&&&&&                                                                                    ",
"                                                                                       &&&&&&@@@&&&@@@&&&&&&                                                                                    ",
"                                                                                       &&&&&&@@@&&&@@@&&&&&&                                                                                    ",
"                                                                                    ooo&&&555ooooooooo$$$&&&###                                                                                 ",
"                                                                                    ooo&&&555ooooooooo$$$&&&###                                                                                 ",
"                                                                                    ooo&&&555ooooooooo$$$&&&###                                                                                 ",
"                                                                                    ooo&&&666%%%&&&%%%$$$&&&@@@                                                                                 ",
"                                                                                    ooo&&&666%%%&&&%%%$$$&&&@@@                                                                                 ",
"                                                                                    ooo&&&666%%%&&&%%%$$$&&&@@@                                                                                 ",
"                                                                                    ooo&&&666555555555$$$&&&ooo                                                                                 ",
"                                                                                    ooo&&&666555555555$$$&&&ooo                                                                                 ",
"                                                                                    ooo&&&666555555555$$$&&&ooo                                                                                 ",
"                                                                                    ooo@@@555666666666@@@@@@...                                                                                 ",
"                                                                                    ooo@@@555666666666@@@@@@...                                                                                 ",
"                                                                                    ooo@@@555666666666@@@@@@...                                                                                 ",
"                                                                                    oooXXX&&&@@@@@@@@@...XXX...;;;                                                                              ",
"                                                                                    oooXXX&&&@@@@@@@@@...XXX...;;;                                                                              ",
"                                                                                    oooXXX&&&@@@@@@@@@...XXX...;;;                                                                              ",
"                                                                                 111oooXXX$$$ooooooooo...XXX...;;;:::                                                                           ",
"                                                                                 111oooXXX$$$ooooooooo...XXX...;;;:::                                                                           ",
"                                                                                 111oooXXX$$$ooooooooo...XXX...;;;:::                                                                           ",
"                                                                              111777777XXX$$$ooooooooo...XXXOOO;;;:::                                                                           ",
"                                                                              111777777XXX$$$ooooooooo...XXXOOO;;;:::                                                                           ",
"                                                                              111777777XXX$$$ooooooooo...XXXOOO;;;:::                                                                           ",
"                                                                              333999000>>>............XXXXXX+++:::::::::                                                                        ",
"                                                                              333999000>>>............XXXXXX+++:::::::::                                                                        ",
"                                                                              333999000>>>............XXXXXX+++:::::::::                                                                        ",
"                                                                              333777000000>>>*********:::<<<<<<,,,>>>:::                                                                        ",
"                                                                              333777000000>>>*********:::<<<<<<,,,>>>:::                                                                        ",
"                                                                              333777000000>>>*********:::<<<<<<,,,>>>:::                                                                        ",
"                                                                           333777777000000000000999888777333<<<<<<,,,:::                                                                        ",
"                                                                           333777777000000000000999888777333<<<<<<,,,:::                                                                        ",
"                                                                           333777777000000000000999888777333<<<<<<,,,:::                                                                        ",
"                                                                           333777<<<777000000000999888777333222<<<,,,>>>                                                                        ",
"                                                                           333777<<<777000000000999888777333222<<<,,,>>>                                                                        ",
"                                                                           333777<<<777000000000999888777333222<<<,,,>>>                                                                        ",
"                                                                           111777333<<<777777777777777333222222<<<,,,>>>                                                                        ",
"                                                                           111777333<<<777777777777777333222222<<<,,,>>>                                                                        ",
"                                                                           111777333<<<777777777777777333222222<<<,,,>>>                                                                        ",
"                                                                           111777777222222777777777333333222222<<<,,,>>>                                                                        ",
"                                                                           111777777222222777777777333333222222<<<,,,>>>                                                                        ",
"                                                                           111777777222222777777777333333222222<<<,,,>>>                                                                        ",
"                                                                           555555555666<<<>>>111111111111111555555555&&&&&&                                                                     ",
"                                                                           555555555666<<<>>>111111111111111555555555&&&&&&                                                                     ",
"                                                                           555555555666<<<>>>111111111111111555555555&&&&&&                                                                     ",
"                                                                        555666666555444%%%$$$;;;;;;---===555666666555555&&&$$$                                                                  ",
"                                                                        555666666555444%%%$$$;;;;;;---===555666666555555&&&$$$                                                                  ",
"                                                                        555666666555444%%%$$$;;;;;;---===555666666555555&&&$$$                                                                  ",
"                                                                     555666666555555&&&%%%$$$###@@@$$$&&&444666666555555555&&&$$$                                                               ",
"                                                                     555666666555555&&&%%%$$$###@@@$$$&&&444666666555555555&&&$$$                                                               ",
"                                                                     555666666555555&&&%%%$$$###@@@$$$&&&444666666555555555&&&$$$                                                               "
};
