/* XPM */
static char *d84e3e382f994aa4807db78cbf20a363zu7ZX3H38wgGGMLw[] = {
/* columns rows colors chars-per-pixel */
"192 192 29 1 ",
"  c None",
". c black",
"X c #202020",
"o c #2C2C2C",
"O c gray22",
"+ c #484848",
"@ c gray33",
"# c #646464",
"$ c gray44",
"% c #7C7C7C",
"& c #80502C",
"* c #B47044",
"= c #BC7848",
"- c #C87C4C",
"; c #D08050",
": c #DC8854",
"> c #E88C58",
", c #F0945C",
"< c #FC9C60",
"1 c #FCA470",
"2 c gray55",
"3 c #989898",
"4 c gray66",
"5 c #B4B4B4",
"6 c #FCB080",
"7 c #FCB890",
"8 c #FCBC9C",
"9 c #FCC4A4",
"0 c #FCD8C4",
/* pixels */
"                                                                                                                                                                                                ",
"                                                                                                                                                                                                ",
"                                                                                                                                                                                                ",
"                                                                                                                                                                                                ",
"                                                                                                                                                                                                ",
"                                                                                                                                                                                                ",
"                                                                                                                                                                                                ",
"                                                                                                                                                                                                ",
"                                                                                                                                                                                                ",
"                                                                                                                                                                                                ",
"                                                                                                                                                                                                ",
"                                                                                                                                                                                                ",
"                                                                                                                                                                                                ",
"                                                                                                                                                                                                ",
"                                                                                                                                                                                                ",
"                                                                                                                                                                                                ",
"                                                                                                                                                                                                ",
"                                                                                                                                                                                                ",
"                                                                                                                                                                                                ",
"                                                                                                                                                                                                ",
"                                                                                                                                                                                                ",
"                                                                                                                                                                                                ",
"                                                                                                                                                                                                ",
"                                                                                                                                                                                                ",
"                                                                                                                                                                                                ",
"                                                                                                                                                                                                ",
"                                                                                                                                                                                                ",
"                                                                                                                                                                                                ",
"                                                                                                                                                                                                ",
"                                                                                                                                                                                                ",
"                                                                                                                                                                                                ",
"                                                                                                                                                                                                ",
"                                                                                                                                                                                                ",
"                                                                                                                                                                                                ",
"                                                                                                                                                                                                ",
"                                                                                                                                                                                                ",
"                                                                                                                                                                                                ",
"                                                                                                                                                                                                ",
"                                                                                                                                                                                                ",
"                                                                                                                                                                                                ",
"                                                                                                                                                                                                ",
"                                                                                                                                                                                                ",
"                                                                                                                                                                                                ",
"                                                                                                                                                                                                ",
"                                                                                                                                                                                                ",
"                                                                                                                                                                                                ",
"                                                                                                                                                                                                ",
"                                                                                                                                                                                                ",
"                                                                                                                                                                                                ",
"                                                                                                                                                                                                ",
"                                                                                                                                                                                                ",
"                                                                                                                                                                                                ",
"                                                                                                                                                                                                ",
"                                                                                                                                                                                                ",
"                                                                                                                                                                                                ",
"                                                                                                                                                                                                ",
"                                                                                                                                                                                                ",
"                                                                                                                                                                                                ",
"                                                                                                                                                                                                ",
"                                                                                                                                                                                                ",
"                                                                                                                                                                                                ",
"                                                                                                                                                                                                ",
"                                                                                                                                                                                                ",
"                                                                                                                                                                                                ",
"                                                                                                                                                                                                ",
"                                                                                                                                                                                                ",
"                                                                                                                                                                                                ",
"                                                                                                                                                                                                ",
"                                                                                                                                                                                                ",
"                                                                                                                                                                                                ",
"                                                                                                                                                                                                ",
"                                                                                                                                                                                                ",
"                                                                                                                                                                                                ",
"                                                                                                                                                                                                ",
"                                                                                                                                                                                                ",
"                                                                                                                                                                                                ",
"                                                                                                                                                                                                ",
"                                                                                                                                                                                                ",
"                                                                                                                                                                                                ",
"                                                                                                                                                                                                ",
"                                                                                                                                                                                                ",
"                                                                                                                                                                                                ",
"                                                                                                                                                                                                ",
"                                                                                                                                                                                                ",
"                                                                                                                                                                                                ",
"                                                                                                                                                                                                ",
"                                                                                                                                                                                                ",
"                                                                                                                                                                                                ",
"                                                                                                                                                                                                ",
"                                                                                                                                                                                                ",
"                                                                                                                                                                                                ",
"                                                                                                                                                                                                ",
"                                                                                                                                                                                                ",
"                                                                                                                                                                                                ",
"                                                                                                                                                                                                ",
"                                                                                                                                                                                                ",
"                                                                                                                                                                                                ",
"                                                                                                                                                                                                ",
"                                                                                                                                                                                                ",
"                                                                                                                                                                                                ",
"                                                                                                                                                                                                ",
"                                                                                                                                                                                                ",
"                                                                                                OOO                                                                                             ",
"                                                                                                OOO                                                                                             ",
"                                                                                                OOO                                                                                             ",
"                                                                                             @@@$$$@@@                                                                                          ",
"                                                                                             @@@$$$@@@                                                                                          ",
"                                                                                             @@@$$$@@@                                                                                          ",
"                                                                                          +++%%%444%%%+++                                                                                       ",
"                                                                                          +++%%%444%%%+++                                                                                       ",
"                                                                                          +++%%%444%%%+++                                                                                       ",
"                                                                                          +++%%%444%%%+++                                                                                       ",
"                                                                                          +++%%%444%%%+++                                                                                       ",
"                                                                                          +++%%%444%%%+++                                                                                       ",
"                                                                                          +++%%%444%%%+++                                                                                       ",
"                                                                                          +++%%%444%%%+++                                                                                       ",
"                                                                                          +++%%%444%%%+++                                                                                       ",
"                                                                                          +++%%%444%%%+++                                                                                       ",
"                                                                                          +++%%%444%%%+++                                                                                       ",
"                                                                                          +++%%%444%%%+++                                                                                       ",
"                                                                                       %%%%%%###222###%%%%%%                                                                                    ",
"                                                                                       %%%%%%###222###%%%%%%                                                                                    ",
"                                                                                       %%%%%%###222###%%%%%%                                                                                    ",
"                                                                                    ###%%%%%%###222###%%%%%%###                                                                                 ",
"                                                                                    ###%%%%%%###222###%%%%%%###                                                                                 ",
"                                                                                    ###%%%%%%###222###%%%%%%###                                                                                 ",
"                                                                                    @@@%%%444OOO+++OOO###%%%@@@                                                                                 ",
"                                                                                    @@@%%%444OOO+++OOO###%%%@@@                                                                                 ",
"                                                                                    @@@%%%444OOO+++OOO###%%%@@@                                                                                 ",
"                                                                                    @@@333333ooooooooo###%%%+++                                                                                 ",
"                                                                                    @@@333333ooooooooo###%%%+++                                                                                 ",
"                                                                                    @@@333333ooooooooo###%%%+++                                                                                 ",
"                                                                                    @@@444555$$$%%%$$$###%%%OOO                                                                                 ",
"                                                                                    @@@444555$$$%%%$$$###%%%OOO                                                                                 ",
"                                                                                    @@@444555$$$%%%$$$###%%%OOO                                                                                 ",
"                                                                                    @@@444555555555555###+++ooo***                                                                              ",
"                                                                                    @@@444555555555555###+++ooo***                                                                              ",
"                                                                                    @@@444555555555555###+++ooo***                                                                              ",
"                                                                                 111@@@222555222222222++++++...******                                                                           ",
"                                                                                 111@@@222555222222222++++++...******                                                                           ",
"                                                                                 111@@@222555222222222++++++...******                                                                           ",
"                                                                              111888@@@@@@%%%+++++++++oooXXX...******                                                                           ",
"                                                                              111888@@@@@@%%%+++++++++oooXXX...******                                                                           ",
"                                                                              111888@@@@@@%%%+++++++++oooXXX...******                                                                           ",
"                                                                              111888###@@@###ooooooooo...XXX...===******                                                                        ",
"                                                                              111888###@@@###ooooooooo...XXX...===******                                                                        ",
"                                                                              111888###@@@###ooooooooo...XXX...===******                                                                        ",
"                                                                              111888%%%@@@###ooooooooo......@@@---===***                                                                        ",
"                                                                              111888%%%@@@###ooooooooo......@@@---===***                                                                        ",
"                                                                              111888%%%@@@###ooooooooo......@@@---===***                                                                        ",
"                                                                           111111666666%%%@@@.........XXX@@@***---===***                                                                        ",
"                                                                           111111666666%%%@@@.........XXX@@@***---===***                                                                        ",
"                                                                           111111666666%%%@@@.........XXX@@@***---===***                                                                        ",
"                                                                           111111666000777---&&&&&&&&&***>>>>>>:::---***                                                                        ",
"                                                                           111111666000777---&&&&&&&&&***>>>>>>:::---***                                                                        ",
"                                                                           111111666000777---&&&&&&&&&***>>>>>>:::---***                                                                        ",
"                                                                           111666666000999999999999777666111>>>>>>:::***                                                                        ",
"                                                                           111666666000999999999999777666111>>>>>>:::***                                                                        ",
"                                                                           111666666000999999999999777666111>>>>>>:::***                                                                        ",
"                                                                           111666>>>666999999999999777666111<<<>>>:::---                                                                        ",
"                                                                           111666>>>666999999999999777666111<<<>>>:::---                                                                        ",
"                                                                           111666>>>666999999999999777666111<<<>>>:::---                                                                        ",
"                                                                           111666111>>>111111111111111111<<<<<<>>>:::---                                                                        ",
"                                                                           111666111>>>111111111111111111<<<<<<>>>:::---                                                                        ",
"                                                                           111666111>>>111111111111111111<<<<<<>>>:::---                                                                        ",
"                                                                           ,,,666666>>>>>><<<<<<<<<<<<<<<<<<>>>>>>;;;---                                                                        ",
"                                                                           ,,,666666>>>>>><<<<<<<<<<<<<<<<<<>>>>>>;;;---                                                                        ",
"                                                                           ,,,666666>>>>>><<<<<<<<<<<<<<<<<<>>>>>>;;;---                                                                        ",
"                                                                           :::666666666:::;;;;;;;;;;;;;;;;;;;;;;;;;;;---                                                                        ",
"                                                                           :::666666666:::;;;;;;;;;;;;;;;;;;;;;;;;;;;---                                                                        ",
"                                                                           :::666666666:::;;;;;;;;;;;;;;;;;;;;;;;;;;;---                                                                        ",
"                                                                        333333333333%%%===============%%%%%%%%%%%%%%%%%%###                                                                     ",
"                                                                        333333333333%%%===============%%%%%%%%%%%%%%%%%%###                                                                     ",
"                                                                        333333333333%%%===============%%%%%%%%%%%%%%%%%%###                                                                     ",
"                                                                     333444444444333%%%$$$$$$---===@@@%%%333333333%%%%%%%%%###                                                                  ",
"                                                                     333444444444333%%%$$$$$$---===@@@%%%333333333%%%%%%%%%###                                                                  ",
"                                                                     333444444444333%%%$$$$$$---===@@@%%%333333333%%%%%%%%%###                                                                  ",
"                                                                     333444444444333%%%%%%$$$@@@@@@%%%%%%333333%%%%%%%%%%%%###                                                                  ",
"                                                                     333444444444333%%%%%%$$$@@@@@@%%%%%%333333%%%%%%%%%%%%###                                                                  ",
"                                                                     333444444444333%%%%%%$$$@@@@@@%%%%%%333333%%%%%%%%%%%%###                                                                  ",
"                                                                  333333444333222$$$%%%%%%###@@@@@@%%%%%%%%%$$$$$$$$$############                                                               ",
"                                                                  333333444333222$$$%%%%%%###@@@@@@%%%%%%%%%$$$$$$$$$############                                                               ",
"                                                                  333333444333222$$$%%%%%%###@@@@@@%%%%%%%%%$$$$$$$$$############                                                               ",
"                                                               333444444444444333333$$$#########+++@@@%%%$$$%%%222%%%%%%%%%#########                                                            ",
"                                                               333444444444444333333$$$#########+++@@@%%%$$$%%%222%%%%%%%%%#########                                                            ",
"                                                               333444444444444333333$$$#########+++@@@%%%$$$%%%222%%%%%%%%%#########                                                            ",
"                                                               444444444444333333%%%%%%%%%###@@@+++@@@$$$%%%222222222%%%%%%%%%######                                                            ",
"                                                               444444444444333333%%%%%%%%%###@@@+++@@@$$$%%%222222222%%%%%%%%%######                                                            ",
"                                                               444444444444333333%%%%%%%%%###@@@+++@@@$$$%%%222222222%%%%%%%%%######                                                            ",
"                                                            333444444444333333%%%%%%%%%######@@@+++@@@$$$%%%222222222%%%%%%%%%%%%######                                                         ",
"                                                            333444444444333333%%%%%%%%%######@@@+++@@@$$$%%%222222222%%%%%%%%%%%%######                                                         ",
"                                                            333444444444333333%%%%%%%%%######@@@+++@@@$$$%%%222222222%%%%%%%%%%%%######                                                         "
};
